;FLAVOR:RepRap
;TIME:1346
M104 S250.000000
M109 S250.000000
G21 ;metric values
G90 ;absolute positioning
M82 ;set extruder to absolute mode
M107 ;start with the fan off
G28 X0 Y0 ;move X/Y to min endstops
G28 Z0 ;move Z to min endstops
G1 Z15.0 F9000 ;move the platform down 15mm
G92 E0 ;zero the extruded length
G1 F200 E3 ;extrude 3mm of feed stock
G92 E0 ;zero the extruded length again
G1 F9000
;Put printing message on LCD screen
M117 Printing...
;Generated with Cura_SteamEngine master
;LAYER_COUNT:198
;LAYER:0
M107
G0 F7200.000000 X0.000 Y0.000 Z0.300
G1 F1500.000 E-6.50000
G0 F7200.00000 X3.001 Y-12.549
;TYPE:SKIRT
G1 F1500.000 E0.00000
G1 F1800.00000 X3.790 Y-12.509 E0.03941
G1 X4.571 Y-12.389 E0.07884
G1 X5.335 Y-12.191 E0.11821
G1 X6.076 Y-11.917 E0.15763
G1 X6.785 Y-11.569 E0.19703
G1 X7.455 Y-11.152 E0.23640
G1 X8.079 Y-10.668 E0.27580
G1 X8.652 Y-10.125 E0.31518
G1 X9.166 Y-9.526 E0.35456
G1 X9.420 Y-9.178 E0.37606
G1 X10.563 Y-7.522 E0.47644
G1 X10.790 Y-7.510 E0.48778
G1 X11.570 Y-7.390 E0.52716
G1 X12.335 Y-7.192 E0.56658
G1 X13.075 Y-6.918 E0.60595
G1 X13.784 Y-6.570 E0.64535
G1 X14.455 Y-6.153 E0.68477
G1 X15.079 Y-5.670 E0.72413
G1 X15.652 Y-5.126 E0.76355
G1 X16.166 Y-4.527 E0.80293
G1 X16.618 Y-3.879 E0.84235
G1 X17.001 Y-3.188 E0.88176
G1 X17.313 Y-2.463 E0.92114
G1 X17.550 Y-1.710 E0.96052
G1 X17.709 Y-0.936 E0.99995
G1 X17.790 Y-0.151 E1.03932
G1 X17.800 Y0.250 E1.05933
G1 X17.800 Y4.749 E1.28379
G1 X17.760 Y5.538 E1.32320
G1 X17.641 Y6.318 E1.36256
G1 X17.443 Y7.083 E1.40199
G1 X17.169 Y7.823 E1.44136
G1 X16.821 Y8.532 E1.48076
G1 X16.403 Y9.203 E1.52020
G1 X15.920 Y9.827 E1.55957
G1 X15.377 Y10.400 E1.59895
G1 X14.778 Y10.915 E1.63836
G1 X14.130 Y11.366 E1.67775
G1 X13.439 Y11.750 E1.71719
G1 X12.714 Y12.062 E1.75657
G1 X11.961 Y12.299 E1.79595
G1 X11.187 Y12.458 E1.83537
G1 X10.402 Y12.539 E1.87475
G1 X10.000 Y12.549 E1.89481
G1 X-10.000 Y12.550 E2.89261
G1 X-10.788 Y12.510 E2.93198
G1 X-11.569 Y12.391 E2.97139
G1 X-12.333 Y12.193 E3.01077
G1 X-13.074 Y11.919 E3.05018
G1 X-13.783 Y11.571 E3.08958
G1 X-14.453 Y11.154 E3.12896
G1 X-15.078 Y10.671 E3.16836
G1 X-15.651 Y10.127 E3.20778
G1 X-16.165 Y9.528 E3.24716
G1 X-16.617 Y8.880 E3.28658
G1 X-17.001 Y8.190 E3.32597
G1 X-17.312 Y7.464 E3.36538
G1 X-17.549 Y6.711 E3.40476
G1 X-17.709 Y5.938 E3.44414
G1 X-17.790 Y5.152 E3.48356
G1 X-17.800 Y4.750 E3.50363
G1 X-17.800 Y0.249 E3.72818
G1 X-17.760 Y-0.540 E3.76760
G1 X-17.641 Y-1.320 E3.80696
G1 X-17.443 Y-2.085 E3.84638
G1 X-17.169 Y-2.825 E3.88575
G1 X-16.821 Y-3.534 E3.92516
G1 X-16.403 Y-4.205 E3.96460
G1 X-15.920 Y-4.829 E4.00396
G1 X-15.377 Y-5.402 E4.04335
G1 X-14.778 Y-5.917 E4.08276
G1 X-14.130 Y-6.368 E4.12215
G1 X-13.439 Y-6.752 E4.16159
G1 X-12.714 Y-7.064 E4.20097
G1 X-11.961 Y-7.301 E4.24035
G1 X-11.187 Y-7.460 E4.27977
G1 X-10.561 Y-7.525 E4.31117
G1 X-9.422 Y-9.177 E4.41128
G1 X-8.941 Y-9.804 E4.45070
G1 X-8.400 Y-10.379 E4.49009
G1 X-7.803 Y-10.896 E4.52949
G1 X-7.157 Y-11.350 E4.56889
G1 X-6.468 Y-11.736 E4.60829
G1 X-5.744 Y-12.051 E4.64768
G1 X-4.992 Y-12.291 E4.68706
G1 X-4.219 Y-12.454 E4.72647
G1 X-3.434 Y-12.538 E4.76586
G1 X-2.999 Y-12.550 E4.78757
G1 X3.001 Y-12.549 E5.08691
G0 F7200.00000 X3.001 Y-12.149
G1 F1800.000 X3.769 Y-12.109 E5.12528
G1 X4.529 Y-11.989 E5.16367
G1 X5.272 Y-11.791 E5.20203
G1 X5.991 Y-11.518 E5.24040
G1 X6.678 Y-11.170 E5.27882
G1 X7.324 Y-10.754 E5.31715
G1 X7.924 Y-10.273 E5.35552
G1 X8.471 Y-9.732 E5.39390
G1 X9.091 Y-8.951 E5.44365
G1 X10.346 Y-7.132 E5.55390
G1 X10.769 Y-7.110 E5.57504
G1 X11.529 Y-6.990 E5.61342
G1 X12.272 Y-6.793 E5.65177
G1 X12.991 Y-6.519 E5.69016
G1 X13.677 Y-6.172 E5.72851
G1 X14.324 Y-5.755 E5.76692
G1 X14.924 Y-5.274 E5.80528
G1 X15.471 Y-4.733 E5.84366
G1 X15.959 Y-4.138 E5.88206
G1 X16.382 Y-3.496 E5.92041
G1 X16.736 Y-2.813 E5.95879
G1 X17.018 Y-2.098 E5.99714
G1 X17.224 Y-1.356 E6.03556
G1 X17.351 Y-0.598 E6.07390
G1 X17.400 Y0.250 E6.11628
G1 X17.400 Y4.749 E6.34073
G1 X17.360 Y5.517 E6.37910
G1 X17.241 Y6.277 E6.41748
G1 X17.043 Y7.020 E6.45584
G1 X16.769 Y7.739 E6.49423
G1 X16.422 Y8.425 E6.53258
G1 X16.006 Y9.072 E6.57096
G1 X15.525 Y9.672 E6.60932
G1 X14.984 Y10.219 E6.64771
G1 X14.389 Y10.707 E6.68610
G1 X13.747 Y11.130 E6.72446
G1 X13.064 Y11.485 E6.76286
G1 X12.349 Y11.766 E6.80119
G1 X11.607 Y11.972 E6.83961
G1 X10.849 Y12.100 E6.87796
G1 X10.000 Y12.149 E6.92038
G1 X-10.000 Y12.150 E7.91819
G1 X-10.768 Y12.110 E7.95656
G1 X-11.528 Y11.991 E7.99493
G1 X-12.271 Y11.793 E8.03330
G1 X-12.990 Y11.519 E8.07168
G1 X-13.676 Y11.172 E8.11004
G1 X-14.323 Y10.756 E8.14841
G1 X-14.923 Y10.275 E8.18678
G1 X-15.470 Y9.734 E8.22516
G1 X-15.958 Y9.139 E8.26355
G1 X-16.381 Y8.497 E8.30191
G1 X-16.736 Y7.815 E8.34027
G1 X-17.017 Y7.099 E8.37864
G1 X-17.223 Y6.358 E8.41701
G1 X-17.351 Y5.599 E8.45542
G1 X-17.400 Y4.750 E8.49784
G1 X-17.400 Y0.249 E8.72240
G1 X-17.360 Y-0.519 E8.76077
G1 X-17.241 Y-1.279 E8.79914
G1 X-17.043 Y-2.022 E8.83751
G1 X-16.769 Y-2.741 E8.87589
G1 X-16.422 Y-3.427 E8.91425
G1 X-16.006 Y-4.074 E8.95262
G1 X-15.525 Y-4.674 E8.99099
G1 X-14.984 Y-5.221 E9.02937
G1 X-14.389 Y-5.709 E9.06776
G1 X-13.747 Y-6.132 E9.10612
G1 X-13.064 Y-6.487 E9.14452
G1 X-12.349 Y-6.768 E9.18285
G1 X-11.607 Y-6.974 E9.22127
G1 X-10.849 Y-7.102 E9.25962
G1 X-10.346 Y-7.131 E9.28476
G1 X-9.092 Y-8.950 E9.39498
G1 X-8.624 Y-9.560 E9.43334
G1 X-8.094 Y-10.118 E9.47174
G1 X-7.509 Y-10.617 E9.51010
G1 X-6.876 Y-11.054 E9.54847
G1 X-6.201 Y-11.422 E9.58683
G1 X-5.491 Y-11.718 E9.62521
G1 X-4.754 Y-11.939 E9.66359
G1 X-3.998 Y-12.082 E9.70198
G1 X-2.999 Y-12.150 E9.75193
G1 X3.001 Y-12.149 E10.05127
G0 F7200.00000 X3.001 Y-11.749
G1 F1800.000 X3.748 Y-11.709 E10.08860
G1 X4.487 Y-11.589 E10.12595
G1 X5.208 Y-11.392 E10.16324
G1 X5.904 Y-11.118 E10.20055
G1 X6.567 Y-10.772 E10.23787
G1 X7.190 Y-10.357 E10.27521
G1 X7.764 Y-9.878 E10.31251
G1 X8.284 Y-9.340 E10.34984
G1 X8.762 Y-8.724 E10.38874
G1 X10.129 Y-6.743 E10.50882
G1 X10.748 Y-6.710 E10.53974
G1 X11.486 Y-6.590 E10.57705
G1 X12.208 Y-6.393 E10.61438
G1 X12.904 Y-6.119 E10.65170
G1 X13.567 Y-5.773 E10.68901
G1 X14.190 Y-5.358 E10.72636
G1 X14.764 Y-4.879 E10.76366
G1 X15.284 Y-4.341 E10.80099
G1 X15.744 Y-3.751 E10.83831
G1 X16.138 Y-3.115 E10.87564
G1 X16.462 Y-2.441 E10.91294
G1 X16.712 Y-1.736 E10.95026
G1 X16.886 Y-1.008 E10.98761
G1 X16.981 Y-0.266 E11.02493
G1 X17.000 Y0.250 E11.05069
G1 X17.000 Y4.749 E11.27514
G1 X16.960 Y5.496 E11.31247
G1 X16.841 Y6.234 E11.34976
G1 X16.643 Y6.956 E11.38711
G1 X16.370 Y7.652 E11.42441
G1 X16.023 Y8.315 E11.46174
G1 X15.608 Y8.938 E11.49909
G1 X15.129 Y9.512 E11.53639
G1 X14.592 Y10.033 E11.57372
G1 X14.002 Y10.492 E11.61101
G1 X13.366 Y10.887 E11.64836
G1 X12.692 Y11.211 E11.68567
G1 X11.987 Y11.461 E11.72299
G1 X11.259 Y11.635 E11.76033
G1 X10.517 Y11.730 E11.79765
G1 X10.000 Y11.749 E11.82346
G1 X-10.000 Y11.750 E12.82127
G1 X-10.747 Y11.710 E12.85859
G1 X-11.485 Y11.591 E12.89588
G1 X-12.207 Y11.393 E12.93323
G1 X-12.903 Y11.120 E12.97053
G1 X-13.566 Y10.774 E13.00784
G1 X-14.189 Y10.359 E13.04519
G1 X-14.763 Y9.880 E13.08249
G1 X-15.283 Y9.342 E13.11982
G1 X-15.743 Y8.752 E13.15714
G1 X-16.137 Y8.116 E13.19447
G1 X-16.462 Y7.442 E13.23180
G1 X-16.712 Y6.737 E13.26912
G1 X-16.886 Y6.010 E13.30641
G1 X-16.981 Y5.268 E13.34373
G1 X-17.000 Y4.750 E13.36959
G1 X-17.000 Y0.249 E13.59415
G1 X-16.960 Y-0.498 E13.63147
G1 X-16.841 Y-1.236 E13.66877
G1 X-16.643 Y-1.958 E13.70612
G1 X-16.370 Y-2.654 E13.74342
G1 X-16.023 Y-3.317 E13.78075
G1 X-15.608 Y-3.940 E13.81810
G1 X-15.129 Y-4.514 E13.85539
G1 X-14.592 Y-5.035 E13.89272
G1 X-14.002 Y-5.494 E13.93002
G1 X-13.366 Y-5.889 E13.96737
G1 X-12.692 Y-6.213 E14.00468
G1 X-11.987 Y-6.463 E14.04200
G1 X-11.259 Y-6.637 E14.07934
G1 X-10.517 Y-6.732 E14.11666
G1 X-10.126 Y-6.746 E14.13618
G1 X-8.763 Y-8.723 E14.25598
G1 X-8.306 Y-9.316 E14.29333
G1 X-7.789 Y-9.856 E14.33063
G1 X-7.217 Y-10.338 E14.36795
G1 X-6.596 Y-10.756 E14.40529
G1 X-5.935 Y-11.105 E14.44259
G1 X-5.240 Y-11.382 E14.47991
G1 X-4.519 Y-11.583 E14.51725
G1 X-3.781 Y-11.706 E14.55458
G1 X-2.999 Y-11.750 E14.59366
G1 X3.001 Y-11.749 E14.89300
G0 F7200.00000 X3.001 Y-11.349
G1 F1800.000 X3.726 Y-11.309 E14.92922
G1 X4.443 Y-11.189 E14.96549
G1 X5.142 Y-10.992 E15.00172
G1 X5.815 Y-10.719 E15.03796
G1 X6.454 Y-10.373 E15.07421
G1 X7.051 Y-9.960 E15.11043
G1 X7.599 Y-9.483 E15.14667
G1 X8.091 Y-8.949 E15.18290
G1 X8.433 Y-8.497 E15.21118
G1 X9.914 Y-6.350 E15.34130
G1 X10.001 Y-6.350 E15.34564
G1 X10.726 Y-6.310 E15.38187
G1 X11.443 Y-6.190 E15.41814
G1 X12.142 Y-5.993 E15.45437
G1 X12.815 Y-5.720 E15.49060
G1 X13.454 Y-5.374 E15.52686
G1 X14.051 Y-4.961 E15.56307
G1 X14.599 Y-4.484 E15.59932
G1 X15.091 Y-3.950 E15.63554
G1 X15.522 Y-3.365 E15.67180
G1 X15.886 Y-2.736 E15.70805
G1 X16.178 Y-2.072 E15.74424
G1 X16.396 Y-1.379 E15.78049
G1 X16.536 Y-0.666 E15.81674
G1 X16.600 Y0.250 E15.86255
G1 X16.600 Y4.749 E16.08700
G1 X16.560 Y5.474 E16.12323
G1 X16.441 Y6.191 E16.15949
G1 X16.243 Y6.890 E16.19573
G1 X15.970 Y7.563 E16.23197
G1 X15.625 Y8.202 E16.26820
G1 X15.211 Y8.799 E16.30444
G1 X14.735 Y9.347 E16.34066
G1 X14.201 Y9.840 E16.37692
G1 X13.616 Y10.270 E16.41314
G1 X12.987 Y10.634 E16.44939
G1 X12.322 Y10.927 E16.48565
G1 X11.629 Y11.145 E16.52189
G1 X10.917 Y11.285 E16.55810
G1 X10.000 Y11.349 E16.60396
G1 X-10.000 Y11.350 E17.60176
G1 X-10.725 Y11.310 E17.63799
G1 X-11.441 Y11.191 E17.67420
G1 X-12.140 Y10.993 E17.71044
G1 X-12.814 Y10.720 E17.74672
G1 X-13.453 Y10.375 E17.78295
G1 X-14.050 Y9.961 E17.81920
G1 X-14.598 Y9.485 E17.85541
G1 X-15.090 Y8.951 E17.89164
G1 X-15.521 Y8.366 E17.92789
G1 X-15.885 Y7.738 E17.96410
G1 X-16.178 Y7.073 E18.00036
G1 X-16.396 Y6.380 E18.03660
G1 X-16.536 Y5.667 E18.07285
G1 X-16.600 Y4.750 E18.11871
G1 X-16.600 Y0.249 E18.34327
G1 X-16.560 Y-0.476 E18.37949
G1 X-16.441 Y-1.193 E18.41575
G1 X-16.243 Y-1.892 E18.45200
G1 X-15.970 Y-2.565 E18.48823
G1 X-15.625 Y-3.204 E18.52446
G1 X-15.211 Y-3.801 E18.56071
G1 X-14.735 Y-4.349 E18.59692
G1 X-14.201 Y-4.842 E18.63318
G1 X-13.616 Y-5.272 E18.66940
G1 X-12.987 Y-5.636 E18.70566
G1 X-12.322 Y-5.929 E18.74191
G1 X-11.629 Y-6.147 E18.77816
G1 X-10.917 Y-6.287 E18.81436
G1 X-9.999 Y-6.351 E18.86027
G1 X-9.913 Y-6.351 E18.86456
G1 X-8.434 Y-8.496 E18.99455
G1 X-7.989 Y-9.071 E19.03082
G1 X-7.484 Y-9.593 E19.06706
G1 X-6.925 Y-10.056 E19.10327
G1 X-6.318 Y-10.455 E19.13951
G1 X-5.671 Y-10.785 E19.17574
G1 X-4.992 Y-11.042 E19.21196
G1 X-4.288 Y-11.223 E19.24823
G1 X-3.569 Y-11.325 E19.28446
G1 X-2.999 Y-11.350 E19.31292
G1 X3.001 Y-11.349 E19.61227
G0 F7200.00000 X3.001 Y-10.949
G1 F1800.000 X3.704 Y-10.909 E19.64740
G1 X4.398 Y-10.789 E19.68253
G1 X5.073 Y-10.592 E19.71761
G1 X5.722 Y-10.319 E19.75274
G1 X6.336 Y-9.975 E19.78785
G1 X6.907 Y-9.563 E19.82298
G1 X7.428 Y-9.089 E19.85812
G1 X7.891 Y-8.559 E19.89323
G1 X8.103 Y-8.270 E19.91111
G1 X9.704 Y-5.950 E20.05174
G1 X10.001 Y-5.950 E20.06656
G1 X10.704 Y-5.910 E20.10169
G1 X11.398 Y-5.790 E20.13683
G1 X12.073 Y-5.593 E20.17191
G1 X12.722 Y-5.320 E20.20704
G1 X13.336 Y-4.976 E20.24215
G1 X13.907 Y-4.564 E20.27728
G1 X14.428 Y-4.090 E20.31242
G1 X14.891 Y-3.560 E20.34753
G1 X15.292 Y-2.981 E20.38267
G1 X15.624 Y-2.360 E20.41780
G1 X15.883 Y-1.706 E20.45289
G1 X16.067 Y-1.026 E20.48804
G1 X16.173 Y-0.330 E20.52316
G1 X16.200 Y0.250 E20.55213
G1 X16.200 Y4.749 E20.77658
G1 X16.160 Y5.452 E20.81171
G1 X16.041 Y6.146 E20.84684
G1 X15.843 Y6.821 E20.88194
G1 X15.571 Y7.470 E20.91705
G1 X15.226 Y8.084 E20.95218
G1 X14.815 Y8.655 E20.98728
G1 X14.341 Y9.176 E21.02242
G1 X13.811 Y9.640 E21.05757
G1 X13.232 Y10.040 E21.09268
G1 X12.611 Y10.372 E21.12781
G1 X11.957 Y10.632 E21.16292
G1 X11.277 Y10.816 E21.19806
G1 X10.581 Y10.922 E21.23319
G1 X10.000 Y10.949 E21.26221
G1 X-10.000 Y10.950 E22.26001
G1 X-10.703 Y10.910 E22.29514
G1 X-11.396 Y10.791 E22.33022
G1 X-12.072 Y10.593 E22.36536
G1 X-12.721 Y10.321 E22.40047
G1 X-13.335 Y9.977 E22.43558
G1 X-13.906 Y9.565 E22.47071
G1 X-14.427 Y9.091 E22.50585
G1 X-14.890 Y8.561 E22.54096
G1 X-15.291 Y7.982 E22.57610
G1 X-15.623 Y7.361 E22.61123
G1 X-15.883 Y6.707 E22.64634
G1 X-16.067 Y6.028 E22.68144
G1 X-16.173 Y5.332 E22.71656
G1 X-16.200 Y4.750 E22.74563
G1 X-16.200 Y0.249 E22.97019
G1 X-16.160 Y-0.454 E23.00532
G1 X-16.041 Y-1.148 E23.04045
G1 X-15.843 Y-1.823 E23.07554
G1 X-15.571 Y-2.472 E23.11065
G1 X-15.226 Y-3.086 E23.14579
G1 X-14.815 Y-3.657 E23.18088
G1 X-14.341 Y-4.178 E23.21603
G1 X-13.811 Y-4.642 E23.25117
G1 X-13.232 Y-5.042 E23.28628
G1 X-12.611 Y-5.374 E23.32141
G1 X-11.957 Y-5.634 E23.35652
G1 X-11.277 Y-5.818 E23.39167
G1 X-10.581 Y-5.924 E23.42679
G1 X-9.999 Y-5.951 E23.45586
G1 X-9.702 Y-5.951 E23.47068
G1 X-8.104 Y-8.269 E23.61114
G1 X-7.673 Y-8.825 E23.64624
G1 X-7.181 Y-9.329 E23.68138
G1 X-6.635 Y-9.773 E23.71648
G1 X-6.042 Y-10.153 E23.75162
G1 X-5.410 Y-10.463 E23.78674
G1 X-4.747 Y-10.699 E23.82185
G1 X-4.061 Y-10.859 E23.85700
G1 X-3.362 Y-10.939 E23.89210
G1 X-2.999 Y-10.950 E23.91022
G1 X3.001 Y-10.949 E24.20956
G0 F7200.00000 X3.001 Y-10.549
G1 F1800.000 X3.681 Y-10.509 E24.24354
G1 X4.351 Y-10.389 E24.27750
G1 X5.003 Y-10.192 E24.31148
G1 X5.627 Y-9.920 E24.34544
G1 X6.215 Y-9.577 E24.37940
G1 X6.758 Y-9.167 E24.41335
G1 X7.250 Y-8.696 E24.44733
G1 X7.774 Y-8.043 E24.48910
G1 X9.494 Y-5.550 E24.64020
G1 X10.001 Y-5.550 E24.66550
G1 X10.681 Y-5.510 E24.69948
G1 X11.351 Y-5.390 E24.73344
G1 X12.003 Y-5.193 E24.76742
G1 X12.627 Y-4.921 E24.80138
G1 X13.215 Y-4.578 E24.83534
G1 X13.758 Y-4.168 E24.86929
G1 X14.250 Y-3.697 E24.90327
G1 X14.683 Y-3.172 E24.93722
G1 X15.052 Y-2.599 E24.97122
G1 X15.351 Y-1.987 E25.00521
G1 X15.576 Y-1.345 E25.03914
G1 X15.725 Y-0.680 E25.07314
G1 X15.800 Y0.250 E25.11969
G1 X15.800 Y4.749 E25.34415
G1 X15.760 Y5.429 E25.37813
G1 X15.641 Y6.099 E25.41208
G1 X15.444 Y6.751 E25.44606
G1 X15.172 Y7.375 E25.48002
G1 X14.828 Y7.963 E25.51401
G1 X14.418 Y8.507 E25.54800
G1 X13.947 Y8.998 E25.58194
G1 X13.422 Y9.432 E25.61592
G1 X12.850 Y9.801 E25.64988
G1 X12.238 Y10.100 E25.68387
G1 X11.596 Y10.325 E25.71781
G1 X10.931 Y10.474 E25.75181
G1 X10.000 Y10.549 E25.79840
G1 X-10.000 Y10.550 E26.79621
G1 X-10.679 Y10.510 E26.83014
G1 X-11.350 Y10.391 E26.86414
G1 X-12.002 Y10.194 E26.89812
G1 X-12.626 Y9.922 E26.93208
G1 X-13.214 Y9.578 E26.96607
G1 X-13.757 Y9.168 E27.00001
G1 X-14.249 Y8.698 E27.03396
G1 X-14.683 Y8.172 E27.06798
G1 X-15.051 Y7.600 E27.10191
G1 X-15.351 Y6.989 E27.13587
G1 X-15.576 Y6.346 E27.16986
G1 X-15.725 Y5.682 E27.20381
G1 X-15.800 Y4.750 E27.25046
G1 X-15.800 Y0.249 E27.47502
G1 X-15.760 Y-0.431 E27.50900
G1 X-15.641 Y-1.101 E27.54295
G1 X-15.444 Y-1.753 E27.57693
G1 X-15.172 Y-2.377 E27.61089
G1 X-14.828 Y-2.965 E27.64488
G1 X-14.418 Y-3.509 E27.67886
G1 X-13.947 Y-4.000 E27.71281
G1 X-13.422 Y-4.434 E27.74679
G1 X-12.850 Y-4.803 E27.78075
G1 X-12.238 Y-5.102 E27.81473
G1 X-11.596 Y-5.327 E27.84867
G1 X-10.931 Y-5.476 E27.88267
G1 X-9.999 Y-5.551 E27.92932
G1 X-9.492 Y-5.551 E27.95461
G1 X-7.775 Y-8.042 E28.10555
G1 X-7.356 Y-8.579 E28.13953
G1 X-6.878 Y-9.063 E28.17347
G1 X-6.346 Y-9.488 E28.20744
G1 X-5.767 Y-9.847 E28.24143
G1 X-5.151 Y-10.136 E28.27538
G1 X-4.505 Y-10.351 E28.30934
G1 X-3.838 Y-10.489 E28.34333
G1 X-2.999 Y-10.550 E28.38529
G1 X3.001 Y-10.549 E28.68464
G0 F7200.00000 X3.001 Y-10.149
G1 F1800.000 X3.657 Y-10.109 E28.71742
G1 X4.303 Y-9.990 E28.75020
G1 X4.929 Y-9.793 E28.78294
G1 X5.528 Y-9.521 E28.81576
G1 X6.088 Y-9.179 E28.84849
G1 X6.603 Y-8.771 E28.88127
G1 X7.065 Y-8.304 E28.91405
G1 X7.445 Y-7.815 E28.94494
G1 X9.283 Y-5.150 E29.10646
G1 X10.001 Y-5.150 E29.14228
G1 X10.657 Y-5.110 E29.17507
G1 X11.303 Y-4.991 E29.20784
G1 X11.929 Y-4.794 E29.24058
G1 X12.527 Y-4.522 E29.27335
G1 X13.088 Y-4.180 E29.30613
G1 X13.603 Y-3.772 E29.33891
G1 X14.065 Y-3.305 E29.37169
G1 X14.467 Y-2.785 E29.40448
G1 X14.802 Y-2.220 E29.43725
G1 X15.066 Y-1.618 E29.47004
G1 X15.256 Y-0.989 E29.50282
G1 X15.367 Y-0.342 E29.53558
G1 X15.400 Y0.250 E29.56516
G1 X15.400 Y4.749 E29.78961
G1 X15.360 Y5.405 E29.82240
G1 X15.241 Y6.051 E29.85517
G1 X15.044 Y6.678 E29.88796
