;FLAVOR:RepRap
;TIME:998
M104 S250.000000
M109 S250.000000
G21 ;metric values
G90 ;absolute positioning
M82 ;set extruder to absolute mode
M107 ;start with the fan off
G28 X0 Y0 ;move X/Y to min endstops
G28 Z0 ;move Z to min endstops
G1 Z15.0 F9000 ;move the platform down 15mm
G92 E0 ;zero the extruded length
G1 F200 E3 ;extrude 3mm of feed stock
G92 E0 ;zero the extruded length again
G1 F9000
;Put printing message on LCD screen
M117 Printing...
;Generated with Cura_SteamEngine master
;LAYER_COUNT:198
;LAYER:0
M107
G0 F7200.000000 X0.000 Y1.500 Z0.300
G1 F1500.000 E-6.50000
G0 F7200.00000 X-0.014 Y-10.033
;TYPE:SKIRT
G1 F1500.000 E0.00000
G1 F1800.00000 X0.039 Y-10.050 E0.00278
G1 X0.813 Y-10.209 E0.04220
G1 X1.598 Y-10.290 E0.08157
G1 X2.000 Y-10.300 E0.10163
G1 X3.000 Y-10.300 E0.15152
G1 X3.789 Y-10.260 E0.19094
G1 X4.569 Y-10.141 E0.23030
G1 X5.334 Y-9.943 E0.26972
G1 X6.074 Y-9.669 E0.30909
G1 X6.783 Y-9.321 E0.34850
G1 X7.454 Y-8.903 E0.38794
G1 X8.078 Y-8.420 E0.42730
G1 X8.515 Y-8.015 E0.45703
G1 X9.230 Y-7.300 E0.50748
G1 X10.000 Y-7.300 E0.54589
G1 X10.789 Y-7.260 E0.58531
G1 X11.569 Y-7.141 E0.62467
G1 X12.334 Y-6.943 E0.66409
G1 X13.074 Y-6.669 E0.70346
G1 X13.783 Y-6.321 E0.74287
G1 X14.454 Y-5.903 E0.78231
G1 X15.078 Y-5.420 E0.82167
G1 X15.651 Y-4.877 E0.86106
G1 X16.166 Y-4.278 E0.90047
G1 X16.617 Y-3.630 E0.93986
G1 X17.001 Y-2.939 E0.97930
G1 X17.313 Y-2.214 E1.01868
G1 X17.550 Y-1.461 E1.05806
G1 X17.709 Y-0.687 E1.09748
G1 X17.790 Y0.098 E1.13685
G1 X17.800 Y0.500 E1.15691
G1 X17.800 Y2.500 E1.25669
G1 X17.760 Y3.289 E1.29611
G1 X17.641 Y4.069 E1.33547
G1 X17.443 Y4.834 E1.37490
G1 X17.169 Y5.574 E1.41427
G1 X16.821 Y6.283 E1.45367
G1 X16.403 Y6.954 E1.49311
G1 X15.920 Y7.578 E1.53248
G1 X15.377 Y8.151 E1.57186
G1 X14.778 Y8.666 E1.61127
G1 X14.130 Y9.117 E1.65066
G1 X13.439 Y9.501 E1.69010
G1 X12.714 Y9.813 E1.72948
G1 X11.961 Y10.050 E1.76886
G1 X11.187 Y10.209 E1.80828
G1 X10.402 Y10.290 E1.84765
G1 X10.000 Y10.300 E1.86772
G1 X-10.000 Y10.300 E2.86552
G1 X-10.789 Y10.260 E2.90493
G1 X-11.569 Y10.141 E2.94430
G1 X-12.334 Y9.943 E2.98372
G1 X-13.074 Y9.669 E3.02309
G1 X-13.783 Y9.321 E3.06249
G1 X-14.454 Y8.903 E3.10194
G1 X-15.078 Y8.420 E3.14130
G1 X-15.651 Y7.877 E3.18069
G1 X-16.166 Y7.278 E3.22010
G1 X-16.617 Y6.630 E3.25949
G1 X-17.001 Y5.939 E3.29893
G1 X-17.313 Y5.214 E3.33830
G1 X-17.550 Y4.461 E3.37769
G1 X-17.709 Y3.687 E3.41711
G1 X-17.790 Y2.902 E3.45648
G1 X-17.800 Y2.500 E3.47654
G1 X-17.800 Y0.500 E3.57632
G1 X-17.760 Y-0.289 E3.61574
G1 X-17.641 Y-1.069 E3.65510
G1 X-17.443 Y-1.834 E3.69453
G1 X-17.169 Y-2.574 E3.73389
G1 X-16.821 Y-3.283 E3.77330
G1 X-16.403 Y-3.954 E3.81274
G1 X-15.920 Y-4.578 E3.85211
G1 X-15.377 Y-5.151 E3.89149
G1 X-14.778 Y-5.666 E3.93090
G1 X-14.130 Y-6.117 E3.97029
G1 X-13.439 Y-6.501 E4.00973
G1 X-12.714 Y-6.813 E4.04911
G1 X-11.961 Y-7.050 E4.08849
G1 X-11.187 Y-7.209 E4.12791
G1 X-10.402 Y-7.290 E4.16728
G1 X-10.000 Y-7.300 E4.18735
G1 X-9.230 Y-7.300 E4.22576
G1 X-8.515 Y-8.015 E4.27621
G1 X-7.929 Y-8.545 E4.31563
G1 X-7.293 Y-9.012 E4.35499
G1 X-6.613 Y-9.413 E4.39438
G1 X-5.895 Y-9.743 E4.43380
G1 X-5.148 Y-9.998 E4.47318
G1 X-4.379 Y-10.177 E4.51257
G1 X-3.595 Y-10.277 E4.55200
G1 X-3.000 Y-10.300 E4.58171
G1 X-2.000 Y-10.300 E4.63160
G1 X-1.211 Y-10.260 E4.67101
G1 X-0.431 Y-10.141 E4.71038
G1 X-0.014 Y-10.033 E4.73187
G0 F7200.00000 X0.002 Y-9.615
G1 F1800.000 X0.393 Y-9.723 E4.75211
G1 X1.151 Y-9.851 E4.79046
G1 X2.000 Y-9.900 E4.83289
G1 X3.000 Y-9.900 E4.88278
G1 X3.768 Y-9.860 E4.92114
G1 X4.528 Y-9.741 E4.95952
G1 X5.271 Y-9.543 E4.99788
G1 X5.990 Y-9.269 E5.03627
G1 X6.676 Y-8.922 E5.07463
G1 X7.323 Y-8.506 E5.11300
G1 X7.923 Y-8.025 E5.15137
G1 X8.233 Y-7.733 E5.17261
G1 X9.066 Y-6.900 E5.23139
G1 X10.000 Y-6.900 E5.27798
G1 X10.768 Y-6.860 E5.31635
G1 X11.528 Y-6.741 E5.35473
G1 X12.271 Y-6.543 E5.39309
G1 X12.990 Y-6.269 E5.43148
G1 X13.676 Y-5.922 E5.46983
G1 X14.323 Y-5.506 E5.50821
G1 X14.923 Y-5.025 E5.54657
G1 X15.470 Y-4.484 E5.58496
G1 X15.958 Y-3.889 E5.62335
G1 X16.381 Y-3.247 E5.66171
G1 X16.736 Y-2.564 E5.70011
G1 X17.017 Y-1.849 E5.73844
G1 X17.223 Y-1.107 E5.77685
G1 X17.351 Y-0.349 E5.81521
G1 X17.400 Y0.500 E5.85763
G1 X17.400 Y2.500 E5.95741
G1 X17.360 Y3.268 E5.99578
G1 X17.241 Y4.028 E6.03416
G1 X17.043 Y4.771 E6.07252
G1 X16.769 Y5.490 E6.11091
G1 X16.422 Y6.176 E6.14926
G1 X16.006 Y6.823 E6.18764
G1 X15.525 Y7.423 E6.22601
G1 X14.984 Y7.970 E6.26439
G1 X14.389 Y8.458 E6.30278
G1 X13.747 Y8.881 E6.34114
G1 X13.064 Y9.236 E6.37954
G1 X12.349 Y9.517 E6.41787
G1 X11.607 Y9.723 E6.45629
G1 X10.849 Y9.851 E6.49464
G1 X10.000 Y9.900 E6.53707
G1 X-10.000 Y9.900 E7.53487
G1 X-10.768 Y9.860 E7.57324
G1 X-11.528 Y9.741 E7.61162
G1 X-12.271 Y9.543 E7.64998
G1 X-12.990 Y9.269 E7.68836
G1 X-13.676 Y8.922 E7.72672
G1 X-14.323 Y8.506 E7.76509
G1 X-14.923 Y8.025 E7.80346
G1 X-15.470 Y7.484 E7.84184
G1 X-15.958 Y6.889 E7.88023
G1 X-16.381 Y6.247 E7.91859
G1 X-16.736 Y5.564 E7.95699
G1 X-17.017 Y4.849 E7.99532
G1 X-17.223 Y4.107 E8.03374
G1 X-17.351 Y3.349 E8.07209
G1 X-17.400 Y2.500 E8.11452
G1 X-17.400 Y0.500 E8.21430
G1 X-17.360 Y-0.268 E8.25267
G1 X-17.241 Y-1.028 E8.29105
G1 X-17.043 Y-1.771 E8.32941
G1 X-16.769 Y-2.490 E8.36780
G1 X-16.422 Y-3.176 E8.40615
G1 X-16.006 Y-3.823 E8.44453
G1 X-15.525 Y-4.423 E8.48289
G1 X-14.984 Y-4.970 E8.52127
G1 X-14.389 Y-5.458 E8.55967
G1 X-13.747 Y-5.881 E8.59802
G1 X-13.064 Y-6.236 E8.63643
G1 X-12.349 Y-6.517 E8.67475
G1 X-11.607 Y-6.723 E8.71317
G1 X-10.849 Y-6.851 E8.75152
G1 X-10.000 Y-6.900 E8.79395
G1 X-9.066 Y-6.900 E8.84055
G1 X-8.233 Y-7.733 E8.89932
G1 X-7.661 Y-8.247 E8.93769
G1 X-7.039 Y-8.700 E8.97608
G1 X-6.374 Y-9.086 E9.01444
G1 X-5.672 Y-9.401 E9.05282
G1 X-4.941 Y-9.641 E9.09121
G1 X-4.190 Y-9.804 E9.12955
G1 X-3.425 Y-9.888 E9.16794
G1 X-3.000 Y-9.900 E9.18916
G1 X-2.000 Y-9.900 E9.23905
G1 X-1.232 Y-9.860 E9.27741
G1 X-0.472 Y-9.741 E9.31579
G1 X0.002 Y-9.615 E9.34026
G0 F7200.00000 X-0.012 Y-9.203
G1 F1800.000 X0.013 Y-9.212 E9.34159
G1 X0.741 Y-9.386 E9.37893
G1 X1.483 Y-9.481 E9.41625
G1 X2.000 Y-9.500 E9.44206
G1 X3.000 Y-9.500 E9.49195
G1 X3.747 Y-9.460 E9.52927
G1 X4.485 Y-9.341 E9.56657
G1 X5.207 Y-9.143 E9.60392
G1 X5.903 Y-8.870 E9.64122
G1 X6.566 Y-8.523 E9.67855
G1 X7.189 Y-8.108 E9.71590
G1 X7.950 Y-7.450 E9.76609
G1 X8.900 Y-6.500 E9.83312
G1 X10.000 Y-6.500 E9.88800
G1 X10.747 Y-6.460 E9.92532
G1 X11.485 Y-6.341 E9.96261
G1 X12.207 Y-6.143 E9.99996
G1 X12.903 Y-5.870 E10.03726
G1 X13.566 Y-5.523 E10.07460
G1 X14.189 Y-5.108 E10.11194
G1 X14.763 Y-4.629 E10.14924
G1 X15.284 Y-4.092 E10.18657
G1 X15.743 Y-3.502 E10.22386
G1 X16.138 Y-2.866 E10.26121
G1 X16.462 Y-2.192 E10.29852
G1 X16.712 Y-1.487 E10.33584
G1 X16.886 Y-0.759 E10.37318
G1 X16.981 Y-0.017 E10.41051
G1 X17.000 Y0.500 E10.43632
G1 X17.000 Y2.500 E10.53610
G1 X16.960 Y3.247 E10.57342
G1 X16.841 Y3.985 E10.61071
G1 X16.643 Y4.707 E10.64806
G1 X16.370 Y5.403 E10.68536
G1 X16.023 Y6.066 E10.72270
G1 X15.608 Y6.689 E10.76004
G1 X15.129 Y7.263 E10.79734
G1 X14.592 Y7.784 E10.83467
G1 X14.002 Y8.243 E10.87196
G1 X13.366 Y8.638 E10.90931
G1 X12.692 Y8.962 E10.94662
G1 X11.987 Y9.212 E10.98394
G1 X11.259 Y9.386 E11.02128
G1 X10.517 Y9.481 E11.05861
G1 X10.000 Y9.500 E11.08442
G1 X-10.000 Y9.500 E12.08222
G1 X-10.747 Y9.460 E12.11954
G1 X-11.485 Y9.341 E12.15684
G1 X-12.207 Y9.143 E12.19419
G1 X-12.903 Y8.870 E12.23149
G1 X-13.566 Y8.523 E12.26882
G1 X-14.189 Y8.108 E12.30617
G1 X-14.763 Y7.629 E12.34346
G1 X-15.284 Y7.092 E12.38079
G1 X-15.743 Y6.502 E12.41809
G1 X-16.138 Y5.866 E12.45544
G1 X-16.462 Y5.192 E12.49275
G1 X-16.712 Y4.487 E12.53007
G1 X-16.886 Y3.759 E12.56741
G1 X-16.981 Y3.017 E12.60473
G1 X-17.000 Y2.500 E12.63054
G1 X-17.000 Y0.500 E12.73032
G1 X-16.960 Y-0.247 E12.76764
G1 X-16.841 Y-0.985 E12.80494
G1 X-16.643 Y-1.707 E12.84229
G1 X-16.370 Y-2.403 E12.87959
G1 X-16.023 Y-3.066 E12.91692
G1 X-15.608 Y-3.689 E12.95427
G1 X-15.129 Y-4.263 E12.99156
G1 X-14.592 Y-4.784 E13.02889
G1 X-14.002 Y-5.243 E13.06619
G1 X-13.366 Y-5.638 E13.10354
G1 X-12.692 Y-5.962 E13.14085
G1 X-11.987 Y-6.212 E13.17817
G1 X-11.259 Y-6.386 E13.21551
G1 X-10.517 Y-6.481 E13.25283
G1 X-10.000 Y-6.500 E13.27864
G1 X-8.900 Y-6.500 E13.33352
G1 X-7.950 Y-7.450 E13.40055
G1 X-7.393 Y-7.950 E13.43789
G1 X-6.787 Y-8.387 E13.47516
G1 X-6.137 Y-8.758 E13.51250
G1 X-5.451 Y-9.057 E13.54984
G1 X-4.737 Y-9.281 E13.58717
G1 X-4.004 Y-9.428 E13.62447
G1 X-3.000 Y-9.500 E13.67469
G1 X-2.000 Y-9.500 E13.72458
G1 X-1.253 Y-9.460 E13.76190
G1 X-0.515 Y-9.341 E13.79919
G1 X-0.012 Y-9.203 E13.82522
G0 F7200.00000 X0.006 Y-8.781
G1 F1800.000 X0.371 Y-8.896 E13.84431
G1 X1.083 Y-9.036 E13.88051
G1 X2.000 Y-9.100 E13.92637
G1 X3.000 Y-9.100 E13.97626
G1 X3.725 Y-9.060 E14.01249
G1 X4.442 Y-8.941 E14.04875
G1 X5.141 Y-8.743 E14.08499
G1 X5.814 Y-8.470 E14.12123
G1 X6.453 Y-8.125 E14.15746
G1 X7.050 Y-7.711 E14.19370
G1 X7.667 Y-7.167 E14.23474
G1 X8.667 Y-6.167 E14.30529
G1 X8.727 Y-6.100 E14.30978
G1 X10.000 Y-6.100 E14.37329
G1 X10.725 Y-6.060 E14.40952
G1 X11.442 Y-5.941 E14.44578
G1 X12.141 Y-5.743 E14.48202
G1 X12.814 Y-5.470 E14.51826
G1 X13.453 Y-5.125 E14.55449
G1 X14.050 Y-4.711 E14.59073
G1 X14.598 Y-4.235 E14.62695
G1 X15.091 Y-3.701 E14.66320
G1 X15.521 Y-3.116 E14.69943
G1 X15.885 Y-2.487 E14.73568
G1 X16.178 Y-1.822 E14.77194
G1 X16.396 Y-1.129 E14.80818
G1 X16.536 Y-0.417 E14.84438
G1 X16.600 Y0.500 E14.89024
G1 X16.600 Y2.500 E14.99002
G1 X16.560 Y3.225 E15.02625
G1 X16.441 Y3.942 E15.06251
G1 X16.243 Y4.641 E15.09876
G1 X15.970 Y5.314 E15.13499
G1 X15.625 Y5.953 E15.17122
G1 X15.211 Y6.550 E15.20746
G1 X14.735 Y7.098 E15.24368
G1 X14.201 Y7.591 E15.27994
G1 X13.616 Y8.021 E15.31616
G1 X12.987 Y8.385 E15.35242
G1 X12.322 Y8.678 E15.38867
G1 X11.629 Y8.896 E15.42491
G1 X10.917 Y9.036 E15.46112
G1 X10.000 Y9.100 E15.50698
G1 X-10.000 Y9.100 E16.50478
G1 X-10.725 Y9.060 E16.54101
G1 X-11.442 Y8.941 E16.57727
G1 X-12.141 Y8.743 E16.61351
G1 X-12.814 Y8.470 E16.64975
G1 X-13.453 Y8.125 E16.68598
G1 X-14.050 Y7.711 E16.72222
G1 X-14.598 Y7.235 E16.75843
G1 X-15.091 Y6.701 E16.79469
G1 X-15.521 Y6.116 E16.83092
G1 X-15.885 Y5.487 E16.86717
G1 X-16.178 Y4.822 E16.90343
G1 X-16.396 Y4.129 E16.93967
G1 X-16.536 Y3.417 E16.97587
G1 X-16.600 Y2.500 E17.02173
G1 X-16.600 Y0.500 E17.12151
G1 X-16.560 Y-0.225 E17.15774
G1 X-16.441 Y-0.942 E17.19400
G1 X-16.243 Y-1.641 E17.23025
G1 X-15.970 Y-2.314 E17.26648
G1 X-15.625 Y-2.953 E17.30271
G1 X-15.211 Y-3.550 E17.33895
G1 X-14.735 Y-4.098 E17.37517
G1 X-14.201 Y-4.591 E17.41143
G1 X-13.616 Y-5.021 E17.44765
G1 X-12.987 Y-5.385 E17.48390
G1 X-12.322 Y-5.678 E17.52016
G1 X-11.629 Y-5.896 E17.55640
G1 X-10.917 Y-6.036 E17.59261
G1 X-10.000 Y-6.100 E17.63847
G1 X-8.724 Y-6.100 E17.70213
G1 X-8.667 Y-6.167 E17.70651
G1 X-7.667 Y-7.167 E17.77707
G1 X-7.126 Y-7.651 E17.81329
G1 X-6.535 Y-8.074 E17.84954
G1 X-5.901 Y-8.428 E17.88577
G1 X-5.232 Y-8.711 E17.92201
G1 X-4.536 Y-8.919 E17.95825
G1 X-3.821 Y-9.049 E17.99451
G1 X-3.000 Y-9.100 E18.03555
G1 X-2.000 Y-9.100 E18.08544
G1 X-1.275 Y-9.060 E18.12166
G1 X-0.558 Y-8.941 E18.15792
G1 X0.006 Y-8.781 E18.18717
G0 F7200.00000 X-0.003 Y-8.365
G1 F1800.000 X0.043 Y-8.383 E18.18964
G1 X0.723 Y-8.567 E18.22478
G1 X1.419 Y-8.673 E18.25991
G1 X2.000 Y-8.700 E18.28892
G1 X3.000 Y-8.700 E18.33881
G1 X3.703 Y-8.660 E18.37394
G1 X4.397 Y-8.541 E18.40907
G1 X5.072 Y-8.343 E18.44417
G1 X5.721 Y-8.071 E18.47927
G1 X6.335 Y-7.726 E18.51441
G1 X6.906 Y-7.315 E18.54951
G1 X7.384 Y-6.884 E18.58162
G1 X8.384 Y-5.884 E18.65218
G1 X8.548 Y-5.700 E18.66447
G1 X10.000 Y-5.700 E18.73691
G1 X10.703 Y-5.660 E18.77204
G1 X11.397 Y-5.541 E18.80717
G1 X12.072 Y-5.343 E18.84227
G1 X12.721 Y-5.071 E18.87738
G1 X13.335 Y-4.726 E18.91251
G1 X13.906 Y-4.315 E18.94761
G1 X14.427 Y-3.841 E18.98275
G1 X14.891 Y-3.311 E19.01790
G1 X15.291 Y-2.732 E19.05301
G1 X15.623 Y-2.111 E19.08814
G1 X15.883 Y-1.457 E19.12325
G1 X16.067 Y-0.777 E19.15839
G1 X16.173 Y-0.081 E19.19352
G1 X16.200 Y0.500 E19.22254
G1 X16.200 Y2.500 E19.32232
G1 X16.160 Y3.203 E19.35745
G1 X16.041 Y3.897 E19.39257
G1 X15.843 Y4.572 E19.42767
G1 X15.571 Y5.221 E19.46278
G1 X15.226 Y5.835 E19.49791
G1 X14.815 Y6.406 E19.53301
G1 X14.341 Y6.927 E19.56815
G1 X13.811 Y7.391 E19.60330
G1 X13.232 Y7.791 E19.63841
G1 X12.611 Y8.123 E19.67354
G1 X11.957 Y8.383 E19.70865
G1 X11.277 Y8.567 E19.74380
G1 X10.581 Y8.673 E19.77892
G1 X10.000 Y8.700 E19.80794
G1 X-10.000 Y8.700 E20.80574
G1 X-10.703 Y8.660 E20.84087
G1 X-11.397 Y8.541 E20.87600
G1 X-12.072 Y8.343 E20.91109
G1 X-12.721 Y8.071 E20.94620
G1 X-13.335 Y7.726 E20.98134
G1 X-13.906 Y7.315 E21.01644
G1 X-14.427 Y6.841 E21.05158
G1 X-14.891 Y6.311 E21.08672
G1 X-15.291 Y5.732 E21.12183
G1 X-15.623 Y5.111 E21.15696
G1 X-15.883 Y4.457 E21.19208
G1 X-16.067 Y3.777 E21.22722
G1 X-16.173 Y3.081 E21.26234
G1 X-16.200 Y2.500 E21.29136
G1 X-16.200 Y0.500 E21.39114
G1 X-16.160 Y-0.203 E21.42627
G1 X-16.041 Y-0.897 E21.46140
G1 X-15.843 Y-1.572 E21.49650
G1 X-15.571 Y-2.221 E21.53160
G1 X-15.226 Y-2.835 E21.56674
G1 X-14.815 Y-3.406 E21.60184
G1 X-14.341 Y-3.927 E21.63698
G1 X-13.811 Y-4.391 E21.67212
G1 X-13.232 Y-4.791 E21.70723
G1 X-12.611 Y-5.123 E21.74236
G1 X-11.957 Y-5.383 E21.77748
G1 X-11.277 Y-5.567 E21.81262
G1 X-10.581 Y-5.673 E21.84775
G1 X-10.000 Y-5.700 E21.87676
G1 X-8.554 Y-5.700 E21.94890
G1 X-8.384 Y-5.884 E21.96140
G1 X-7.384 Y-6.884 E22.03196
G1 X-6.859 Y-7.353 E22.06708
G1 X-6.284 Y-7.759 E22.10220
G1 X-5.666 Y-8.097 E22.13734
G1 X-5.015 Y-8.364 E22.17244
G1 X-4.337 Y-8.554 E22.20757
G1 X-3.642 Y-8.667 E22.24270
G1 X-3.000 Y-8.700 E22.27477
G1 X-2.000 Y-8.700 E22.32466
G1 X-1.297 Y-8.660 E22.35979
G1 X-0.603 Y-8.541 E22.39492
G1 X-0.003 Y-8.365 E22.42612
G0 F7200.00000 X0.013 Y-7.939
G1 F1800.000 X0.404 Y-8.076 E22.44679
G1 X1.069 Y-8.225 E22.48079
G1 X2.000 Y-8.300 E22.52738
G1 X3.000 Y-8.300 E22.57728
G1 X3.680 Y-8.260 E22.61126
G1 X4.350 Y-8.141 E22.64521
G1 X5.002 Y-7.944 E22.67919
G1 X5.626 Y-7.672 E22.71315
G1 X6.214 Y-7.328 E22.74714
G1 X6.758 Y-6.918 E22.78112
G1 X7.101 Y-6.601 E22.80442
G1 X8.101 Y-5.601 E22.87498
G1 X8.369 Y-5.300 E22.89509
G1 X10.000 Y-5.300 E22.97646
G1 X10.680 Y-5.260 E23.01044
G1 X11.350 Y-5.141 E23.04439
G1 X12.002 Y-4.944 E23.07837
G1 X12.626 Y-4.672 E23.11233
G1 X13.214 Y-4.328 E23.14632
G1 X13.758 Y-3.918 E23.18030
G1 X14.249 Y-3.447 E23.21425
G1 X14.683 Y-2.922 E23.24823
G1 X15.052 Y-2.350 E23.28219
G1 X15.351 Y-1.738 E23.31617
G1 X15.576 Y-1.096 E23.35011
G1 X15.725 Y-0.431 E23.38411
G1 X15.800 Y0.500 E23.43071
G1 X15.800 Y2.500 E23.53049
G1 X15.760 Y3.180 E23.56448
G1 X15.641 Y3.850 E23.59842
G1 X15.444 Y4.502 E23.63241
G1 X15.172 Y5.126 E23.66637
G1 X14.828 Y5.714 E23.70035
G1 X14.418 Y6.258 E23.73434
G1 X13.947 Y6.749 E23.76828
G1 X13.422 Y7.183 E23.80227
G1 X12.850 Y7.552 E23.83623
G1 X12.238 Y7.851 E23.87021
G1 X11.596 Y8.076 E23.90415
G1 X10.931 Y8.225 E23.93815
G1 X10.000 Y8.300 E23.98475
G1 X-10.000 Y8.300 E24.98255
G1 X-10.680 Y8.260 E25.01653
G1 X-11.350 Y8.141 E25.05048
G1 X-12.002 Y7.944 E25.08446
G1 X-12.626 Y7.672 E25.11842
G1 X-13.214 Y7.328 E25.15241
G1 X-13.758 Y6.918 E25.18640
G1 X-14.249 Y6.447 E25.22034
G1 X-14.683 Y5.922 E25.25432
G1 X-15.052 Y5.350 E25.28828
G1 X-15.351 Y4.738 E25.32227
G1 X-15.576 Y4.096 E25.35621
G1 X-15.725 Y3.431 E25.39021
G1 X-15.800 Y2.500 E25.43680
G1 X-15.800 Y0.500 E25.53658
G1 X-15.760 Y-0.180 E25.57057
G1 X-15.641 Y-0.850 E25.60452
G1 X-15.444 Y-1.502 E25.63850
G1 X-15.172 Y-2.126 E25.67246
G1 X-14.828 Y-2.714 E25.70645
G1 X-14.418 Y-3.258 E25.74043
G1 X-13.947 Y-3.749 E25.77438
G1 X-13.422 Y-4.183 E25.80836
G1 X-12.850 Y-4.552 E25.84232
G1 X-12.238 Y-4.851 E25.87630
G1 X-11.596 Y-5.076 E25.91024
G1 X-10.931 Y-5.225 E25.94424
G1 X-10.000 Y-5.300 E25.99084
G1 X-8.367 Y-5.300 E26.07231
G1 X-8.101 Y-5.601 E26.09235
G1 X-7.101 Y-6.601 E26.16291
G1 X-6.592 Y-7.054 E26.19690
G1 X-6.034 Y-7.443 E26.23084
G1 X-5.434 Y-7.765 E26.26481
G1 X-4.800 Y-8.014 E26.29879
G1 X-4.141 Y-8.187 E26.33278
G1 X-3.467 Y-8.281 E26.36673
G1 X-3.000 Y-8.300 E26.39005
