; G-Code generated by Simplify3D(R) Version 3.0.2
; ríj 24, 2016 at 9:57:50 ODP.
; Settings Summary
;   processName,aileron
;   applyToModels,aileron_L1,aileron_L2,aileron_R1,aileron_R2
;   profileName,Default (modified)
;   profileVersion,2015-08-14 23:46:21
;   baseProfile,
;   printMaterial,
;   printQuality,
;   printExtruders,
;   extruderName,Primary Extruder
;   extruderToolheadNumber,0
;   extruderDiameter,0.4
;   extruderAutoWidth,0
;   extruderWidth,0.42
;   extrusionMultiplier,1.02
;   extruderUseRetract,1
;   extruderRetractionDistance,0.8
;   extruderExtraRestartDistance,0.12
;   extruderRetractionZLift,0
;   extruderRetractionSpeed,1800
;   extruderUseCoasting,1
;   extruderCoastingDistance,0.2
;   extruderUseWipe,1
;   extruderWipeDistance,2
;   primaryExtruder,0
;   layerHeight,0.25
;   topSolidLayers,3
;   bottomSolidLayers,5
;   perimeterOutlines,1
;   printPerimetersInsideOut,1
;   startPointOption,3
;   startPointOriginX,100
;   startPointOriginY,0
;   startPointOriginZ,0
;   sequentialIslands,0
;   spiralVaseMode,0
;   firstLayerHeightPercentage,90
;   firstLayerWidthPercentage,110
;   firstLayerUnderspeed,0.5
;   useRaft,0
;   raftExtruder,0
;   raftLayers,3
;   raftOffset,3
;   raftSeparationDistance,0.14
;   raftInfill,85
;   disableRaftBaseLayers,0
;   useSkirt,1
;   skirtExtruder,0
;   skirtLayers,1
;   skirtOutlines,1
;   skirtOffset,1.5
;   usePrimePillar,0
;   primePillarExtruder,999
;   primePillarWidth,12
;   primePillarLocation,7
;   primePillarSpeedMultiplier,1
;   useOozeShield,0
;   oozeShieldExtruder,999
;   oozeShieldOffset,2
;   oozeShieldOutlines,1
;   oozeShieldSidewallShape,1
;   oozeShieldSidewallAngle,30
;   oozeShieldSpeedMultiplier,1
;   infillExtruder,0
;   internalInfillPattern,Rectilinear
;   externalInfillPattern,Rectilinear
;   infillPercentage,0
;   outlineOverlapPercentage,15
;   infillExtrusionWidthPercentage,100
;   minInfillLength,5
;   infillLayerInterval,1
;   infillAngles,45,-45
;   overlapInfillAngles,0
;   generateSupport,0
;   supportExtruder,0
;   supportInfillPercentage,30
;   supportExtraInflation,0
;   denseSupportLayers,0
;   denseSupportInfillPercentage,70
;   supportLayerInterval,1
;   supportHorizontalPartOffset,0.3
;   supportUpperSeparationLayers,1
;   supportLowerSeparationLayers,1
;   supportType,0
;   supportGridSpacing,4
;   maxOverhangAngle,45
;   supportAngles,0
;   temperatureName,Primary Extruder,Heated Bed
;   temperatureNumber,0,1
;   temperatureSetpointCount,1,1
;   temperatureSetpointLayers,1,1
;   temperatureSetpointTemperatures,225,60
;   temperatureStabilizeAtStartup,1,1
;   temperatureHeatedBed,0,1
;   temperatureRelayBetweenLayers,0,0
;   temperatureRelayBetweenLoops,0,0
;   fanLayers,1
;   fanSpeeds,0
;   blipFanToFullPower,1
;   adjustSpeedForCooling,1
;   minSpeedLayerTime,15
;   minCoolingSpeedSlowdown,20
;   increaseFanForCooling,0
;   minFanLayerTime,45
;   maxCoolingFanSpeed,100
;   increaseFanForBridging,0
;   bridgingFanSpeed,100
;   use5D,1
;   relativeEdistances,0
;   allowEaxisZeroing,1
;   independentExtruderAxes,0
;   includeM10123,0
;   stickySupport,1
;   applyToolheadOffsets,0
;   gcodeXoffset,0
;   gcodeYoffset,0
;   gcodeZoffset,0
;   overrideMachineDefinition,1
;   machineTypeOverride,0
;   strokeXoverride,200
;   strokeYoverride,200
;   strokeZoverride,185
;   originOffsetXoverride,0
;   originOffsetYoverride,0
;   originOffsetZoverride,0
;   homeXdirOverride,-1
;   homeYdirOverride,-1
;   homeZdirOverride,-1
;   flipXoverride,1
;   flipYoverride,-1
;   flipZoverride,1
;   toolheadOffsets,0,0|0,0|0,0|0,0|0,0|0,0
;   overrideFirmwareConfiguration,1
;   firmwareTypeOverride,RepRap (Marlin/Repetier/Sprinter)
;   GPXconfigOverride,r2
;   baudRateOverride,115200
;   overridePrinterModels,0
;   printerModelsOverride
;   startingGcode,G28,
;   layerChangeGcode,
;   retractionGcode,
;   toolChangeGcode,
;   endingGcode,M104 S0 ; turn off extruder,M140 S0 ; turn off bed,G28 X0 ; home X axis,M84 ; disable motors,M107 ; turn off fan
;   createX3G,0
;   celebration,0
;   celebrationSong,Random Song
;   createMB5G,0
;   postProcessing,
;   defaultSpeed,3000
;   outlineUnderspeed,0.7
;   solidInfillUnderspeed,0.8
;   supportUnderspeed,0.8
;   rapidXYspeed,9000
;   rapidZspeed,1002
;   minBridgingArea,5
;   bridgingExtraInflation,0
;   bridgingExtrusionMultiplier,1
;   bridgingSpeedMultiplier,0.3
;   filamentDiameter,1.75
;   filamentPricePerKg,1000
;   filamentDensity,1.25
;   useMinPrintHeight,0
;   minPrintHeight,196
;   useMaxPrintHeight,0
;   maxPrintHeight,392
;   useDiaphragm,0
;   diaphragmLayerInterval,20
;   robustSlicing,1
;   mergeAllIntoSolid,0
;   onlyRetractWhenCrossingOutline,0
;   retractBetweenLayers,0
;   useRetractionMinTravel,0
;   retractionMinTravel,3
;   retractWhileWiping,0
;   onlyWipeOutlines,1
;   avoidCrossingOutline,0
;   maxMovementDetourFactor,3
;   toolChangeRetractionDistance,0
;   toolChangeExtraRestartDistance,0
;   toolChangeRetractionSpeed,360
;   allowThinWallGapFill,1
;   thinWallAllowedOverlapPercentage,10
;   horizontalSizeCompensation,0
G90
M82
M106 S0
M140 S60
M190 S60
M104 S225 T0
M109 S225 T0
G28
G92 E0
G1 E-0.8000 F1800
G1 Z0.225 F1002
; layer 1, Z = 0.225
T0
; tool H0.250 W0.462
; skirt
G1 X54.723 Y87.486 F9000
G1 E0.1200 F540
G92 E0
G1 X54.796 Y87.457 E0.0039 F1500
G1 X56.990 Y87.452 E0.1113
G1 X57.065 Y87.482 E0.1153
G1 X57.995 Y88.364 E0.1781
G1 X58.028 Y88.438 E0.1820
G1 X58.938 Y106.555 E1.0705
G1 X61.586 Y112.130 E1.3728
G1 X68.202 Y125.638 E2.1095
G1 X68.203 Y125.640 E2.1096
G1 X68.215 Y125.665 E2.1110
G1 X68.216 Y125.667 E2.1111
G1 X68.787 Y126.942 E2.1795
G1 X68.788 Y126.945 E2.1797
G1 X68.806 Y126.989 E2.1820
G1 X68.807 Y126.992 E2.1821
G1 X69.196 Y128.019 E2.2360
G1 X69.198 Y128.025 E2.2363
G1 X69.227 Y128.117 E2.2410
G1 X69.228 Y128.123 E2.2413
G1 X69.438 Y128.975 E2.2843
G1 X69.440 Y128.984 E2.2847
G1 X69.462 Y129.131 E2.2920
G1 X69.463 Y129.141 E2.2925
G1 X69.505 Y129.869 E2.3282
G1 X69.504 Y129.883 E2.3289
G1 X69.490 Y130.088 E2.3390
G1 X69.488 Y130.102 E2.3396
G1 X69.362 Y130.726 E2.3708
G1 X69.358 Y130.740 E2.3715
G1 X69.285 Y130.947 E2.3823
G1 X69.280 Y130.960 E2.3830
G1 X69.030 Y131.447 E2.4098
G1 X69.026 Y131.455 E2.4102
G1 X68.950 Y131.576 E2.4172
G1 X68.945 Y131.584 E2.4177
G1 X68.643 Y131.980 E2.4421
G1 X68.637 Y131.988 E2.4425
G1 X68.540 Y132.094 E2.4496
G1 X68.533 Y132.100 E2.4500
G1 X68.167 Y132.435 E2.4743
G1 X68.160 Y132.441 E2.4748
G1 X68.046 Y132.529 E2.4818
G1 X68.038 Y132.534 E2.4823
G1 X67.618 Y132.799 E2.5066
G1 X67.610 Y132.803 E2.5071
G1 X67.490 Y132.865 E2.5137
G1 X67.482 Y132.869 E2.5141
G1 X67.021 Y133.060 E2.5385
G1 X67.014 Y133.063 E2.5390
G1 X66.893 Y133.102 E2.5451
G1 X66.885 Y133.104 E2.5456
G1 X66.362 Y133.230 E2.5719
G1 X66.350 Y133.232 E2.5725
G1 X66.168 Y133.254 E2.5815
G1 X66.156 Y133.255 E2.5821
G1 X65.538 Y133.259 E2.6123
G1 X65.526 Y133.259 E2.6129
G1 X65.342 Y133.239 E2.6220
G1 X65.330 Y133.237 E2.6226
G1 X64.648 Y133.082 E2.6568
G1 X64.639 Y133.079 E2.6573
G1 X64.498 Y133.033 E2.6646
G1 X64.489 Y133.030 E2.6651
G1 X63.740 Y132.705 E2.7051
G1 X63.733 Y132.702 E2.7054
G1 X63.638 Y132.653 E2.7107
G1 X63.632 Y132.649 E2.7110
G1 X62.803 Y132.150 E2.7584
G1 X62.801 Y132.148 E2.7585
G1 X62.773 Y132.131 E2.7601
G1 X62.771 Y132.130 E2.7602
G1 X61.100 Y131.026 E2.8583
G1 X60.444 Y130.642 E2.8956
G1 X59.997 Y130.459 E2.9192
G1 X59.654 Y130.379 E2.9365
G1 X59.315 Y130.351 E2.9531
G1 X51.331 Y134.800 E3.4008
G1 X51.214 Y134.795 E3.4066
G1 X49.593 Y133.721 E3.5018
G1 X49.543 Y133.615 E3.5075
G1 X51.074 Y119.511 E4.2024
G1 X52.444 Y105.765 E4.8790
G1 X52.969 Y99.302 E5.1966
G1 X53.769 Y88.414 E5.7313
G1 X53.803 Y88.342 E5.7352
G1 X54.576 Y87.622 E5.7870
G1 X54.723 Y87.486 F1500
G92 E0
G1 E-0.8000 F1800
G1 X82.573 Y88.438 F9000
G1 E0.1200 F1800
G92 E0
G1 X82.607 Y88.364 E0.0040 F1500
G1 X83.536 Y87.482 E0.0667
G1 X83.612 Y87.452 E0.0707
G1 X85.805 Y87.457 E0.1781
G1 X85.879 Y87.486 E0.1820
G1 X86.798 Y88.342 E0.2436
G1 X86.833 Y88.414 E0.2474
G1 X87.639 Y99.383 E0.7862
G1 X88.157 Y105.765 E1.0998
G1 X89.533 Y119.559 E1.7788
G1 X91.058 Y133.615 E2.4713
G1 X91.008 Y133.721 E2.4770
G1 X89.388 Y134.795 E2.5722
G1 X89.270 Y134.800 E2.5780
G1 X81.286 Y130.351 E3.0257
G1 X80.948 Y130.379 E3.0423
G1 X80.604 Y130.459 E3.0596
G1 X80.158 Y130.642 E3.0832
G1 X79.501 Y131.026 E3.1204
G1 X77.830 Y132.130 E3.2185
G1 X77.828 Y132.131 E3.2187
G1 X77.801 Y132.148 E3.2203
G1 X77.799 Y132.149 E3.2204
G1 X76.970 Y132.650 E3.2678
G1 X76.964 Y132.653 E3.2681
G1 X76.868 Y132.702 E3.2734
G1 X76.862 Y132.705 E3.2737
G1 X76.113 Y133.030 E3.3137
G1 X76.104 Y133.033 E3.3142
G1 X75.962 Y133.080 E3.3215
G1 X75.952 Y133.082 E3.3220
G1 X75.271 Y133.237 E3.3562
G1 X75.259 Y133.239 E3.3568
G1 X75.075 Y133.259 E3.3659
G1 X75.063 Y133.259 E3.3665
G1 X74.445 Y133.255 E3.3967
G1 X74.433 Y133.254 E3.3973
G1 X74.251 Y133.232 E3.4063
G1 X74.240 Y133.230 E3.4069
G1 X73.716 Y133.104 E3.4332
G1 X73.708 Y133.102 E3.4336
G1 X73.588 Y133.063 E3.4398
G1 X73.580 Y133.060 E3.4402
G1 X73.120 Y132.869 E3.4646
G1 X73.112 Y132.865 E3.4651
G1 X72.991 Y132.803 E3.4717
G1 X72.983 Y132.799 E3.4722
G1 X72.563 Y132.534 E3.4965
G1 X72.556 Y132.529 E3.4970
G1 X72.441 Y132.441 E3.5040
G1 X72.434 Y132.435 E3.5045
G1 X72.068 Y132.100 E3.5287
G1 X72.062 Y132.094 E3.5292
G1 X71.965 Y131.988 E3.5362
G1 X71.959 Y131.980 E3.5367
G1 X71.657 Y131.584 E3.5611
G1 X71.652 Y131.576 E3.5616
G1 X71.576 Y131.455 E3.5686
G1 X71.571 Y131.447 E3.5690
G1 X71.322 Y130.960 E3.5958
G1 X71.316 Y130.947 E3.5965
G1 X71.244 Y130.740 E3.6073
G1 X71.240 Y130.726 E3.6080
G1 X71.114 Y130.102 E3.6392
G1 X71.112 Y130.088 E3.6398
G1 X71.097 Y129.883 E3.6499
G1 X71.097 Y129.869 E3.6506
G1 X71.139 Y129.141 E3.6863
G1 X71.140 Y129.131 E3.6868
G1 X71.162 Y128.984 E3.6941
G1 X71.163 Y128.975 E3.6945
G1 X71.373 Y128.123 E3.7375
G1 X71.375 Y128.117 E3.7378
G1 X71.404 Y128.025 E3.7425
G1 X71.406 Y128.019 E3.7428
G1 X71.794 Y126.992 E3.7966
G1 X71.796 Y126.989 E3.7968
G1 X71.814 Y126.945 E3.7991
G1 X71.815 Y126.942 E3.7993
G1 X72.386 Y125.667 E3.8677
G1 X72.387 Y125.665 E3.8678
G1 X72.398 Y125.640 E3.8692
G1 X72.399 Y125.638 E3.8693
G1 X79.016 Y112.130 E4.6060
G1 X81.663 Y106.555 E4.9083
G1 X82.563 Y88.638 E5.7870
G1 X82.573 Y88.438 F1500
G92 E0
G1 E-0.8000 F1800
G1 X120.793 Y60.316 F9000
G1 E0.1200 F1800
G92 E0
G1 X120.759 Y60.245 E0.0039 F1500
G1 X119.765 Y46.821 E0.6632
G1 X119.348 Y41.966 E0.9018
G1 X117.948 Y28.079 E1.5855
G1 X116.529 Y15.019 E2.2289
G1 X116.579 Y14.912 E2.2347
G1 X118.199 Y13.838 E2.3299
G1 X118.316 Y13.833 E2.3357
G1 X126.305 Y18.283 E2.7836
G1 X126.644 Y18.255 E2.8003
G1 X126.989 Y18.175 E2.8175
G1 X127.434 Y17.994 E2.8411
G1 X128.090 Y17.611 E2.8783
G1 X129.761 Y16.507 E2.9764
G1 X129.763 Y16.506 E2.9765
G1 X129.790 Y16.489 E2.9781
G1 X129.792 Y16.488 E2.9782
G1 X130.621 Y15.987 E3.0256
G1 X130.627 Y15.984 E3.0259
G1 X130.723 Y15.935 E3.0312
G1 X130.729 Y15.932 E3.0316
G1 X131.478 Y15.607 E3.0715
G1 X131.487 Y15.603 E3.0720
G1 X131.629 Y15.557 E3.0793
G1 X131.638 Y15.554 E3.0798
G1 X132.320 Y15.399 E3.1141
G1 X132.332 Y15.397 E3.1147
G1 X132.517 Y15.378 E3.1238
G1 X132.529 Y15.377 E3.1243
G1 X133.146 Y15.382 E3.1546
G1 X133.158 Y15.382 E3.1552
G1 X133.339 Y15.405 E3.1641
G1 X133.351 Y15.407 E3.1647
G1 X133.875 Y15.532 E3.1911
G1 X133.883 Y15.534 E3.1915
G1 X134.004 Y15.574 E3.1977
G1 X134.012 Y15.577 E3.1982
G1 X134.472 Y15.768 E3.2226
G1 X134.480 Y15.771 E3.2230
G1 X134.600 Y15.834 E3.2296
G1 X134.608 Y15.838 E3.2300
G1 X135.027 Y16.102 E3.2543
G1 X135.035 Y16.107 E3.2548
G1 X135.149 Y16.194 E3.2618
G1 X135.156 Y16.200 E3.2623
G1 X135.523 Y16.536 E3.2866
G1 X135.530 Y16.542 E3.2870
G1 X135.627 Y16.650 E3.2942
G1 X135.634 Y16.657 E3.2946
G1 X135.935 Y17.054 E3.3190
G1 X135.940 Y17.062 E3.3195
G1 X136.016 Y17.182 E3.3264
G1 X136.020 Y17.190 E3.3269
G1 X136.269 Y17.676 E3.3537
G1 X136.275 Y17.690 E3.3544
G1 X136.347 Y17.897 E3.3651
G1 X136.351 Y17.911 E3.3658
G1 X136.478 Y18.535 E3.3970
G1 X136.479 Y18.548 E3.3977
G1 X136.494 Y18.754 E3.4078
G1 X136.494 Y18.767 E3.4084
G1 X136.453 Y19.495 E3.4442
G1 X136.452 Y19.505 E3.4446
G1 X136.430 Y19.653 E3.4519
G1 X136.428 Y19.662 E3.4524
G1 X136.218 Y20.514 E3.4954
G1 X136.216 Y20.520 E3.4957
G1 X136.187 Y20.612 E3.5004
G1 X136.185 Y20.618 E3.5007
G1 X135.796 Y21.645 E3.5545
G1 X135.795 Y21.648 E3.5547
G1 X135.777 Y21.692 E3.5570
G1 X135.776 Y21.695 E3.5572
G1 X135.205 Y22.971 E3.6256
G1 X135.204 Y22.972 E3.6257
G1 X135.192 Y22.997 E3.6271
G1 X135.192 Y22.999 E3.6272
G1 X128.575 Y36.510 E4.3640
G1 X125.927 Y42.084 E4.6662
G1 X125.018 Y60.220 E5.5557
G1 X124.985 Y60.293 E5.5596
G1 X124.055 Y61.175 E5.6224
G1 X123.980 Y61.205 E5.6263
G1 X121.786 Y61.201 E5.7338
G1 X121.712 Y61.172 E5.7377
G1 X120.939 Y60.453 E5.7894
G1 X120.793 Y60.316 F1500
G92 E0
G1 E-0.8000 F1800
G1 X149.704 Y60.220 F9000
G1 E0.1200 F1800
G92 E0
G1 X148.795 Y42.084 E0.8894 F1500
G1 X146.148 Y36.510 E1.1916
G1 X139.531 Y22.999 E1.9285
G1 X139.530 Y22.997 E1.9286
G1 X139.519 Y22.972 E1.9299
G1 X139.518 Y22.970 E1.9300
G1 X138.947 Y21.695 E1.9985
G1 X138.946 Y21.692 E1.9986
G1 X138.927 Y21.648 E2.0010
G1 X138.926 Y21.645 E2.0011
G1 X138.537 Y20.618 E2.0549
G1 X138.535 Y20.612 E2.0552
G1 X138.507 Y20.520 E2.0599
G1 X138.505 Y20.514 E2.0603
G1 X138.295 Y19.662 E2.1032
G1 X138.293 Y19.653 E2.1037
G1 X138.271 Y19.505 E2.1110
G1 X138.270 Y19.495 E2.1115
G1 X138.228 Y18.767 E2.1472
G1 X138.229 Y18.754 E2.1479
G1 X138.243 Y18.548 E2.1580
G1 X138.245 Y18.535 E2.1586
G1 X138.371 Y17.911 E2.1898
G1 X138.375 Y17.897 E2.1905
G1 X138.448 Y17.690 E2.2013
G1 X138.453 Y17.676 E2.2020
G1 X138.702 Y17.190 E2.2288
G1 X138.707 Y17.182 E2.2292
G1 X138.782 Y17.062 E2.2362
G1 X138.788 Y17.054 E2.2366
G1 X139.089 Y16.657 E2.2610
G1 X139.095 Y16.650 E2.2615
G1 X139.193 Y16.542 E2.2686
G1 X139.200 Y16.536 E2.2691
G1 X139.566 Y16.200 E2.2934
G1 X139.574 Y16.194 E2.2939
G1 X139.688 Y16.107 E2.3009
G1 X139.696 Y16.102 E2.3014
G1 X140.115 Y15.838 E2.3256
G1 X140.123 Y15.834 E2.3261
G1 X140.243 Y15.771 E2.3327
G1 X140.251 Y15.768 E2.3331
G1 X140.711 Y15.577 E2.3575
G1 X140.718 Y15.574 E2.3579
G1 X140.840 Y15.534 E2.3642
G1 X140.848 Y15.532 E2.3646
G1 X141.372 Y15.407 E2.3910
G1 X141.384 Y15.405 E2.3915
G1 X141.565 Y15.382 E2.4005
G1 X141.576 Y15.382 E2.4011
G1 X142.194 Y15.377 E2.4313
G1 X142.206 Y15.378 E2.4319
G1 X142.391 Y15.397 E2.4410
G1 X142.403 Y15.399 E2.4416
G1 X143.084 Y15.554 E2.4758
G1 X143.094 Y15.557 E2.4763
G1 X143.236 Y15.603 E2.4836
G1 X143.245 Y15.607 E2.4841
G1 X143.994 Y15.932 E2.5241
G1 X144.000 Y15.935 E2.5244
G1 X144.096 Y15.984 E2.5297
G1 X144.102 Y15.987 E2.5301
G1 X144.930 Y16.488 E2.5775
G1 X144.932 Y16.489 E2.5776
G1 X144.959 Y16.506 E2.5791
G1 X144.961 Y16.507 E2.5792
G1 X146.632 Y17.611 E2.6773
G1 X147.288 Y17.994 E2.7145
G1 X147.734 Y18.175 E2.7381
G1 X148.078 Y18.255 E2.7554
G1 X148.418 Y18.283 E2.7721
G1 X156.406 Y13.833 E3.2200
G1 X156.524 Y13.838 E3.2257
G1 X158.144 Y14.912 E3.3209
G1 X158.194 Y15.019 E3.3267
G1 X156.775 Y28.079 E3.9702
G1 X155.374 Y41.966 E4.6538
G1 X154.958 Y46.821 E4.8925
G1 X153.964 Y60.245 E5.5518
G1 X153.930 Y60.316 E5.5557
G1 X153.010 Y61.172 E5.6172
G1 X152.936 Y61.201 E5.6211
G1 X150.742 Y61.205 E5.7285
G1 X150.667 Y61.175 E5.7325
G1 X149.824 Y60.375 E5.7894
G1 X149.738 Y60.293 F1500
G1 X149.704 Y60.220 F1500
G92 E0
G1 E-0.8000 F1800
; outer perimeter
G1 X140.246 Y18.434 F9000
G1 E0.1200 F1800
G92 E0
G1 X140.389 Y18.155 E0.0154 F1050
G1 X140.579 Y17.905 E0.0308
G1 X140.808 Y17.695 E0.0460
