; G-Code generated by Simplify3D(R) Version 3.0.2
; ríj 24, 2016 at 9:58:48 ODP.
; Settings Summary
;   processName,aileron
;   applyToModels,elevator_L,elevator_R
;   profileName,Default (modified)
;   profileVersion,2015-08-14 23:46:21
;   baseProfile,
;   printMaterial,
;   printQuality,
;   printExtruders,
;   extruderName,Primary Extruder
;   extruderToolheadNumber,0
;   extruderDiameter,0.4
;   extruderAutoWidth,0
;   extruderWidth,0.42
;   extrusionMultiplier,1.02
;   extruderUseRetract,1
;   extruderRetractionDistance,0.8
;   extruderExtraRestartDistance,0.12
;   extruderRetractionZLift,0
;   extruderRetractionSpeed,1800
;   extruderUseCoasting,1
;   extruderCoastingDistance,0.2
;   extruderUseWipe,1
;   extruderWipeDistance,2
;   primaryExtruder,0
;   layerHeight,0.25
;   topSolidLayers,3
;   bottomSolidLayers,5
;   perimeterOutlines,1
;   printPerimetersInsideOut,1
;   startPointOption,3
;   startPointOriginX,100
;   startPointOriginY,0
;   startPointOriginZ,0
;   sequentialIslands,0
;   spiralVaseMode,0
;   firstLayerHeightPercentage,90
;   firstLayerWidthPercentage,110
;   firstLayerUnderspeed,0.5
;   useRaft,0
;   raftExtruder,0
;   raftLayers,3
;   raftOffset,3
;   raftSeparationDistance,0.14
;   raftInfill,85
;   disableRaftBaseLayers,0
;   useSkirt,1
;   skirtExtruder,0
;   skirtLayers,1
;   skirtOutlines,1
;   skirtOffset,1.5
;   usePrimePillar,0
;   primePillarExtruder,999
;   primePillarWidth,12
;   primePillarLocation,7
;   primePillarSpeedMultiplier,1
;   useOozeShield,0
;   oozeShieldExtruder,999
;   oozeShieldOffset,2
;   oozeShieldOutlines,1
;   oozeShieldSidewallShape,1
;   oozeShieldSidewallAngle,30
;   oozeShieldSpeedMultiplier,1
;   infillExtruder,0
;   internalInfillPattern,Rectilinear
;   externalInfillPattern,Rectilinear
;   infillPercentage,0
;   outlineOverlapPercentage,15
;   infillExtrusionWidthPercentage,100
;   minInfillLength,5
;   infillLayerInterval,1
;   infillAngles,45,-45
;   overlapInfillAngles,0
;   generateSupport,0
;   supportExtruder,0
;   supportInfillPercentage,30
;   supportExtraInflation,0
;   denseSupportLayers,0
;   denseSupportInfillPercentage,70
;   supportLayerInterval,1
;   supportHorizontalPartOffset,0.3
;   supportUpperSeparationLayers,1
;   supportLowerSeparationLayers,1
;   supportType,0
;   supportGridSpacing,4
;   maxOverhangAngle,45
;   supportAngles,0
;   temperatureName,Primary Extruder,Heated Bed
;   temperatureNumber,0,1
;   temperatureSetpointCount,1,1
;   temperatureSetpointLayers,1,1
;   temperatureSetpointTemperatures,225,60
;   temperatureStabilizeAtStartup,1,1
;   temperatureHeatedBed,0,1
;   temperatureRelayBetweenLayers,0,0
;   temperatureRelayBetweenLoops,0,0
;   fanLayers,1
;   fanSpeeds,0
;   blipFanToFullPower,1
;   adjustSpeedForCooling,1
;   minSpeedLayerTime,15
;   minCoolingSpeedSlowdown,20
;   increaseFanForCooling,0
;   minFanLayerTime,45
;   maxCoolingFanSpeed,100
;   increaseFanForBridging,0
;   bridgingFanSpeed,100
;   use5D,1
;   relativeEdistances,0
;   allowEaxisZeroing,1
;   independentExtruderAxes,0
;   includeM10123,0
;   stickySupport,1
;   applyToolheadOffsets,0
;   gcodeXoffset,0
;   gcodeYoffset,0
;   gcodeZoffset,0
;   overrideMachineDefinition,1
;   machineTypeOverride,0
;   strokeXoverride,200
;   strokeYoverride,200
;   strokeZoverride,185
;   originOffsetXoverride,0
;   originOffsetYoverride,0
;   originOffsetZoverride,0
;   homeXdirOverride,-1
;   homeYdirOverride,-1
;   homeZdirOverride,-1
;   flipXoverride,1
;   flipYoverride,-1
;   flipZoverride,1
;   toolheadOffsets,0,0|0,0|0,0|0,0|0,0|0,0
;   overrideFirmwareConfiguration,1
;   firmwareTypeOverride,RepRap (Marlin/Repetier/Sprinter)
;   GPXconfigOverride,r2
;   baudRateOverride,115200
;   overridePrinterModels,0
;   printerModelsOverride
;   startingGcode,G28,
;   layerChangeGcode,
;   retractionGcode,
;   toolChangeGcode,
;   endingGcode,M104 S0 ; turn off extruder,M140 S0 ; turn off bed,G28 X0 ; home X axis,M84 ; disable motors,M107 ; turn off fan
;   createX3G,0
;   celebration,0
;   celebrationSong,Random Song
;   createMB5G,0
;   postProcessing,
;   defaultSpeed,3000
;   outlineUnderspeed,0.7
;   solidInfillUnderspeed,0.8
;   supportUnderspeed,0.8
;   rapidXYspeed,9000
;   rapidZspeed,1002
;   minBridgingArea,5
;   bridgingExtraInflation,0
;   bridgingExtrusionMultiplier,1
;   bridgingSpeedMultiplier,0.3
;   filamentDiameter,1.75
;   filamentPricePerKg,1000
;   filamentDensity,1.25
;   useMinPrintHeight,0
;   minPrintHeight,196
;   useMaxPrintHeight,0
;   maxPrintHeight,392
;   useDiaphragm,0
;   diaphragmLayerInterval,20
;   robustSlicing,1
;   mergeAllIntoSolid,0
;   onlyRetractWhenCrossingOutline,0
;   retractBetweenLayers,0
;   useRetractionMinTravel,0
;   retractionMinTravel,3
;   retractWhileWiping,0
;   onlyWipeOutlines,1
;   avoidCrossingOutline,0
;   maxMovementDetourFactor,3
;   toolChangeRetractionDistance,0
;   toolChangeExtraRestartDistance,0
;   toolChangeRetractionSpeed,360
;   allowThinWallGapFill,1
;   thinWallAllowedOverlapPercentage,10
;   horizontalSizeCompensation,0
G90
M82
M106 S0
M140 S60
M190 S60
M104 S225 T0
M109 S225 T0
G28
G92 E0
G1 E-0.8000 F1800
G1 Z0.225 F1002
; layer 1, Z = 0.225
T0
; tool H0.250 W0.462
; skirt
G1 X90.887 Y25.525 F9000
G1 E0.1200 F540
G92 E0
G1 X90.921 Y25.452 E0.0039 F1500
G1 X91.846 Y24.583 E0.0661
G1 X91.921 Y24.553 E0.0701
G1 X95.015 Y24.556 E0.2216
G1 X95.091 Y24.587 E0.2257
G1 X96.024 Y25.502 E0.2897
G1 X96.057 Y25.577 E0.2937
G1 X96.510 Y48.067 E1.3954
G1 X96.510 Y48.067 E1.3954
G1 X96.510 Y48.071 E1.3956
G1 X96.510 Y48.071 E1.3956
G1 X96.609 Y54.469 E1.7091
G1 X96.609 Y54.469 E1.7091
G1 X96.609 Y54.474 E1.7093
G1 X96.609 Y54.475 E1.7093
G1 X96.720 Y66.033 E2.2755
G1 X96.660 Y66.134 E2.2813
G1 X94.950 Y67.046 E2.3762
G1 X94.833 Y67.039 E2.3819
G1 X90.228 Y63.881 E2.6554
G1 X89.954 Y63.917 E2.6690
G1 X89.572 Y64.021 E2.6883
G1 X89.106 Y64.228 E2.7133
G1 X88.450 Y64.636 E2.7512
G1 X86.807 Y65.791 E2.8495
G1 X86.805 Y65.792 E2.8496
G1 X86.779 Y65.810 E2.8512
G1 X86.778 Y65.811 E2.8513
G1 X85.966 Y66.336 E2.8986
G1 X85.960 Y66.339 E2.8989
G1 X85.866 Y66.391 E2.9042
G1 X85.859 Y66.395 E2.9046
G1 X85.122 Y66.741 E2.9445
G1 X85.113 Y66.745 E2.9450
G1 X84.972 Y66.796 E2.9523
G1 X84.962 Y66.799 E2.9528
G1 X84.286 Y66.973 E2.9870
G1 X84.274 Y66.976 E2.9876
G1 X84.091 Y67.001 E2.9967
G1 X84.079 Y67.002 E2.9973
G1 X83.463 Y67.016 E3.0274
G1 X83.451 Y67.016 E3.0280
G1 X83.268 Y66.999 E3.0370
G1 X83.256 Y66.997 E3.0376
G1 X82.730 Y66.886 E3.0640
G1 X82.722 Y66.884 E3.0644
G1 X82.600 Y66.849 E3.0706
G1 X82.592 Y66.846 E3.0710
G1 X82.127 Y66.669 E3.0953
G1 X82.119 Y66.665 E3.0958
G1 X81.995 Y66.605 E3.1025
G1 X81.987 Y66.601 E3.1030
G1 X81.562 Y66.348 E3.1272
G1 X81.554 Y66.343 E3.1277
G1 X81.439 Y66.260 E3.1346
G1 X81.432 Y66.254 E3.1351
G1 X81.057 Y65.931 E3.1593
G1 X81.050 Y65.924 E3.1598
G1 X80.949 Y65.819 E3.1669
G1 X80.943 Y65.812 E3.1674
G1 X80.630 Y65.422 E3.1918
G1 X80.625 Y65.415 E3.1923
G1 X80.545 Y65.295 E3.1994
G1 X80.540 Y65.286 E3.1998
G1 X80.280 Y64.807 E3.2266
G1 X80.274 Y64.794 E3.2273
G1 X80.197 Y64.590 E3.2379
G1 X80.193 Y64.576 E3.2386
G1 X80.051 Y63.958 E3.2697
G1 X80.049 Y63.944 E3.2704
G1 X80.029 Y63.740 E3.2804
G1 X80.028 Y63.726 E3.2811
G1 X80.050 Y62.998 E3.3168
G1 X80.051 Y62.988 E3.3173
G1 X80.069 Y62.840 E3.3246
G1 X80.071 Y62.831 E3.3250
G1 X80.258 Y61.975 E3.3680
G1 X80.259 Y61.969 E3.3683
G1 X80.285 Y61.877 E3.3729
G1 X80.287 Y61.871 E3.3733
G1 X80.648 Y60.833 E3.4270
G1 X80.649 Y60.830 E3.4272
G1 X80.665 Y60.786 E3.4295
G1 X80.667 Y60.783 E3.4297
G1 X81.200 Y59.496 E3.4979
G1 X81.201 Y59.495 E3.4980
G1 X81.209 Y59.475 E3.4990
G1 X81.210 Y59.474 E3.4991
G1 X81.927 Y57.866 E3.5853
G1 X81.928 Y57.865 E3.5854
G1 X81.931 Y57.858 E3.5858
G1 X81.931 Y57.857 E3.5858
G1 X90.049 Y40.148 E4.5400
G1 X90.518 Y31.528 E4.9628
G1 X90.518 Y31.527 E4.9629
G1 X90.519 Y31.522 E4.9631
G1 X90.519 Y31.521 E4.9632
G1 X90.874 Y25.725 E5.2476
G1 X90.887 Y25.525 F1500
G92 E0
G1 E-0.8000 F1800
G1 X99.006 Y25.695 F9000
G1 E0.1200 F1800
G92 E0
G1 X99.039 Y25.620 E0.0040 F1500
G1 X99.971 Y24.707 E0.0679
G1 X100.047 Y24.676 E0.0720
G1 X103.142 Y24.673 E0.2235
G1 X103.217 Y24.703 E0.2275
G1 X104.142 Y25.572 E0.2897
G1 X104.176 Y25.645 E0.2936
G1 X104.541 Y31.563 E0.5840
G1 X104.541 Y31.563 E0.5840
G1 X104.541 Y31.569 E0.5843
G1 X104.541 Y31.569 E0.5843
G1 X105.008 Y40.052 E1.0004
G1 X107.512 Y45.598 E1.2984
G1 X113.130 Y57.858 E1.9590
G1 X113.131 Y57.858 E1.9590
G1 X113.134 Y57.866 E1.9594
G1 X113.134 Y57.866 E1.9594
G1 X113.852 Y59.475 E2.0457
G1 X113.853 Y59.476 E2.0458
G1 X113.861 Y59.496 E2.0468
G1 X113.862 Y59.497 E2.0469
G1 X114.395 Y60.784 E2.1152
G1 X114.397 Y60.787 E2.1153
G1 X114.413 Y60.831 E2.1176
G1 X114.414 Y60.834 E2.1178
G1 X114.775 Y61.872 E2.1716
G1 X114.777 Y61.878 E2.1719
G1 X114.803 Y61.970 E2.1766
G1 X114.804 Y61.976 E2.1769
G1 X114.992 Y62.832 E2.2198
G1 X114.993 Y62.842 E2.2203
G1 X115.011 Y62.989 E2.2276
G1 X115.012 Y62.999 E2.2280
G1 X115.034 Y63.728 E2.2638
G1 X115.034 Y63.741 E2.2644
G1 X115.013 Y63.946 E2.2745
G1 X115.011 Y63.959 E2.2751
G1 X114.869 Y64.578 E2.3062
G1 X114.865 Y64.591 E2.3069
G1 X114.788 Y64.795 E2.3176
G1 X114.782 Y64.808 E2.3183
G1 X114.522 Y65.288 E2.3450
G1 X114.517 Y65.296 E2.3455
G1 X114.438 Y65.416 E2.3525
G1 X114.432 Y65.424 E2.3530
G1 X114.120 Y65.813 E2.3775
G1 X114.113 Y65.820 E2.3779
G1 X114.012 Y65.926 E2.3851
G1 X114.005 Y65.932 E2.3856
G1 X113.630 Y66.256 E2.4098
G1 X113.623 Y66.262 E2.4103
G1 X113.508 Y66.344 E2.4172
G1 X113.500 Y66.349 E2.4177
G1 X113.076 Y66.602 E2.4419
G1 X113.068 Y66.606 E2.4423
G1 X112.944 Y66.666 E2.4490
G1 X112.935 Y66.670 E2.4495
G1 X112.470 Y66.848 E2.4739
G1 X112.462 Y66.850 E2.4743
G1 X112.341 Y66.886 E2.4805
G1 X112.333 Y66.888 E2.4809
G1 X111.806 Y66.998 E2.5072
G1 X111.794 Y67.000 E2.5078
G1 X111.611 Y67.017 E2.5169
G1 X111.599 Y67.018 E2.5175
G1 X110.983 Y67.004 E2.5476
G1 X110.971 Y67.003 E2.5482
G1 X110.788 Y66.977 E2.5573
G1 X110.776 Y66.975 E2.5578
G1 X110.100 Y66.800 E2.5921
G1 X110.090 Y66.797 E2.5925
G1 X109.949 Y66.746 E2.5999
G1 X109.940 Y66.743 E2.6004
G1 X109.202 Y66.396 E2.6403
G1 X109.196 Y66.392 E2.6407
G1 X109.102 Y66.340 E2.6460
G1 X109.096 Y66.336 E2.6463
G1 X108.284 Y65.812 E2.6936
G1 X108.283 Y65.811 E2.6937
G1 X108.257 Y65.793 E2.6953
G1 X108.255 Y65.792 E2.6954
G1 X106.612 Y64.636 E2.7937
G1 X105.957 Y64.228 E2.8316
G1 X105.490 Y64.021 E2.8566
G1 X105.108 Y63.918 E2.8759
G1 X104.833 Y63.882 E2.8895
G1 X100.226 Y67.038 E3.1631
G1 X100.109 Y67.045 E3.1688
G1 X98.399 Y66.133 E3.2637
G1 X98.340 Y66.032 E3.2694
G1 X98.451 Y54.484 E3.8351
G1 X98.451 Y54.484 E3.8351
G1 X98.451 Y54.479 E3.8353
G1 X98.451 Y54.479 E3.8354
G1 X98.548 Y48.120 E4.1468
G1 X98.548 Y48.120 E4.1468
G1 X98.548 Y48.118 E4.1470
G1 X98.548 Y48.117 E4.1470
G1 X98.762 Y36.630 E4.7097
G1 X98.762 Y36.630 E4.7097
G1 X98.762 Y36.627 E4.7099
G1 X98.762 Y36.627 E4.7099
G1 X99.002 Y25.895 E5.2356
G1 X99.006 Y25.695 F1500
G92 E0
G1 E-0.8000 F1800
; outer perimeter
G1 X100.928 Y26.616 F9000
G1 E0.1200 F1800
G92 E0
G1 X102.291 Y26.615 E0.0668 F1050
G1 X102.603 Y31.678 E0.3153
G1 X103.090 Y40.519 E0.7489
G1 X103.616 Y41.720 E0.8131
G1 X104.664 Y44.024 E0.9371
G1 X102.920 Y43.810 E1.0232
G1 X100.745 Y43.789 E1.1298
G1 X100.736 Y44.651 E1.1720
G1 X102.886 Y44.672 E1.2773
G1 X104.689 Y44.894 E1.3663
G1 X104.685 Y44.071 E1.4066
G1 X105.745 Y46.402 E1.5320
G1 X111.364 Y58.662 E2.1926
G1 X112.074 Y60.253 E2.2779
G1 X112.591 Y61.500 E2.3440
G1 X112.921 Y62.451 E2.3933
G1 X113.075 Y63.153 E2.4285
G1 X113.090 Y63.654 E2.4531
G1 X113.009 Y64.007 E2.4708
G1 X112.860 Y64.282 E2.4861
G1 X112.664 Y64.525 E2.5014
G1 X112.430 Y64.728 E2.5166
G1 X112.160 Y64.888 E2.5320
G1 X111.854 Y65.005 E2.5480
G1 X111.524 Y65.074 E2.5645
G1 X111.146 Y65.066 E2.5830
G1 X110.679 Y64.945 E2.6067
G1 X110.091 Y64.669 E2.6385
G1 X109.355 Y64.193 E2.6814
G1 X107.685 Y63.017 E2.7815
G1 X106.867 Y62.509 E2.8286
G1 X106.141 Y62.187 E2.8675
G1 X105.490 Y62.010 E2.9006
G1 X104.896 Y61.932 E2.9299
G1 X104.276 Y61.911 E2.9603
G1 X100.294 Y64.639 E3.1967
G1 X100.391 Y54.505 E3.6931
G1 X100.489 Y48.152 E4.0043
G1 X100.702 Y36.668 E4.5669
G1 X100.831 Y31.676 E4.8115
G1 X100.924 Y26.816 E5.0496
G1 X100.928 Y26.616 F1050
G92 E0
G1 E-0.8000 F1800
G1 X102.291 Y26.615 F3000
G1 X102.331 Y27.250 F3000
; outer perimeter
; outer perimeter
G1 X110.765 Y61.731 F9000
G1 E0.1200 F1800
G92 E0
G1 X110.542 Y61.778 E0.0112 F1050
G1 X110.270 Y61.934 E0.0265
G1 X110.081 Y62.237 E0.0440
G1 X109.999 Y62.615 E0.0629
G1 X109.991 Y62.821 E0.0731
G1 X110.009 Y63.019 E0.0828
G1 X110.060 Y63.203 E0.0921
G1 X110.146 Y63.367 E0.1012
G1 X110.269 Y63.507 E0.1103
G1 X110.422 Y63.613 E0.1195
G1 X110.599 Y63.685 E0.1288
G1 X110.788 Y63.725 E0.1383
G1 X110.986 Y63.730 E0.1480
G1 X111.185 Y63.699 E0.1578
G1 X111.372 Y63.624 E0.1677
G1 X111.539 Y63.512 E0.1776
G1 X111.679 Y63.367 E0.1874
G1 X111.786 Y63.195 E0.1974
G1 X111.856 Y63.002 E0.2074
G1 X111.890 Y62.801 E0.2174
G1 X111.889 Y62.597 E0.2274
G1 X111.849 Y62.386 E0.2379
G1 X111.671 Y62.060 E0.2561
G1 X111.516 Y61.918 E0.2664
G1 X111.343 Y61.818 E0.2762
G1 X111.153 Y61.756 E0.2860
G1 X110.965 Y61.729 E0.2953
G1 X110.959 Y61.728 F1050
G1 X110.765 Y61.731 F1050
G92 E0
G1 E-0.8000 F1800
G1 X110.542 Y61.778 F3000
G1 X110.270 Y61.934 F3000
G1 X110.081 Y62.237 F3000
G1 X109.999 Y62.615 F3000
G1 X109.991 Y62.821 F3000
G1 X110.009 Y63.019 F3000
G1 X110.060 Y63.203 F3000
G1 X110.115 Y63.308 F3000
; solid layer
G1 X111.754 Y60.506 F9000
G1 E0.1200 F1800
G92 E0
G1 X110.923 Y61.336 E0.0575 F1200
G1 X110.984 Y61.335 E0.0605
G1 X111.243 Y61.372 E0.0733
G1 X111.468 Y61.445 E0.0849
G1 X111.945 Y60.968 E0.1180
G1 X112.137 Y61.430 E0.1424
G1 X111.863 Y61.703 E0.1614
G1 X111.984 Y61.815 E0.1695
G1 X112.133 Y62.087 E0.1846
G1 X112.316 Y61.904 E0.1973
G1 X112.484 Y62.389 E0.2224
G1 X112.282 Y62.591 E0.2364
G1 X112.283 Y62.833 E0.2483
G1 X112.237 Y63.103 E0.2617
G1 X112.141 Y63.368 E0.2755
G1 X112.112 Y63.415 E0.2782
G1 X112.619 Y62.907 E0.3133
G1 X112.683 Y63.201 E0.3281
G1 X112.692 Y63.488 E0.3421
G1 X111.502 Y64.678 E0.4245
G1 X111.488 Y64.681 E0.4253
G1 X111.201 Y64.674 E0.4393
G1 X110.924 Y64.603 E0.4533
G1 X111.550 Y63.976 E0.4967
G1 X111.289 Y64.080 E0.5105
G1 X111.011 Y64.124 E0.5243
G1 X110.756 Y64.117 E0.5367
G1 X110.463 Y64.410 E0.5570
G1 X110.282 Y64.325 E0.5668
G1 X110.047 Y64.173 E0.5806
G1 X110.252 Y63.967 E0.5948
G1 X110.234 Y63.960 E0.5957
G1 X110.006 Y63.803 E0.6093
G1 X109.893 Y63.674 E0.6177
G1 X109.650 Y63.916 E0.6345
G1 X109.575 Y63.867 E0.6389
G1 X109.264 Y63.649 E0.6575
G1 X109.665 Y63.248 E0.6852
G1 X109.621 Y63.090 E0.6933
G1 X109.597 Y62.831 E0.7060
G1 X109.604 Y62.655 E0.7146
G1 X108.881 Y63.379 E0.7647
G1 X108.497 Y63.109 E0.7877
G1 X111.554 Y60.052 E0.9994
G1 X111.353 Y59.600 E1.0237
G1 X108.114 Y62.839 E1.2480
G1 X107.901 Y62.690 E1.2607
G1 X107.722 Y62.578 E1.2711
G1 X111.151 Y59.149 E1.5087
G1 X111.006 Y58.824 E1.5261
G1 X110.948 Y58.698 E1.5329
G1 X107.319 Y62.327 E1.7843
G1 X107.052 Y62.161 E1.7997
G1 X106.899 Y62.093 E1.8078
G1 X110.743 Y58.250 E2.0741
G1 X110.538 Y57.802 E2.0982
G1 X106.447 Y61.893 E2.3816
G1 X106.273 Y61.815 E2.3909
G1 X105.957 Y61.730 E2.4069
G1 X110.332 Y57.354 E2.7100
G1 X110.127 Y56.906 E2.7342
G1 X105.427 Y61.606 E3.0597
G1 X104.928 Y61.540 E3.0844
G1 X104.842 Y61.537 E3.0886
G1 X109.922 Y56.458 E3.4405
G1 X109.716 Y56.010 E3.4646
G1 X104.211 Y61.515 E3.8460
G1 X104.161 Y61.514 E3.8484
G1 X102.250 Y62.823 E3.9619
G1 X109.511 Y55.562 E4.4649
