; G-Code generated by Simplify3D(R) Version 3.0.2
; ríj 24, 2016 at 9:59:42 ODP.
; Settings Summary
;   processName,wing2per
;   applyToModels,elevator_Ltip,elevator_Rtip,stabilizer_L,stabilizer_R
;   profileName,Default (modified)
;   profileVersion,2015-08-14 23:46:21
;   baseProfile,
;   printMaterial,
;   printQuality,
;   printExtruders,
;   extruderName,Primary Extruder
;   extruderToolheadNumber,0
;   extruderDiameter,0.4
;   extruderAutoWidth,0
;   extruderWidth,0.42
;   extrusionMultiplier,1.02
;   extruderUseRetract,1
;   extruderRetractionDistance,0.8
;   extruderExtraRestartDistance,0.12
;   extruderRetractionZLift,0
;   extruderRetractionSpeed,1800
;   extruderUseCoasting,1
;   extruderCoastingDistance,0.2
;   extruderUseWipe,1
;   extruderWipeDistance,2
;   primaryExtruder,0
;   layerHeight,0.25
;   topSolidLayers,0
;   bottomSolidLayers,0
;   perimeterOutlines,2
;   printPerimetersInsideOut,1
;   startPointOption,3
;   startPointOriginX,200
;   startPointOriginY,0
;   startPointOriginZ,0
;   sequentialIslands,0
;   spiralVaseMode,0
;   firstLayerHeightPercentage,90
;   firstLayerWidthPercentage,110
;   firstLayerUnderspeed,0.5
;   useRaft,0
;   raftExtruder,0
;   raftLayers,3
;   raftOffset,3
;   raftSeparationDistance,0.14
;   raftInfill,85
;   disableRaftBaseLayers,0
;   useSkirt,1
;   skirtExtruder,0
;   skirtLayers,1
;   skirtOutlines,2
;   skirtOffset,2
;   usePrimePillar,0
;   primePillarExtruder,999
;   primePillarWidth,12
;   primePillarLocation,7
;   primePillarSpeedMultiplier,1
;   useOozeShield,0
;   oozeShieldExtruder,999
;   oozeShieldOffset,2
;   oozeShieldOutlines,1
;   oozeShieldSidewallShape,1
;   oozeShieldSidewallAngle,30
;   oozeShieldSpeedMultiplier,1
;   infillExtruder,0
;   internalInfillPattern,Rectilinear
;   externalInfillPattern,Rectilinear
;   infillPercentage,0
;   outlineOverlapPercentage,15
;   infillExtrusionWidthPercentage,100
;   minInfillLength,5
;   infillLayerInterval,1
;   infillAngles,45,-45
;   overlapInfillAngles,0
;   generateSupport,0
;   supportExtruder,0
;   supportInfillPercentage,30
;   supportExtraInflation,0
;   denseSupportLayers,0
;   denseSupportInfillPercentage,70
;   supportLayerInterval,1
;   supportHorizontalPartOffset,0.3
;   supportUpperSeparationLayers,1
;   supportLowerSeparationLayers,1
;   supportType,0
;   supportGridSpacing,4
;   maxOverhangAngle,45
;   supportAngles,0
;   temperatureName,Primary Extruder,Heated Bed
;   temperatureNumber,0,1
;   temperatureSetpointCount,1,1
;   temperatureSetpointLayers,1,1
;   temperatureSetpointTemperatures,225,60
;   temperatureStabilizeAtStartup,1,1
;   temperatureHeatedBed,0,1
;   temperatureRelayBetweenLayers,0,0
;   temperatureRelayBetweenLoops,0,0
;   fanLayers,1
;   fanSpeeds,0
;   blipFanToFullPower,1
;   adjustSpeedForCooling,1
;   minSpeedLayerTime,15
;   minCoolingSpeedSlowdown,20
;   increaseFanForCooling,0
;   minFanLayerTime,45
;   maxCoolingFanSpeed,100
;   increaseFanForBridging,0
;   bridgingFanSpeed,100
;   use5D,1
;   relativeEdistances,0
;   allowEaxisZeroing,1
;   independentExtruderAxes,0
;   includeM10123,0
;   stickySupport,1
;   applyToolheadOffsets,0
;   gcodeXoffset,0
;   gcodeYoffset,0
;   gcodeZoffset,0
;   overrideMachineDefinition,1
;   machineTypeOverride,0
;   strokeXoverride,200
;   strokeYoverride,200
;   strokeZoverride,185
;   originOffsetXoverride,0
;   originOffsetYoverride,0
;   originOffsetZoverride,0
;   homeXdirOverride,-1
;   homeYdirOverride,-1
;   homeZdirOverride,-1
;   flipXoverride,1
;   flipYoverride,-1
;   flipZoverride,1
;   toolheadOffsets,0,0|0,0|0,0|0,0|0,0|0,0
;   overrideFirmwareConfiguration,1
;   firmwareTypeOverride,RepRap (Marlin/Repetier/Sprinter)
;   GPXconfigOverride,r2
;   baudRateOverride,115200
;   overridePrinterModels,0
;   printerModelsOverride
;   startingGcode,G28,
;   layerChangeGcode,
;   retractionGcode,
;   toolChangeGcode,
;   endingGcode,M104 S0 ; turn off extruder,M140 S0 ; turn off bed,G28 X0 ; home X axis,M84 ; disable motors,M107 ; turn off fan
;   createX3G,0
;   celebration,0
;   celebrationSong,Random Song
;   createMB5G,0
;   postProcessing,
;   defaultSpeed,3000
;   outlineUnderspeed,0.7
;   solidInfillUnderspeed,0.8
;   supportUnderspeed,0.8
;   rapidXYspeed,9000
;   rapidZspeed,1002
;   minBridgingArea,5
;   bridgingExtraInflation,0
;   bridgingExtrusionMultiplier,1
;   bridgingSpeedMultiplier,0.3
;   filamentDiameter,1.75
;   filamentPricePerKg,1000
;   filamentDensity,1.25
;   useMinPrintHeight,1
;   minPrintHeight,0
;   useMaxPrintHeight,1
;   maxPrintHeight,3
;   useDiaphragm,0
;   diaphragmLayerInterval,20
;   robustSlicing,1
;   mergeAllIntoSolid,0
;   onlyRetractWhenCrossingOutline,0
;   retractBetweenLayers,0
;   useRetractionMinTravel,0
;   retractionMinTravel,3
;   retractWhileWiping,0
;   onlyWipeOutlines,1
;   avoidCrossingOutline,0
;   maxMovementDetourFactor,3
;   toolChangeRetractionDistance,0
;   toolChangeExtraRestartDistance,0
;   toolChangeRetractionSpeed,360
;   allowThinWallGapFill,1
;   thinWallAllowedOverlapPercentage,10
;   horizontalSizeCompensation,0
G90
M82
M106 S0
M140 S60
M190 S60
M104 S225 T0
M109 S225 T0
G28
G92 E0
G1 E-0.8000 F1800
G1 Z0.225 F1002
; layer 1, Z = 0.225
T0
; tool H0.250 W0.462
; skirt
G1 X43.050 Y13.167 F9000
G1 E0.1200 F540
G92 E0
G1 X49.492 Y13.168 E0.3155 F1500
G1 X49.720 Y13.260 E0.3276
G1 X51.061 Y14.563 E0.4191
G1 X51.160 Y14.788 E0.4312
G1 X51.734 Y34.749 E1.4092
G1 X51.734 Y34.750 E1.4093
G1 X51.734 Y34.762 E1.4099
G1 X51.734 Y34.764 E1.4100
G1 X51.880 Y42.653 E1.7964
G1 X52.034 Y34.761 E2.1830
G1 X52.034 Y34.760 E2.1831
G1 X52.035 Y34.749 E2.1836
G1 X52.035 Y34.748 E2.1837
G1 X52.609 Y14.788 E3.1617
G1 X52.708 Y14.563 E3.1738
G1 X54.048 Y13.260 E3.2653
G1 X54.276 Y13.168 E3.2773
G1 X60.719 Y13.167 E3.5929
G1 X60.949 Y13.261 E3.6051
G1 X62.294 Y14.587 E3.6976
G1 X62.391 Y14.815 E3.7097
G1 X62.584 Y27.872 E4.3493
G1 X62.705 Y34.770 E4.6872
G1 X62.705 Y34.772 E4.6873
G1 X62.705 Y34.785 E4.6880
G1 X62.705 Y34.787 E4.6881
G1 X62.763 Y44.352 E5.1566
G1 X62.763 Y44.353 E5.1566
G1 X62.763 Y44.360 E5.1570
G1 X62.763 Y44.361 E5.1570
G1 X62.759 Y53.099 E5.5850
G1 X62.839 Y50.238 E5.7252
G1 X62.839 Y50.236 E5.7253
G1 X62.839 Y50.223 E5.7259
G1 X62.839 Y50.221 E5.7260
G1 X62.954 Y47.309 E5.8688
G1 X62.954 Y47.307 E5.8688
G1 X62.955 Y47.297 E5.8694
G1 X62.955 Y47.295 E5.8694
G1 X63.538 Y35.382 E6.4536
G1 X64.179 Y19.858 E7.2146
G1 X64.179 Y19.853 E7.2149
G1 X64.181 Y19.817 E7.2167
G1 X64.181 Y19.812 E7.2169
G1 X64.418 Y16.567 E7.3763
G1 X64.423 Y16.528 E7.3782
G1 X64.479 Y16.247 E7.3922
G1 X64.489 Y16.209 E7.3941
G1 X65.405 Y13.452 E7.5364
G1 X65.743 Y13.213 E7.5567
G1 X69.101 Y13.277 E7.7212
G1 X69.430 Y13.529 E7.7415
G1 X70.243 Y16.332 E7.8845
G1 X70.251 Y16.370 E7.8864
G1 X70.297 Y16.650 E7.9003
G1 X70.300 Y16.689 E7.9022
G1 X70.424 Y20.004 E8.0647
G1 X70.424 Y20.009 E8.0649
G1 X70.425 Y20.042 E8.0666
G1 X70.425 Y20.047 E8.0668
G1 X70.459 Y24.192 E8.2698
G1 X70.666 Y38.019 E8.9471
G1 X70.900 Y48.908 E9.4806
G1 X70.900 Y48.909 E9.4806
G1 X70.900 Y48.916 E9.4810
G1 X70.900 Y48.917 E9.4810
G1 X70.952 Y52.367 E9.6500
G1 X71.004 Y48.973 E9.8163
G1 X71.004 Y48.972 E9.8164
G1 X71.004 Y48.965 E9.8167
G1 X71.004 Y48.964 E9.8168
G1 X71.237 Y38.180 E10.3451
G1 X71.445 Y24.345 E11.0228
G1 X71.480 Y20.047 E11.2333
G1 X71.480 Y20.042 E11.2335
G1 X71.481 Y20.008 E11.2352
G1 X71.481 Y20.004 E11.2354
G1 X71.605 Y16.688 E11.3979
G1 X71.609 Y16.650 E11.3998
G1 X71.654 Y16.370 E11.4137
G1 X71.662 Y16.332 E11.4156
G1 X72.476 Y13.529 E11.5586
G1 X72.804 Y13.277 E11.5789
G1 X76.163 Y13.213 E11.7434
G1 X76.500 Y13.452 E11.7637
G1 X77.416 Y16.209 E11.9059
G1 X77.426 Y16.247 E11.9079
G1 X77.482 Y16.528 E11.9219
G1 X77.487 Y16.567 E11.9238
G1 X77.724 Y19.812 E12.0832
G1 X77.724 Y19.817 E12.0834
G1 X77.726 Y19.854 E12.0852
G1 X77.727 Y19.858 E12.0855
G1 X78.360 Y35.233 E12.8392
G1 X78.950 Y47.294 E13.4306
G1 X78.950 Y47.295 E13.4307
G1 X78.951 Y47.306 E13.4312
G1 X78.951 Y47.308 E13.4313
G1 X79.061 Y50.083 E13.5673
G1 X79.061 Y50.085 E13.5674
G1 X79.062 Y50.099 E13.5681
G1 X79.062 Y50.101 E13.5682
G1 X79.305 Y58.819 E13.9954
G1 X79.305 Y58.822 E13.9955
G1 X79.305 Y58.842 E13.9965
G1 X79.305 Y58.845 E13.9967
G1 X79.366 Y64.737 E14.2853
G1 X79.366 Y64.740 E14.2854
G1 X79.366 Y64.756 E14.2862
G1 X79.366 Y64.758 E14.2863
G1 X79.354 Y67.905 E14.4404
G1 X79.354 Y67.908 E14.4406
G1 X79.354 Y67.930 E14.4417
G1 X79.354 Y67.934 E14.4418
G1 X79.257 Y72.155 E14.6486
G1 X79.257 Y72.158 E14.6488
G1 X79.256 Y72.177 E14.6497
G1 X79.256 Y72.180 E14.6499
G1 X79.150 Y74.837 E14.7801
G1 X79.150 Y74.841 E14.7803
G1 X79.148 Y74.871 E14.7818
G1 X79.148 Y74.875 E14.7820
G1 X78.958 Y77.744 E14.9228
G1 X78.958 Y77.753 E14.9233
G1 X78.951 Y77.824 E14.9267
G1 X78.950 Y77.834 E14.9272
G1 X78.530 Y81.115 E15.0893
G1 X78.528 Y81.125 E15.0897
G1 X78.517 Y81.197 E15.0933
G1 X78.515 Y81.206 E15.0938
G1 X78.189 Y82.901 E15.1783
G1 X78.187 Y82.913 E15.1789
G1 X78.166 Y83.000 E15.1833
G1 X78.163 Y83.011 E15.1838
G1 X77.936 Y83.844 E15.2261
G1 X77.932 Y83.858 E15.2269
G1 X77.898 Y83.962 E15.2322
G1 X77.893 Y83.975 E15.2329
G1 X77.645 Y84.635 E15.2674
G1 X77.633 Y84.663 E15.2689
G1 X77.534 Y84.863 E15.2798
G1 X77.519 Y84.890 E15.2813
G1 X77.065 Y85.625 E15.3236
G1 X77.004 Y85.697 E15.3283
G1 X76.480 Y86.155 E15.3624
G1 X76.400 Y86.206 E15.3670
G1 X75.292 Y86.701 E15.4265
G1 X75.140 Y86.728 E15.4340
G1 X73.995 Y86.650 E15.4902
G1 X73.848 Y86.603 E15.4978
G1 X72.848 Y85.983 E15.5554
G1 X72.775 Y85.921 E15.5601
G1 X72.313 Y85.388 E15.5946
G1 X72.262 Y85.307 E15.5993
G1 X71.951 Y84.592 E15.6376
G1 X71.942 Y84.570 E15.6387
G1 X71.886 Y84.411 E15.6470
G1 X71.879 Y84.389 E15.6481
G1 X71.762 Y83.957 E15.6700
G1 X71.759 Y83.945 E15.6706
G1 X71.739 Y83.860 E15.6749
G1 X71.737 Y83.849 E15.6754
G1 X71.498 Y82.606 E15.7374
G1 X71.496 Y82.594 E15.7380
G1 X71.483 Y82.506 E15.7424
G1 X71.481 Y82.494 E15.7430
G1 X71.243 Y80.385 E15.8469
G1 X71.242 Y80.379 E15.8472
G1 X71.238 Y80.333 E15.8495
G1 X71.237 Y80.327 E15.8498
G1 X71.028 Y77.461 E15.9905
G1 X71.027 Y77.456 E15.9908
G1 X71.025 Y77.419 E15.9926
G1 X71.025 Y77.414 E15.9928
G1 X70.953 Y75.648 E16.0794
G1 X70.952 Y75.645 E16.0795
G1 X70.952 Y75.640 E16.0798
G1 X70.880 Y77.413 E16.1667
G1 X70.880 Y77.418 E16.1670
G1 X70.878 Y77.456 E16.1688
G1 X70.878 Y77.461 E16.1691
G1 X70.668 Y80.327 E16.3098
G1 X70.668 Y80.333 E16.3101
G1 X70.663 Y80.378 E16.3124
G1 X70.663 Y80.384 E16.3127
G1 X70.428 Y82.465 E16.4152
G1 X70.426 Y82.477 E16.4158
G1 X70.413 Y82.564 E16.4201
G1 X70.411 Y82.576 E16.4207
G1 X70.173 Y83.829 E16.4832
G1 X70.170 Y83.841 E16.4838
G1 X70.151 Y83.925 E16.4880
G1 X70.148 Y83.936 E16.4886
G1 X70.031 Y84.373 E16.5107
G1 X70.024 Y84.394 E16.5118
G1 X69.969 Y84.552 E16.5200
G1 X69.961 Y84.573 E16.5211
G1 X69.647 Y85.300 E16.5599
G1 X69.596 Y85.382 E16.5646
G1 X69.133 Y85.920 E16.5994
G1 X69.060 Y85.982 E16.6041
G1 X68.057 Y86.603 E16.6618
G1 X67.911 Y86.650 E16.6694
G1 X66.765 Y86.728 E16.7256
G1 X66.614 Y86.701 E16.7332
G1 X65.506 Y86.207 E16.7926
G1 X65.426 Y86.156 E16.7972
G1 X64.903 Y85.698 E16.8313
G1 X64.842 Y85.627 E16.8359
G1 X64.391 Y84.899 E16.8778
G1 X64.376 Y84.872 E16.8793
G1 X64.278 Y84.673 E16.8902
G1 X64.265 Y84.645 E16.8917
G1 X64.017 Y83.988 E16.9261
G1 X64.012 Y83.974 E16.9268
G1 X63.978 Y83.870 E16.9322
G1 X63.973 Y83.856 E16.9329
G1 X63.746 Y83.027 E16.9750
G1 X63.743 Y83.015 E16.9756
G1 X63.722 Y82.928 E16.9800
G1 X63.720 Y82.916 E16.9806
G1 X63.394 Y81.228 E17.0648
G1 X63.392 Y81.218 E17.0653
G1 X63.380 Y81.146 E17.0689
G1 X63.379 Y81.136 E17.0694
G1 X62.956 Y77.834 E17.2324
G1 X62.954 Y77.824 E17.2329
G1 X62.948 Y77.754 E17.2364
G1 X62.947 Y77.744 E17.2368
G1 X62.759 Y74.907 E17.3761
G1 X62.759 Y74.903 E17.3763
G1 X62.757 Y74.873 E17.3777
G1 X62.757 Y74.869 E17.3779
G1 X62.651 Y72.228 E17.5074
G1 X62.651 Y72.225 E17.5076
G1 X62.650 Y72.205 E17.5085
G1 X62.650 Y72.202 E17.5087
G1 X62.648 Y72.098 E17.5138
G1 X62.624 Y73.366 E17.5759
G1 X62.624 Y73.369 E17.5761
G1 X62.623 Y73.388 E17.5770
G1 X62.623 Y73.390 E17.5771
G1 X62.490 Y77.207 E17.7642
G1 X62.490 Y77.211 E17.7644
G1 X62.488 Y77.241 E17.7658
G1 X62.488 Y77.245 E17.7660
G1 X62.249 Y81.206 E17.9604
G1 X62.248 Y81.213 E17.9607
G1 X62.244 Y81.260 E17.9631
G1 X62.244 Y81.267 E17.9634
G1 X62.011 Y83.538 E18.0752
G1 X62.010 Y83.548 E18.0757
G1 X62.001 Y83.619 E18.0792
G1 X61.999 Y83.628 E18.0797
G1 X61.737 Y85.217 E18.1585
G1 X61.734 Y85.229 E18.1591
G1 X61.716 Y85.316 E18.1635
G1 X61.714 Y85.328 E18.1641
G1 X61.339 Y86.850 E18.2409
G1 X61.336 Y86.865 E18.2416
G1 X61.305 Y86.969 E18.2469
G1 X61.300 Y86.983 E18.2476
G1 X61.064 Y87.662 E18.2829
G1 X61.052 Y87.691 E18.2844
G1 X60.954 Y87.902 E18.2958
G1 X60.939 Y87.930 E18.2974
G1 X60.310 Y88.990 E18.3577
G1 X60.254 Y89.060 E18.3621
G1 X59.769 Y89.512 E18.3946
G1 X59.695 Y89.563 E18.3990
G1 X58.782 Y90.022 E18.4490
G1 X58.705 Y90.048 E18.4530
G1 X58.118 Y90.172 E18.4824
G1 X58.037 Y90.179 E18.4864
G1 X57.339 Y90.144 E18.5206
G1 X57.263 Y90.130 E18.5244
G1 X56.722 Y89.967 E18.5521
G1 X56.651 Y89.936 E18.5558
G1 X55.829 Y89.447 E18.6027
G1 X55.770 Y89.402 E18.6063
G1 X55.378 Y89.021 E18.6331
G1 X55.331 Y88.963 E18.6368
G1 X54.658 Y87.899 E18.6984
G1 X54.641 Y87.867 E18.7002
G1 X54.524 Y87.624 E18.7134
G1 X54.510 Y87.590 E18.7152
G1 X54.042 Y86.230 E18.7857
G1 X54.038 Y86.218 E18.7863
G1 X54.012 Y86.131 E18.7907
G1 X54.009 Y86.119 E18.7913
G1 X53.708 Y84.953 E18.8503
G1 X53.705 Y84.944 E18.8508
G1 X53.690 Y84.877 E18.8541
G1 X53.688 Y84.868 E18.8546
G1 X53.461 Y83.710 E18.9124
G1 X53.460 Y83.706 E18.9126
G1 X53.454 Y83.673 E18.9142
G1 X53.453 Y83.669 E18.9145
G1 X53.239 Y82.388 E18.9781
G1 X53.239 Y82.382 E18.9783
G1 X53.233 Y82.345 E18.9802
G1 X53.232 Y82.340 E18.9804
G1 X52.952 Y80.244 E19.0840
G1 X52.952 Y80.240 E19.0842
G1 X52.949 Y80.215 E19.0855
G1 X52.948 Y80.211 E19.0856
G1 X52.614 Y77.197 E19.2341
G1 X52.614 Y77.192 E19.2344
G1 X52.610 Y77.156 E19.2362
G1 X52.610 Y77.150 E19.2365
G1 X52.343 Y73.757 E19.4032
G1 X52.343 Y73.755 E19.4033
G1 X52.342 Y73.740 E19.4040
G1 X52.342 Y73.738 E19.4041
G1 X52.119 Y70.352 E19.5703
G1 X52.119 Y70.347 E19.5706
G1 X52.117 Y70.308 E19.5725
G1 X52.117 Y70.303 E19.5727
G1 X51.887 Y63.201 E19.9208
G1 X51.712 Y68.918 E20.2009
G1 X51.712 Y68.921 E20.2010
G1 X51.711 Y68.942 E20.2021
G1 X51.711 Y68.945 E20.2022
G1 X51.594 Y71.337 E20.3195
G1 X51.594 Y71.341 E20.3197
G1 X51.592 Y71.371 E20.3212
G1 X51.591 Y71.375 E20.3214
G1 X51.159 Y77.143 E20.6047
G1 X51.159 Y77.149 E20.6050
G1 X51.155 Y77.190 E20.6070
G1 X51.155 Y77.195 E20.6073
G1 X50.820 Y80.215 E20.7561
G1 X50.819 Y80.220 E20.7563
G1 X50.815 Y80.254 E20.7580
G1 X50.814 Y80.258 E20.7582
G1 X50.409 Y83.135 E20.9005
G1 X50.408 Y83.143 E20.9009
G1 X50.399 Y83.198 E20.9037
G1 X50.397 Y83.206 E20.9040
G1 X50.082 Y84.857 E20.9864
G1 X50.080 Y84.867 E20.9869
G1 X50.064 Y84.940 E20.9905
G1 X50.062 Y84.950 E20.9910
G1 X49.760 Y86.119 E21.0502
G1 X49.756 Y86.131 E21.0508
G1 X49.730 Y86.219 E21.0552
G1 X49.726 Y86.230 E21.0559
G1 X49.258 Y87.590 E21.1263
G1 X49.245 Y87.624 E21.1281
G1 X49.128 Y87.867 E21.1413
G1 X49.110 Y87.899 E21.1431
G1 X48.437 Y88.963 E21.2047
G1 X48.391 Y89.021 E21.2084
G1 X47.998 Y89.402 E21.2352
G1 X47.940 Y89.447 E21.2388
G1 X47.117 Y89.936 E21.2857
G1 X47.047 Y89.967 E21.2894
G1 X46.506 Y90.130 E21.3171
G1 X46.430 Y90.144 E21.3209
G1 X45.731 Y90.179 E21.3552
G1 X45.650 Y90.172 E21.3591
G1 X45.063 Y90.048 E21.3885
G1 X44.987 Y90.022 E21.3925
G1 X44.074 Y89.563 E21.4425
G1 X44.000 Y89.512 E21.4469
