; G-Code generated by Simplify3D(R) Version 3.0.2
; ríj 24, 2016 at 10:01:32 ODP.
; Settings Summary
;   processName,thick
;   applyToModels,motor_mount_19_16
;   profileName,Default (modified)
;   profileVersion,2015-08-14 23:46:21
;   baseProfile,
;   printMaterial,
;   printQuality,
;   printExtruders,
;   extruderName,Primary Extruder
;   extruderToolheadNumber,0
;   extruderDiameter,0.4
;   extruderAutoWidth,0
;   extruderWidth,0.42
;   extrusionMultiplier,1.02
;   extruderUseRetract,1
;   extruderRetractionDistance,0.8
;   extruderExtraRestartDistance,0
;   extruderRetractionZLift,0
;   extruderRetractionSpeed,1800
;   extruderUseCoasting,1
;   extruderCoastingDistance,0.2
;   extruderUseWipe,1
;   extruderWipeDistance,2
;   primaryExtruder,0
;   layerHeight,0.25
;   topSolidLayers,3
;   bottomSolidLayers,3
;   perimeterOutlines,3
;   printPerimetersInsideOut,1
;   startPointOption,3
;   startPointOriginX,0
;   startPointOriginY,0
;   startPointOriginZ,180
;   sequentialIslands,0
;   spiralVaseMode,0
;   firstLayerHeightPercentage,90
;   firstLayerWidthPercentage,100
;   firstLayerUnderspeed,0.5
;   useRaft,0
;   raftExtruder,0
;   raftLayers,3
;   raftOffset,3
;   raftSeparationDistance,0.14
;   raftInfill,85
;   disableRaftBaseLayers,0
;   useSkirt,1
;   skirtExtruder,0
;   skirtLayers,1
;   skirtOutlines,1
;   skirtOffset,2
;   usePrimePillar,0
;   primePillarExtruder,999
;   primePillarWidth,12
;   primePillarLocation,7
;   primePillarSpeedMultiplier,1
;   useOozeShield,0
;   oozeShieldExtruder,999
;   oozeShieldOffset,2
;   oozeShieldOutlines,1
;   oozeShieldSidewallShape,1
;   oozeShieldSidewallAngle,30
;   oozeShieldSpeedMultiplier,1
;   infillExtruder,0
;   internalInfillPattern,Rectilinear
;   externalInfillPattern,Rectilinear
;   infillPercentage,0
;   outlineOverlapPercentage,15
;   infillExtrusionWidthPercentage,100
;   minInfillLength,5
;   infillLayerInterval,1
;   infillAngles,45,-45
;   overlapInfillAngles,0
;   generateSupport,0
;   supportExtruder,0
;   supportInfillPercentage,30
;   supportExtraInflation,0
;   denseSupportLayers,0
;   denseSupportInfillPercentage,70
;   supportLayerInterval,1
;   supportHorizontalPartOffset,0.3
;   supportUpperSeparationLayers,1
;   supportLowerSeparationLayers,1
;   supportType,0
;   supportGridSpacing,4
;   maxOverhangAngle,45
;   supportAngles,0
;   temperatureName,Primary Extruder,Heated Bed
;   temperatureNumber,0,1
;   temperatureSetpointCount,1,1
;   temperatureSetpointLayers,1,1
;   temperatureSetpointTemperatures,225,60
;   temperatureStabilizeAtStartup,1,1
;   temperatureHeatedBed,0,1
;   temperatureRelayBetweenLayers,0,0
;   temperatureRelayBetweenLoops,0,0
;   fanLayers,1
;   fanSpeeds,0
;   blipFanToFullPower,1
;   adjustSpeedForCooling,1
;   minSpeedLayerTime,15
;   minCoolingSpeedSlowdown,20
;   increaseFanForCooling,0
;   minFanLayerTime,45
;   maxCoolingFanSpeed,100
;   increaseFanForBridging,0
;   bridgingFanSpeed,100
;   use5D,1
;   relativeEdistances,0
;   allowEaxisZeroing,1
;   independentExtruderAxes,0
;   includeM10123,0
;   stickySupport,1
;   applyToolheadOffsets,0
;   gcodeXoffset,0
;   gcodeYoffset,0
;   gcodeZoffset,0
;   overrideMachineDefinition,1
;   machineTypeOverride,0
;   strokeXoverride,200
;   strokeYoverride,200
;   strokeZoverride,185
;   originOffsetXoverride,0
;   originOffsetYoverride,0
;   originOffsetZoverride,0
;   homeXdirOverride,-1
;   homeYdirOverride,-1
;   homeZdirOverride,-1
;   flipXoverride,1
;   flipYoverride,-1
;   flipZoverride,1
;   toolheadOffsets,0,0|0,0|0,0|0,0|0,0|0,0
;   overrideFirmwareConfiguration,1
;   firmwareTypeOverride,RepRap (Marlin/Repetier/Sprinter)
;   GPXconfigOverride,r2
;   baudRateOverride,115200
;   overridePrinterModels,0
;   printerModelsOverride
;   startingGcode,G28,
;   layerChangeGcode,
;   retractionGcode,
;   toolChangeGcode,
;   endingGcode,M104 S0 ; turn off extruder,M140 S0 ; turn off bed,G28 X0 ; home X axis,M84 ; disable motors,M107 ; turn off fan
;   createX3G,0
;   celebration,0
;   celebrationSong,Random Song
;   createMB5G,0
;   postProcessing,
;   defaultSpeed,3600
;   outlineUnderspeed,0.7
;   solidInfillUnderspeed,0.8
;   supportUnderspeed,0.8
;   rapidXYspeed,9000
;   rapidZspeed,1002
;   minBridgingArea,5
;   bridgingExtraInflation,0
;   bridgingExtrusionMultiplier,1
;   bridgingSpeedMultiplier,0.3
;   filamentDiameter,1.75
;   filamentPricePerKg,1000
;   filamentDensity,1.25
;   useMinPrintHeight,0
;   minPrintHeight,196
;   useMaxPrintHeight,0
;   maxPrintHeight,392
;   useDiaphragm,0
;   diaphragmLayerInterval,20
;   robustSlicing,1
;   mergeAllIntoSolid,0
;   onlyRetractWhenCrossingOutline,0
;   retractBetweenLayers,0
;   useRetractionMinTravel,0
;   retractionMinTravel,3
;   retractWhileWiping,0
;   onlyWipeOutlines,1
;   avoidCrossingOutline,0
;   maxMovementDetourFactor,3
;   toolChangeRetractionDistance,0
;   toolChangeExtraRestartDistance,0
;   toolChangeRetractionSpeed,360
;   allowThinWallGapFill,1
;   thinWallAllowedOverlapPercentage,10
;   horizontalSizeCompensation,0
G90
M82
M106 S0
M140 S60
M190 S60
M104 S225 T0
M109 S225 T0
G28
G92 E0
G1 E-0.8000 F1800
G1 Z0.225 F1002
; layer 1, Z = 0.225
T0
; tool H0.250 W0.420
; skirt
G1 X75.966 Y140.485 F9000
G1 E0.0000 F540
G92 E0
G1 X77.063 Y139.938 E0.0546 F1800
G1 X77.074 Y139.933 E0.0551
G1 X77.307 Y139.849 E0.0662
G1 X77.319 Y139.845 E0.0667
G1 X78.367 Y139.602 E0.1146
G1 X78.373 Y139.601 E0.1149
G1 X78.494 Y139.580 E0.1203
G1 X78.500 Y139.580 E0.1206
G1 X79.661 Y139.450 E0.1726
G1 X79.667 Y139.449 E0.1729
G1 X79.784 Y139.442 E0.1781
G1 X79.790 Y139.442 E0.1784
G1 X98.084 Y139.442 E0.9929
G1 X98.091 Y139.443 E0.9933
G1 X98.244 Y139.454 E1.0001
G1 X98.252 Y139.455 E1.0005
G1 X99.472 Y139.634 E1.0554
G1 X99.484 Y139.636 E1.0559
G1 X99.717 Y139.698 E1.0667
G1 X99.729 Y139.702 E1.0672
G1 X100.925 Y140.174 E1.1245
G1 X100.936 Y140.179 E1.1250
G1 X101.148 Y140.292 E1.1357
G1 X101.159 Y140.298 E1.1363
G1 X102.074 Y140.929 E1.1858
G1 X102.082 Y140.936 E1.1862
G1 X102.241 Y141.070 E1.1955
G1 X102.248 Y141.077 E1.1959
G1 X103.268 Y142.130 E1.2612
G1 X103.277 Y142.141 E1.2618
G1 X103.451 Y142.379 E1.2749
G1 X103.458 Y142.391 E1.2756
G1 X104.051 Y143.502 E1.3317
G1 X104.056 Y143.511 E1.3321
G1 X104.137 Y143.708 E1.3416
G1 X104.140 Y143.718 E1.3421
G1 X104.469 Y144.826 E1.3935
G1 X104.472 Y144.837 E1.3940
G1 X104.512 Y145.058 E1.4040
G1 X104.514 Y145.069 E1.4046
G1 X104.599 Y146.213 E1.4556
G1 X104.600 Y146.217 E1.4558
G1 X104.603 Y146.295 E1.4593
G1 X104.603 Y146.299 E1.4595
G1 X104.602 Y163.420 E2.2218
G1 X104.602 Y163.422 E2.2219
G1 X104.601 Y163.467 E2.2239
G1 X104.601 Y163.469 E2.2240
G1 X104.551 Y164.633 E2.2759
G1 X104.549 Y164.648 E2.2765
G1 X104.490 Y164.955 E2.2905
G1 X104.486 Y164.970 E2.2912
G1 X104.075 Y166.135 E2.3461
G1 X104.071 Y166.145 E2.3466
G1 X103.977 Y166.343 E2.3564
G1 X103.972 Y166.353 E2.3569
G1 X103.369 Y167.342 E2.4084
G1 X103.363 Y167.352 E2.4090
G1 X103.214 Y167.543 E2.4198
G1 X103.206 Y167.552 E2.4203
G1 X102.227 Y168.547 E2.4824
G1 X102.219 Y168.555 E2.4830
G1 X102.034 Y168.705 E2.4935
G1 X102.025 Y168.712 E2.4941
G1 X101.069 Y169.322 E2.5446
G1 X101.060 Y169.328 E2.5450
G1 X100.866 Y169.426 E2.5547
G1 X100.856 Y169.430 E2.5552
G1 X99.738 Y169.853 E2.6084
G1 X99.726 Y169.857 E2.6090
G1 X99.493 Y169.916 E2.6197
G1 X99.481 Y169.918 E2.6202
G1 X97.953 Y170.124 E2.6889
G1 X97.946 Y170.125 E2.6892
G1 X97.806 Y170.134 E2.6955
G1 X97.799 Y170.134 E2.6958
G1 X90.843 Y170.133 E3.0055
G1 X90.782 Y170.158 E3.0084
G1 X87.042 Y170.157 E3.1750
G1 X86.982 Y170.133 E3.1779
G1 X80.044 Y170.131 E3.4868
G1 X80.039 Y170.131 E3.4870
G1 X79.937 Y170.126 E3.4916
G1 X79.932 Y170.126 E3.4918
G1 X78.777 Y170.013 E3.5434
G1 X78.767 Y170.011 E3.5439
G1 X78.560 Y169.970 E3.5533
G1 X78.550 Y169.967 E3.5538
G1 X77.493 Y169.643 E3.6030
G1 X77.486 Y169.641 E3.6033
G1 X77.344 Y169.586 E3.6101
G1 X77.337 Y169.583 E3.6104
G1 X76.303 Y169.093 E3.6614
G1 X76.293 Y169.087 E3.6619
G1 X76.086 Y168.958 E3.6727
G1 X76.076 Y168.951 E3.6733
G1 X74.963 Y168.063 E3.7367
G1 X74.951 Y168.052 E3.7374
G1 X74.722 Y167.798 E3.7527
G1 X74.711 Y167.785 E3.7534
G1 X74.061 Y166.778 E3.8068
G1 X74.055 Y166.768 E3.8073
G1 X73.949 Y166.555 E3.8179
G1 X73.944 Y166.544 E3.8184
G1 X73.509 Y165.342 E3.8753
G1 X73.505 Y165.331 E3.8759
G1 X73.450 Y165.099 E3.8865
G1 X73.448 Y165.087 E3.8870
G1 X73.300 Y163.878 E3.9413
G1 X73.300 Y163.872 E3.9415
G1 X73.292 Y163.745 E3.9472
G1 X73.292 Y163.738 E3.9475
G1 X73.288 Y144.885 E4.7870
G1 X73.289 Y144.869 E4.7877
G1 X73.334 Y144.563 E4.8015
G1 X73.338 Y144.548 E4.8022
G1 X73.706 Y143.331 E4.8588
G1 X73.710 Y143.319 E4.8593
G1 X73.803 Y143.103 E4.8698
G1 X73.808 Y143.092 E4.8703
G1 X74.419 Y142.019 E4.9253
G1 X74.427 Y142.007 E4.9259
G1 X74.594 Y141.787 E4.9382
G1 X74.603 Y141.777 E4.9389
G1 X75.658 Y140.709 E5.0057
G1 X75.671 Y140.697 E5.0065
G1 X75.803 Y140.602 E5.0138
G1 X75.951 Y140.494 F1800
G1 X75.966 Y140.485 F1800
G92 E0
G1 E-0.8000 F1800
; inner perimeter
G1 X76.655 Y164.456 F9000
G1 E0.0000 F1800
G92 E0
G1 X76.552 Y163.611 E0.0379 F1620
G1 X76.552 Y162.287 E0.0968
G1 X79.530 Y159.701 E0.2724
G1 X79.421 Y160.694 E0.3169
G1 X79.514 Y161.464 E0.3515
G1 X79.778 Y162.195 E0.3861
G1 X80.147 Y162.755 E0.4159
G1 X80.827 Y163.461 E0.4595
G1 X81.433 Y163.774 E0.4899
G1 X82.118 Y163.999 E0.5220
G1 X82.866 Y164.070 E0.5555
G1 X83.606 Y163.976 E0.5887
G1 X84.304 Y163.726 E0.6217
G1 X84.927 Y163.334 E0.6545
G1 X85.453 Y162.818 E0.6873
G1 X85.856 Y162.200 E0.7201
G1 X86.118 Y161.508 E0.7531
G1 X86.224 Y160.773 E0.7862
G1 X86.168 Y160.028 E0.8194
G1 X85.947 Y159.307 E0.8530
G1 X85.570 Y158.648 E0.8868
G1 X85.052 Y158.087 E0.9208
G1 X84.291 Y157.568 E0.9618
G1 X84.420 Y157.307 E0.9748
G1 X84.892 Y157.461 E0.9970
G1 X85.559 Y157.863 E1.0316
G1 X86.125 Y158.405 E1.0665
G1 X86.556 Y159.066 E1.1016
G1 X86.828 Y159.809 E1.1369
G1 X86.927 Y160.603 E1.1725
G1 X86.843 Y161.400 E1.2082
G1 X86.609 Y162.065 E1.2396
G1 X82.263 Y166.872 E1.5281
G1 X80.147 Y166.871 E1.6224
G1 X79.305 Y166.789 E1.6600
G1 X78.596 Y166.571 E1.6931
G1 X77.919 Y166.251 E1.7264
G1 X77.263 Y165.728 E1.7637
G1 X76.928 Y165.209 E1.7913
G1 X76.723 Y164.644 E1.8180
G1 X76.655 Y164.456 F1620
G92 E0
G1 E-0.8000 F1800
G1 X76.866 Y161.241 F9000
G1 E0.0000 F1800
G92 E0
G1 X76.551 Y161.221 E0.0140 F1620
G1 X76.549 Y149.363 E0.5421
G1 X76.860 Y149.339 E0.5560
G1 X77.686 Y154.852 E0.8041
G1 X76.891 Y161.043 E1.0821
G1 X76.866 Y161.241 F1620
G92 E0
G1 E-0.8000 F1800
G1 X81.915 Y151.860 F9000
G1 E0.0000 F1800
G92 E0
G1 X81.348 Y151.412 E0.0322 F1620
G1 X82.142 Y151.458 E0.0676
G1 X82.855 Y151.348 E0.0997
G1 X83.530 Y151.089 E0.1320
G1 X84.133 Y150.696 E0.1640
G1 X84.644 Y150.187 E0.1961
G1 X85.038 Y149.578 E0.2284
G1 X85.296 Y148.894 E0.2610
G1 X85.404 Y148.161 E0.2939
G1 X85.346 Y147.413 E0.3274
G1 X85.087 Y146.582 E0.3661
G1 X85.318 Y146.447 E0.3780
G1 X85.684 Y146.837 E0.4018
G1 X85.954 Y147.508 E0.4340
G1 X86.077 Y148.312 E0.4702
G1 X86.012 Y149.092 E0.5051
G1 X85.767 Y149.872 E0.5415
G1 X85.354 Y150.564 E0.5773
G1 X84.790 Y151.145 E0.6134
G1 X84.107 Y151.583 E0.6496
G1 X83.350 Y151.851 E0.6853
G1 X82.546 Y151.936 E0.7213
G1 X82.114 Y151.884 E0.7407
G1 X81.915 Y151.860 F1620
G92 E0
G1 E-0.8000 F1800
G1 X78.784 Y149.385 F9000
G1 E0.0000 F1800
G92 E0
G1 X76.549 Y147.617 E0.1269 F1620
G1 X76.548 Y145.194 E0.2348
G1 X76.758 Y144.500 E0.2671
G1 X77.116 Y143.872 E0.2993
G1 X77.733 Y143.247 E0.3384
G1 X78.298 Y142.965 E0.3665
G1 X78.984 Y142.806 E0.3979
G1 X79.907 Y142.702 E0.4392
G1 X81.803 Y142.702 E0.5237
G1 X83.831 Y144.863 E0.6556
G1 X83.685 Y145.085 E0.6674
G1 X82.823 Y144.767 E0.7083
G1 X82.045 Y144.671 E0.7432
G1 X81.261 Y144.756 E0.7784
G1 X80.530 Y145.015 E0.8129
G1 X79.962 Y145.355 E0.8424
G1 X79.230 Y146.095 E0.8887
G1 X78.894 Y146.709 E0.9199
G1 X78.662 Y147.439 E0.9540
G1 X78.602 Y148.221 E0.9889
G1 X78.753 Y149.187 E1.0324
G1 X78.784 Y149.385 F1620
G92 E0
G1 E-0.8000 F1800
G1 X86.972 Y143.008 F9000
G1 E0.0000 F1800
G92 E0
G1 X87.000 Y142.702 E0.0137 F1620
G1 X91.217 Y142.702 E0.2015
G1 X91.243 Y143.011 E0.2152
G1 X89.017 Y143.381 E0.3157
G1 X87.169 Y143.044 E0.3993
G1 X86.972 Y143.008 F1620
G92 E0
G1 E-0.8000 F1800
G1 X93.595 Y145.573 F9000
G1 E0.0000 F1800
G92 E0
G1 X96.670 Y142.702 E0.1874 F1620
G1 X97.930 Y142.702 E0.2434
G1 X98.759 Y142.824 E0.2807
G1 X99.506 Y143.118 E0.3165
G1 X100.052 Y143.495 E0.3460
G1 X100.721 Y144.186 E0.3889
G1 X101.075 Y144.849 E0.4224
G1 X101.280 Y145.537 E0.4543
G1 X101.343 Y146.378 E0.4918
G1 X101.342 Y148.076 E0.5675
G1 X97.349 Y151.022 E0.7884
G1 X97.793 Y149.844 E0.8445
G1 X97.899 Y149.126 E0.8769
G1 X97.844 Y148.396 E0.9094
G1 X97.641 Y147.726 E0.9406
G1 X97.330 Y147.100 E0.9717
G1 X96.660 Y146.435 E1.0138
G1 X96.147 Y146.073 E1.0417
G1 X95.431 Y145.792 E1.0760
G1 X94.677 Y145.681 E1.1099
G1 X93.915 Y145.746 E1.1439
G1 X93.731 Y145.806 E1.1526
G1 X93.696 Y145.746 E1.1556
G1 X93.595 Y145.573 F1620
G92 E0
G1 E-0.8000 F1800
G1 X91.290 Y149.723 F9000
G1 E0.0000 F1800
G92 E0
G1 X91.579 Y150.519 E0.0377 F1620
G1 X91.993 Y151.154 E0.0714
G1 X92.536 Y151.676 E0.1050
G1 X93.178 Y152.060 E0.1383
G1 X93.884 Y152.290 E0.1713
G1 X94.617 Y152.357 E0.2041
G1 X95.738 Y152.210 E0.2545
G1 X94.936 Y152.802 E0.2988
G1 X94.316 Y152.851 E0.3265
G1 X93.527 Y152.733 E0.3620
G1 X92.791 Y152.439 E0.3973
G1 X92.144 Y151.993 E0.4323
G1 X91.622 Y151.417 E0.4669
G1 X91.241 Y150.744 E0.5013
G1 X91.021 Y150.009 E0.5355
G1 X91.004 Y149.785 E0.5455
G1 X91.095 Y149.765 E0.5497
G1 X91.290 Y149.723 F1620
G92 E0
G1 E-0.8000 F1800
G1 X101.024 Y150.374 F9000
G1 E0.0000 F1800
G92 E0
G1 X101.342 Y150.391 E0.0142 F1620
G1 X101.342 Y159.280 E0.4100
G1 X101.024 Y159.296 E0.4242
G1 X100.548 Y154.841 E0.6237
G1 X101.003 Y150.573 E0.8148
G1 X101.024 Y150.374 F1620
G92 E0
G1 E-0.8000 F1800
G1 X98.655 Y159.673 F9000
G1 E0.0000 F1800
G92 E0
G1 X101.342 Y161.443 E0.1432 F1620
G1 X101.342 Y163.375 E0.2293
G1 X101.307 Y164.182 E0.2652
G1 X101.074 Y164.844 E0.2965
G1 X100.711 Y165.439 E0.3275
G1 X100.069 Y166.093 E0.3683
G1 X99.497 Y166.459 E0.3986
G1 X98.808 Y166.720 E0.4314
G1 X97.658 Y166.874 E0.4830
G1 X96.461 Y166.874 E0.5363
G1 X94.335 Y164.853 E0.6669
G1 X94.469 Y164.624 E0.6788
G1 X95.062 Y164.805 E0.7064
G1 X95.784 Y164.860 E0.7386
G1 X96.498 Y164.756 E0.7708
G1 X97.163 Y164.501 E0.8025
G1 X97.690 Y164.169 E0.8302
G1 X98.305 Y163.544 E0.8692
G1 X98.639 Y162.990 E0.8981
G1 X98.877 Y162.323 E0.9296
G1 X98.964 Y161.610 E0.9616
G1 X98.895 Y160.890 E0.9938
G1 X98.666 Y160.198 E1.0262
G1 X98.462 Y159.859 E1.0439
G1 X98.511 Y159.811 E1.0469
G1 X98.655 Y159.673 F1620
G92 E0
G1 E-0.8000 F1800
G1 X92.623 Y160.427 F9000
G1 E0.0000 F1800
G92 E0
G1 X92.461 Y160.922 E0.0232 F1620
G1 X92.394 Y161.671 E0.0567
G1 X92.500 Y162.412 E0.0900
G1 X92.705 Y162.942 E0.1153
G1 X92.482 Y163.092 E0.1273
G1 X92.307 Y162.926 E0.1380
G1 X92.111 Y162.327 E0.1661
G1 X92.038 Y161.562 E0.2003
G1 X92.134 Y160.813 E0.2339
G1 X92.309 Y160.319 E0.2572
G1 X92.434 Y160.362 E0.2631
G1 X92.623 Y160.427 F1620
G92 E0
G1 E-0.8000 F1800
; inner perimeter
G1 X76.244 Y164.554 F9000
G1 E0.0000 F1800
G92 E0
G1 X76.132 Y163.636 E0.0412 F1440
G1 X76.128 Y145.132 E0.8651
G1 X76.370 Y144.333 E0.9023
G1 X76.778 Y143.616 E0.9390
G1 X77.483 Y142.902 E0.9837
G1 X78.154 Y142.567 E1.0171
G1 X78.913 Y142.391 E1.0518
G1 X79.884 Y142.282 E1.0953
G1 X81.985 Y142.282 E1.1888
G1 X86.045 Y146.607 E1.4529
G1 X86.362 Y147.396 E1.4908
G1 X86.500 Y148.298 E1.5314
G1 X86.427 Y149.174 E1.5706
G1 X86.153 Y150.045 E1.6112
