; G-Code generated by Simplify3D(R) Version 3.0.2
; ríj 24, 2016 at 10:02:09 ODP.
; Settings Summary
;   processName,thick
;   applyToModels,motor_mount_25_19
;   profileName,Default (modified)
;   profileVersion,2015-08-14 23:46:21
;   baseProfile,
;   printMaterial,
;   printQuality,
;   printExtruders,
;   extruderName,Primary Extruder
;   extruderToolheadNumber,0
;   extruderDiameter,0.4
;   extruderAutoWidth,0
;   extruderWidth,0.42
;   extrusionMultiplier,1.02
;   extruderUseRetract,1
;   extruderRetractionDistance,0.8
;   extruderExtraRestartDistance,0
;   extruderRetractionZLift,0
;   extruderRetractionSpeed,1800
;   extruderUseCoasting,1
;   extruderCoastingDistance,0.2
;   extruderUseWipe,1
;   extruderWipeDistance,2
;   primaryExtruder,0
;   layerHeight,0.25
;   topSolidLayers,3
;   bottomSolidLayers,3
;   perimeterOutlines,3
;   printPerimetersInsideOut,1
;   startPointOption,3
;   startPointOriginX,0
;   startPointOriginY,0
;   startPointOriginZ,180
;   sequentialIslands,0
;   spiralVaseMode,0
;   firstLayerHeightPercentage,90
;   firstLayerWidthPercentage,100
;   firstLayerUnderspeed,0.5
;   useRaft,0
;   raftExtruder,0
;   raftLayers,3
;   raftOffset,3
;   raftSeparationDistance,0.14
;   raftInfill,85
;   disableRaftBaseLayers,0
;   useSkirt,1
;   skirtExtruder,0
;   skirtLayers,1
;   skirtOutlines,1
;   skirtOffset,2
;   usePrimePillar,0
;   primePillarExtruder,999
;   primePillarWidth,12
;   primePillarLocation,7
;   primePillarSpeedMultiplier,1
;   useOozeShield,0
;   oozeShieldExtruder,999
;   oozeShieldOffset,2
;   oozeShieldOutlines,1
;   oozeShieldSidewallShape,1
;   oozeShieldSidewallAngle,30
;   oozeShieldSpeedMultiplier,1
;   infillExtruder,0
;   internalInfillPattern,Rectilinear
;   externalInfillPattern,Rectilinear
;   infillPercentage,0
;   outlineOverlapPercentage,15
;   infillExtrusionWidthPercentage,100
;   minInfillLength,5
;   infillLayerInterval,1
;   infillAngles,45,-45
;   overlapInfillAngles,0
;   generateSupport,0
;   supportExtruder,0
;   supportInfillPercentage,30
;   supportExtraInflation,0
;   denseSupportLayers,0
;   denseSupportInfillPercentage,70
;   supportLayerInterval,1
;   supportHorizontalPartOffset,0.3
;   supportUpperSeparationLayers,1
;   supportLowerSeparationLayers,1
;   supportType,0
;   supportGridSpacing,4
;   maxOverhangAngle,45
;   supportAngles,0
;   temperatureName,Primary Extruder,Heated Bed
;   temperatureNumber,0,1
;   temperatureSetpointCount,1,1
;   temperatureSetpointLayers,1,1
;   temperatureSetpointTemperatures,225,60
;   temperatureStabilizeAtStartup,1,1
;   temperatureHeatedBed,0,1
;   temperatureRelayBetweenLayers,0,0
;   temperatureRelayBetweenLoops,0,0
;   fanLayers,1
;   fanSpeeds,0
;   blipFanToFullPower,1
;   adjustSpeedForCooling,1
;   minSpeedLayerTime,15
;   minCoolingSpeedSlowdown,20
;   increaseFanForCooling,0
;   minFanLayerTime,45
;   maxCoolingFanSpeed,100
;   increaseFanForBridging,0
;   bridgingFanSpeed,100
;   use5D,1
;   relativeEdistances,0
;   allowEaxisZeroing,1
;   independentExtruderAxes,0
;   includeM10123,0
;   stickySupport,1
;   applyToolheadOffsets,0
;   gcodeXoffset,0
;   gcodeYoffset,0
;   gcodeZoffset,0
;   overrideMachineDefinition,1
;   machineTypeOverride,0
;   strokeXoverride,200
;   strokeYoverride,200
;   strokeZoverride,185
;   originOffsetXoverride,0
;   originOffsetYoverride,0
;   originOffsetZoverride,0
;   homeXdirOverride,-1
;   homeYdirOverride,-1
;   homeZdirOverride,-1
;   flipXoverride,1
;   flipYoverride,-1
;   flipZoverride,1
;   toolheadOffsets,0,0|0,0|0,0|0,0|0,0|0,0
;   overrideFirmwareConfiguration,1
;   firmwareTypeOverride,RepRap (Marlin/Repetier/Sprinter)
;   GPXconfigOverride,r2
;   baudRateOverride,115200
;   overridePrinterModels,0
;   printerModelsOverride
;   startingGcode,G28,
;   layerChangeGcode,
;   retractionGcode,
;   toolChangeGcode,
;   endingGcode,M104 S0 ; turn off extruder,M140 S0 ; turn off bed,G28 X0 ; home X axis,M84 ; disable motors,M107 ; turn off fan
;   createX3G,0
;   celebration,0
;   celebrationSong,Random Song
;   createMB5G,0
;   postProcessing,
;   defaultSpeed,3600
;   outlineUnderspeed,0.7
;   solidInfillUnderspeed,0.8
;   supportUnderspeed,0.8
;   rapidXYspeed,9000
;   rapidZspeed,1002
;   minBridgingArea,5
;   bridgingExtraInflation,0
;   bridgingExtrusionMultiplier,1
;   bridgingSpeedMultiplier,0.3
;   filamentDiameter,1.75
;   filamentPricePerKg,1000
;   filamentDensity,1.25
;   useMinPrintHeight,0
;   minPrintHeight,196
;   useMaxPrintHeight,0
;   maxPrintHeight,392
;   useDiaphragm,0
;   diaphragmLayerInterval,20
;   robustSlicing,1
;   mergeAllIntoSolid,0
;   onlyRetractWhenCrossingOutline,0
;   retractBetweenLayers,0
;   useRetractionMinTravel,0
;   retractionMinTravel,3
;   retractWhileWiping,0
;   onlyWipeOutlines,1
;   avoidCrossingOutline,0
;   maxMovementDetourFactor,3
;   toolChangeRetractionDistance,0
;   toolChangeExtraRestartDistance,0
;   toolChangeRetractionSpeed,360
;   allowThinWallGapFill,1
;   thinWallAllowedOverlapPercentage,10
;   horizontalSizeCompensation,0
G90
M82
M106 S0
M140 S60
M190 S60
M104 S225 T0
M109 S225 T0
G28
G92 E0
G1 E-0.8000 F1800
G1 Z0.225 F1002
; layer 1, Z = 0.225
T0
; tool H0.250 W0.420
; skirt
G1 X45.413 Y139.849 F9000
G1 E0.0000 F540
G92 E0
G1 X45.425 Y139.845 E0.0006 F1800
G1 X46.472 Y139.602 E0.0484
G1 X46.478 Y139.601 E0.0487
G1 X46.599 Y139.580 E0.0542
G1 X46.605 Y139.580 E0.0544
G1 X47.767 Y139.450 E0.1065
G1 X47.772 Y139.449 E0.1067
G1 X47.890 Y139.442 E0.1120
G1 X47.895 Y139.442 E0.1122
G1 X66.189 Y139.442 E0.9268
G1 X66.197 Y139.443 E0.9271
G1 X66.350 Y139.454 E0.9340
G1 X66.357 Y139.455 E0.9343
G1 X67.577 Y139.634 E0.9892
G1 X67.589 Y139.636 E0.9897
G1 X67.823 Y139.698 E1.0005
G1 X67.834 Y139.702 E1.0010
G1 X69.031 Y140.174 E1.0583
G1 X69.042 Y140.179 E1.0588
G1 X69.255 Y140.292 E1.0696
G1 X69.265 Y140.299 E1.0701
G1 X70.179 Y140.930 E1.1196
G1 X70.187 Y140.936 E1.1200
G1 X70.344 Y141.069 E1.1292
G1 X70.352 Y141.076 E1.1297
G1 X71.372 Y142.128 E1.1949
G1 X71.382 Y142.139 E1.1956
G1 X71.556 Y142.378 E1.2087
G1 X71.564 Y142.390 E1.2094
G1 X72.157 Y143.502 E1.2655
G1 X72.162 Y143.512 E1.2660
G1 X72.242 Y143.708 E1.2754
G1 X72.246 Y143.718 E1.2759
G1 X72.574 Y144.826 E1.3273
G1 X72.577 Y144.837 E1.3278
G1 X72.618 Y145.058 E1.3379
G1 X72.619 Y145.069 E1.3384
G1 X72.705 Y146.213 E1.3894
G1 X72.705 Y146.217 E1.3896
G1 X72.708 Y146.295 E1.3931
G1 X72.708 Y146.299 E1.3933
G1 X72.707 Y163.420 E2.1556
G1 X72.707 Y163.422 E2.1557
G1 X72.706 Y163.467 E2.1577
G1 X72.706 Y163.469 E2.1578
G1 X72.656 Y164.633 E2.2097
G1 X72.655 Y164.648 E2.2104
G1 X72.595 Y164.955 E2.2243
G1 X72.591 Y164.970 E2.2250
G1 X72.181 Y166.135 E2.2800
G1 X72.176 Y166.145 E2.2805
G1 X72.082 Y166.343 E2.2902
G1 X72.077 Y166.353 E2.2907
G1 X71.475 Y167.342 E2.3423
G1 X71.468 Y167.352 E2.3428
G1 X71.319 Y167.543 E2.3536
G1 X71.311 Y167.552 E2.3541
G1 X70.333 Y168.547 E2.4163
G1 X70.324 Y168.555 E2.4168
G1 X70.140 Y168.705 E2.4274
G1 X70.130 Y168.712 E2.4279
G1 X69.175 Y169.322 E2.4784
G1 X69.165 Y169.328 E2.4789
G1 X68.971 Y169.426 E2.4886
G1 X68.961 Y169.430 E2.4890
G1 X67.843 Y169.853 E2.5423
G1 X67.832 Y169.857 E2.5428
G1 X67.598 Y169.916 E2.5535
G1 X67.586 Y169.918 E2.5541
G1 X66.058 Y170.124 E2.6227
G1 X66.051 Y170.124 E2.6230
G1 X65.911 Y170.134 E2.6293
G1 X65.904 Y170.134 E2.6296
G1 X58.948 Y170.133 E2.9393
G1 X58.887 Y170.158 E2.9423
G1 X55.147 Y170.157 E3.1088
G1 X55.088 Y170.132 E3.1117
G1 X48.150 Y170.131 E3.4206
G1 X48.145 Y170.131 E3.4208
G1 X48.042 Y170.126 E3.4254
G1 X48.037 Y170.126 E3.4256
G1 X46.883 Y170.013 E3.4773
G1 X46.873 Y170.011 E3.4777
G1 X46.666 Y169.970 E3.4871
G1 X46.655 Y169.967 E3.4876
G1 X45.599 Y169.643 E3.5368
G1 X45.592 Y169.641 E3.5371
G1 X45.450 Y169.586 E3.5439
G1 X45.443 Y169.583 E3.5442
G1 X44.409 Y169.093 E3.5952
G1 X44.398 Y169.087 E3.5957
G1 X44.192 Y168.958 E3.6066
G1 X44.182 Y168.951 E3.6071
G1 X43.069 Y168.063 E3.6705
G1 X43.056 Y168.052 E3.6713
G1 X42.827 Y167.798 E3.6865
G1 X42.817 Y167.785 E3.6872
G1 X42.166 Y166.778 E3.7406
G1 X42.160 Y166.768 E3.7411
G1 X42.055 Y166.555 E3.7517
G1 X42.050 Y166.544 E3.7523
G1 X41.614 Y165.342 E3.8092
G1 X41.611 Y165.331 E3.8097
G1 X41.555 Y165.098 E3.8203
G1 X41.553 Y165.087 E3.8209
G1 X41.406 Y163.878 E3.8751
G1 X41.405 Y163.872 E3.8754
G1 X41.398 Y163.745 E3.8810
G1 X41.397 Y163.738 E3.8813
G1 X41.393 Y144.885 E4.7208
G1 X41.395 Y144.869 E4.7215
G1 X41.440 Y144.563 E4.7353
G1 X41.443 Y144.548 E4.7360
G1 X41.811 Y143.331 E4.7926
G1 X41.815 Y143.320 E4.7931
G1 X41.908 Y143.103 E4.8036
G1 X41.914 Y143.092 E4.8041
G1 X42.525 Y142.019 E4.8592
G1 X42.532 Y142.007 E4.8598
G1 X42.699 Y141.787 E4.8721
G1 X42.708 Y141.777 E4.8727
G1 X43.764 Y140.709 E4.9395
G1 X43.777 Y140.697 E4.9403
G1 X44.057 Y140.494 E4.9557
G1 X44.072 Y140.485 E4.9565
G1 X45.168 Y139.938 E5.0111
G1 X45.180 Y139.933 E5.0116
G1 X45.225 Y139.917 E5.0137
G1 X45.413 Y139.849 F1800
G92 E0
G1 E-0.8000 F1800
; inner perimeter
G1 X44.657 Y162.579 F9000
G1 E0.0000 F1800
G92 E0
G1 X44.657 Y160.937 E0.0731 F1620
G1 X44.654 Y149.366 E0.5884
G1 X44.965 Y149.342 E0.6023
G1 X45.510 Y152.964 E0.7653
G1 X45.791 Y154.852 E0.8503
G1 X45.021 Y160.857 E1.1199
G1 X46.057 Y160.629 E1.1671
G1 X46.163 Y160.894 E1.1798
G1 X45.804 Y161.112 E1.1985
G1 X45.244 Y161.658 E1.2333
G1 X44.765 Y162.411 E1.2731
G1 X44.657 Y162.579 F1620
G92 E0
G1 E-0.8000 F1800
G1 X49.354 Y160.704 F9000
G1 E0.0000 F1800
G92 E0
G1 X49.482 Y160.442 E0.0130 F1620
G1 X49.953 Y160.596 E0.0350
G1 X50.620 Y160.998 E0.0697
G1 X51.186 Y161.540 E0.1046
G1 X51.617 Y162.201 E0.1397
G1 X51.889 Y162.944 E0.1749
G1 X51.987 Y163.738 E0.2106
G1 X51.903 Y164.535 E0.2463
G1 X51.083 Y166.872 E0.3565
G1 X49.349 Y166.872 E0.4338
G1 X49.989 Y166.470 E0.4674
G1 X50.515 Y165.953 E0.5002
G1 X50.918 Y165.335 E0.5330
G1 X51.179 Y164.644 E0.5660
G1 X51.286 Y163.908 E0.5991
G1 X51.229 Y163.161 E0.6324
G1 X51.009 Y162.441 E0.6660
G1 X50.631 Y161.782 E0.6998
G1 X50.113 Y161.221 E0.7338
G1 X49.519 Y160.816 E0.7658
G1 X49.354 Y160.704 F1620
G92 E0
G1 E-0.8000 F1800
G1 X50.651 Y151.936 F9000
G1 E0.0000 F1800
G92 E0
G1 X50.021 Y151.860 E0.0283 F1620
G1 X49.472 Y151.427 E0.0594
G1 X50.246 Y151.472 E0.0939
G1 X50.962 Y151.361 E0.1262
G1 X51.640 Y151.101 E0.1585
G1 X52.247 Y150.707 E0.1907
G1 X52.759 Y150.195 E0.2230
G1 X53.155 Y149.583 E0.2554
G1 X53.415 Y148.896 E0.2881
G1 X53.522 Y148.160 E0.3213
G1 X53.464 Y147.408 E0.3548
G1 X53.214 Y146.605 E0.3923
G1 X53.445 Y146.470 E0.4042
G1 X53.790 Y146.837 E0.4266
G1 X54.060 Y147.508 E0.4588
G1 X54.183 Y148.312 E0.4951
G1 X54.118 Y149.092 E0.5299
G1 X53.872 Y149.872 E0.5663
G1 X53.460 Y150.564 E0.6022
G1 X52.896 Y151.145 E0.6382
G1 X52.212 Y151.583 E0.6744
G1 X51.455 Y151.851 E0.7102
G1 X50.850 Y151.915 E0.7372
G1 X50.651 Y151.936 F1620
G92 E0
G1 E-0.8000 F1800
G1 X46.871 Y149.370 F9000
G1 E0.0000 F1800
G92 E0
G1 X44.654 Y147.617 E0.1258 F1620
G1 X44.654 Y145.194 E0.2337
G1 X44.864 Y144.500 E0.2660
G1 X45.221 Y143.872 E0.2982
G1 X45.838 Y143.247 E0.3373
G1 X46.403 Y142.965 E0.3654
G1 X47.090 Y142.806 E0.3968
G1 X48.013 Y142.702 E0.4382
G1 X49.909 Y142.702 E0.5226
G1 X51.913 Y144.837 E0.6529
G1 X51.766 Y145.059 E0.6648
G1 X50.929 Y144.750 E0.7045
G1 X50.148 Y144.654 E0.7395
G1 X49.362 Y144.740 E0.7748
G1 X48.626 Y145.000 E0.8095
G1 X48.057 Y145.341 E0.8390
G1 X47.321 Y146.084 E0.8856
G1 X46.983 Y146.702 E0.9169
G1 X46.750 Y147.436 E0.9512
G1 X46.690 Y148.221 E0.9863
G1 X46.840 Y149.172 E1.0292
G1 X46.871 Y149.370 F1620
G92 E0
G1 E-0.8000 F1800
G1 X55.078 Y143.008 F9000
G1 E0.0000 F1800
G92 E0
G1 X55.105 Y142.702 E0.0137 F1620
G1 X59.323 Y142.702 E0.2015
G1 X59.348 Y143.011 E0.2152
G1 X57.123 Y143.381 E0.3157
G1 X55.274 Y143.044 E0.3993
G1 X55.078 Y143.008 F1620
G92 E0
G1 E-0.8000 F1800
G1 X63.603 Y143.547 F9000
G1 E0.0000 F1800
G92 E0
G1 X64.198 Y142.702 E0.0460 F1620
G1 X65.241 Y142.702 E0.0925
G1 X65.286 Y142.986 E0.1052
G1 X64.646 Y143.193 E0.1352
G1 X64.007 Y143.579 E0.1684
G1 X63.836 Y143.745 E0.1791
G1 X63.755 Y143.676 E0.1838
G1 X63.603 Y143.547 F1620
G92 E0
G1 E-0.8000 F1800
G1 X63.694 Y148.432 F9000
G1 E0.0000 F1800
G92 E0
G1 X64.056 Y148.779 E0.0223 F1620
G1 X63.860 Y149.019 E0.0361
G1 X63.671 Y148.888 E0.0463
G1 X63.462 Y148.658 E0.0602
G1 X63.551 Y148.571 E0.0657
G1 X63.694 Y148.431 F1620
G92 E0
G1 E-0.8000 F1800
G1 X64.096 Y148.787 F9000
G1 E0.0000 F1800
G92 E0
G1 X64.637 Y149.110 E0.0280 F1620
G1 X65.324 Y149.334 E0.0602
G1 X66.038 Y149.399 E0.0922
G1 X66.743 Y149.307 E0.1238
G1 X67.407 Y149.067 E0.1553
G1 X68.001 Y148.691 E0.1866
G1 X68.499 Y148.199 E0.2177
G1 X68.882 Y147.611 E0.2490
G1 X69.172 Y146.843 E0.2855
G1 X69.448 Y146.894 E0.2980
G1 X69.448 Y148.947 E0.3894
G1 X66.668 Y149.681 E0.5175
G1 X66.170 Y149.720 E0.5397
G1 X66.170 Y149.720 E0.5397
G1 X65.843 Y149.746 E0.5543
G1 X65.382 Y149.677 E0.5751
G1 X65.382 Y149.677 E0.5751
G1 X65.053 Y149.628 E0.5899
G1 X64.505 Y149.410 E0.6161
G1 X64.505 Y149.410 E0.6161
G1 X64.317 Y149.335 E0.6251
G1 X63.920 Y149.061 E0.6466
G1 X63.988 Y148.955 E0.6522
G1 X64.096 Y148.787 F1620
G92 E0
G1 E-0.8000 F1800
G1 X69.130 Y150.374 F9000
G1 E0.0000 F1800
G92 E0
G1 X69.448 Y150.391 E0.0142 F1620
G1 X69.447 Y159.280 E0.4100
G1 X69.129 Y159.297 E0.4242
G1 X68.654 Y154.841 E0.6237
G1 X69.108 Y150.573 E0.8148
G1 X69.130 Y150.374 F1620
G92 E0
G1 E-0.8000 F1800
G1 X66.854 Y159.734 F9000
G1 E0.0000 F1800
G92 E0
G1 X69.447 Y161.442 E0.1383 F1620
G1 X69.447 Y163.375 E0.2243
G1 X69.413 Y164.182 E0.2603
G1 X69.179 Y164.844 E0.2916
G1 X68.817 Y165.439 E0.3226
G1 X68.174 Y166.093 E0.3634
G1 X67.602 Y166.459 E0.3936
G1 X66.914 Y166.720 E0.4264
G1 X65.764 Y166.874 E0.4781
G1 X64.566 Y166.874 E0.5314
G1 X62.514 Y164.924 E0.6575
G1 X62.649 Y164.694 E0.6693
G1 X63.161 Y164.851 E0.6932
G1 X63.894 Y164.906 E0.7259
G1 X64.616 Y164.801 E0.7584
G1 X65.290 Y164.543 E0.7905
G1 X65.825 Y164.206 E0.8187
G1 X66.450 Y163.572 E0.8583
G1 X66.789 Y163.009 E0.8876
G1 X67.029 Y162.333 E0.9195
G1 X67.119 Y161.610 E0.9519
G1 X67.048 Y160.879 E0.9847
G1 X66.815 Y160.177 E1.0176
G1 X66.660 Y159.920 E1.0309
G1 X66.709 Y159.873 E1.0340
G1 X66.854 Y159.734 F1620
G92 E0
G1 E-0.8000 F1800
; inner perimeter
G1 X44.349 Y164.554 F9000
G1 E0.0000 F1800
G92 E0
G1 X44.237 Y163.636 E0.0412 F1440
G1 X44.234 Y145.132 E0.8651
G1 X44.475 Y144.333 E0.9023
G1 X44.883 Y143.616 E0.9390
G1 X45.589 Y142.902 E0.9837
G1 X46.260 Y142.567 E1.0171
G1 X47.019 Y142.391 E1.0518
G1 X47.989 Y142.282 E1.0953
G1 X50.090 Y142.282 E1.1888
G1 X54.150 Y146.607 E1.4529
G1 X54.467 Y147.396 E1.4908
G1 X54.605 Y148.298 E1.5314
G1 X54.532 Y149.174 E1.5706
G1 X54.258 Y150.045 E1.6112
G1 X53.795 Y150.821 E1.6514
G1 X53.163 Y151.473 E1.6919
G1 X52.398 Y151.963 E1.7323
G1 X51.548 Y152.263 E1.7725
G1 X50.648 Y152.359 E1.8128
G1 X49.853 Y152.263 E1.8484
G1 X45.286 Y148.653 E2.1076
G1 X45.925 Y152.902 E2.2990
G1 X46.215 Y154.847 E2.3865
G1 X45.513 Y160.319 E2.6322
G1 X47.103 Y159.970 E2.7046
G1 X48.437 Y159.860 E2.7642
G1 X49.306 Y159.942 E2.8031
G1 X50.129 Y160.212 E2.8417
G1 X50.877 Y160.662 E2.8805
G1 X51.511 Y161.270 E2.9197
G1 X51.995 Y162.011 E2.9591
G1 X52.300 Y162.844 E2.9986
G1 X52.410 Y163.734 E3.0385
G1 X52.316 Y164.628 E3.0785
G1 X51.569 Y166.757 E3.1790
G1 X63.845 Y166.768 E3.7256
G1 X60.046 Y163.157 E3.9590
G1 X59.803 Y162.413 E3.9939
G1 X59.721 Y161.555 E4.0323
G1 X59.828 Y160.714 E4.0700
G1 X60.112 Y159.919 E4.1076
G1 X60.557 Y159.203 E4.1451
G1 X61.150 Y158.595 E4.1829
G1 X61.854 Y158.132 E4.2205
G1 X62.644 Y157.829 E4.2581
G1 X63.826 Y157.667 E4.3113
