; G-Code generated by Simplify3D(R) Version 3.0.2
; ríj 24, 2016 at 10:02:33 ODP.
; Settings Summary
;   processName,thick
;   applyToModels,motor_mount_25_25
;   profileName,Default (modified)
;   profileVersion,2015-08-14 23:46:21
;   baseProfile,
;   printMaterial,
;   printQuality,
;   printExtruders,
;   extruderName,Primary Extruder
;   extruderToolheadNumber,0
;   extruderDiameter,0.4
;   extruderAutoWidth,0
;   extruderWidth,0.42
;   extrusionMultiplier,1.02
;   extruderUseRetract,1
;   extruderRetractionDistance,0.8
;   extruderExtraRestartDistance,0
;   extruderRetractionZLift,0
;   extruderRetractionSpeed,1800
;   extruderUseCoasting,1
;   extruderCoastingDistance,0.2
;   extruderUseWipe,1
;   extruderWipeDistance,2
;   primaryExtruder,0
;   layerHeight,0.25
;   topSolidLayers,3
;   bottomSolidLayers,3
;   perimeterOutlines,3
;   printPerimetersInsideOut,1
;   startPointOption,3
;   startPointOriginX,0
;   startPointOriginY,0
;   startPointOriginZ,180
;   sequentialIslands,0
;   spiralVaseMode,0
;   firstLayerHeightPercentage,90
;   firstLayerWidthPercentage,100
;   firstLayerUnderspeed,0.5
;   useRaft,0
;   raftExtruder,0
;   raftLayers,3
;   raftOffset,3
;   raftSeparationDistance,0.14
;   raftInfill,85
;   disableRaftBaseLayers,0
;   useSkirt,1
;   skirtExtruder,0
;   skirtLayers,1
;   skirtOutlines,1
;   skirtOffset,2
;   usePrimePillar,0
;   primePillarExtruder,999
;   primePillarWidth,12
;   primePillarLocation,7
;   primePillarSpeedMultiplier,1
;   useOozeShield,0
;   oozeShieldExtruder,999
;   oozeShieldOffset,2
;   oozeShieldOutlines,1
;   oozeShieldSidewallShape,1
;   oozeShieldSidewallAngle,30
;   oozeShieldSpeedMultiplier,1
;   infillExtruder,0
;   internalInfillPattern,Rectilinear
;   externalInfillPattern,Rectilinear
;   infillPercentage,0
;   outlineOverlapPercentage,15
;   infillExtrusionWidthPercentage,100
;   minInfillLength,5
;   infillLayerInterval,1
;   infillAngles,45,-45
;   overlapInfillAngles,0
;   generateSupport,0
;   supportExtruder,0
;   supportInfillPercentage,30
;   supportExtraInflation,0
;   denseSupportLayers,0
;   denseSupportInfillPercentage,70
;   supportLayerInterval,1
;   supportHorizontalPartOffset,0.3
;   supportUpperSeparationLayers,1
;   supportLowerSeparationLayers,1
;   supportType,0
;   supportGridSpacing,4
;   maxOverhangAngle,45
;   supportAngles,0
;   temperatureName,Primary Extruder,Heated Bed
;   temperatureNumber,0,1
;   temperatureSetpointCount,1,1
;   temperatureSetpointLayers,1,1
;   temperatureSetpointTemperatures,225,60
;   temperatureStabilizeAtStartup,1,1
;   temperatureHeatedBed,0,1
;   temperatureRelayBetweenLayers,0,0
;   temperatureRelayBetweenLoops,0,0
;   fanLayers,1
;   fanSpeeds,0
;   blipFanToFullPower,1
;   adjustSpeedForCooling,1
;   minSpeedLayerTime,15
;   minCoolingSpeedSlowdown,20
;   increaseFanForCooling,0
;   minFanLayerTime,45
;   maxCoolingFanSpeed,100
;   increaseFanForBridging,0
;   bridgingFanSpeed,100
;   use5D,1
;   relativeEdistances,0
;   allowEaxisZeroing,1
;   independentExtruderAxes,0
;   includeM10123,0
;   stickySupport,1
;   applyToolheadOffsets,0
;   gcodeXoffset,0
;   gcodeYoffset,0
;   gcodeZoffset,0
;   overrideMachineDefinition,1
;   machineTypeOverride,0
;   strokeXoverride,200
;   strokeYoverride,200
;   strokeZoverride,185
;   originOffsetXoverride,0
;   originOffsetYoverride,0
;   originOffsetZoverride,0
;   homeXdirOverride,-1
;   homeYdirOverride,-1
;   homeZdirOverride,-1
;   flipXoverride,1
;   flipYoverride,-1
;   flipZoverride,1
;   toolheadOffsets,0,0|0,0|0,0|0,0|0,0|0,0
;   overrideFirmwareConfiguration,1
;   firmwareTypeOverride,RepRap (Marlin/Repetier/Sprinter)
;   GPXconfigOverride,r2
;   baudRateOverride,115200
;   overridePrinterModels,0
;   printerModelsOverride
;   startingGcode,G28,
;   layerChangeGcode,
;   retractionGcode,
;   toolChangeGcode,
;   endingGcode,M104 S0 ; turn off extruder,M140 S0 ; turn off bed,G28 X0 ; home X axis,M84 ; disable motors,M107 ; turn off fan
;   createX3G,0
;   celebration,0
;   celebrationSong,Random Song
;   createMB5G,0
;   postProcessing,
;   defaultSpeed,3600
;   outlineUnderspeed,0.7
;   solidInfillUnderspeed,0.8
;   supportUnderspeed,0.8
;   rapidXYspeed,9000
;   rapidZspeed,1002
;   minBridgingArea,5
;   bridgingExtraInflation,0
;   bridgingExtrusionMultiplier,1
;   bridgingSpeedMultiplier,0.3
;   filamentDiameter,1.75
;   filamentPricePerKg,1000
;   filamentDensity,1.25
;   useMinPrintHeight,0
;   minPrintHeight,196
;   useMaxPrintHeight,0
;   maxPrintHeight,392
;   useDiaphragm,0
;   diaphragmLayerInterval,20
;   robustSlicing,1
;   mergeAllIntoSolid,0
;   onlyRetractWhenCrossingOutline,0
;   retractBetweenLayers,0
;   useRetractionMinTravel,0
;   retractionMinTravel,3
;   retractWhileWiping,0
;   onlyWipeOutlines,1
;   avoidCrossingOutline,0
;   maxMovementDetourFactor,3
;   toolChangeRetractionDistance,0
;   toolChangeExtraRestartDistance,0
;   toolChangeRetractionSpeed,360
;   allowThinWallGapFill,1
;   thinWallAllowedOverlapPercentage,10
;   horizontalSizeCompensation,0
G90
M82
M106 S0
M140 S60
M190 S60
M104 S225 T0
M109 S225 T0
G28
G92 E0
G1 E-0.8000 F1800
G1 Z0.225 F1002
; layer 1, Z = 0.225
T0
; tool H0.250 W0.420
; skirt
G1 X107.566 Y140.697 F9000
G1 E0.0000 F540
G92 E0
G1 X107.846 Y140.494 E0.0154 F1800
G1 X107.861 Y140.485 E0.0162
G1 X108.957 Y139.938 E0.0708
G1 X108.969 Y139.933 E0.0713
G1 X109.202 Y139.849 E0.0823
G1 X109.214 Y139.845 E0.0829
G1 X110.261 Y139.602 E0.1308
G1 X110.267 Y139.601 E0.1310
G1 X110.388 Y139.580 E0.1365
G1 X110.394 Y139.580 E0.1368
G1 X111.556 Y139.450 E0.1888
G1 X111.561 Y139.449 E0.1891
G1 X111.679 Y139.442 E0.1943
G1 X111.684 Y139.442 E0.1946
G1 X129.978 Y139.442 E1.0091
G1 X129.986 Y139.443 E1.0095
G1 X130.139 Y139.454 E1.0163
G1 X130.146 Y139.455 E1.0166
G1 X131.366 Y139.634 E1.0715
G1 X131.378 Y139.636 E1.0721
G1 X131.612 Y139.698 E1.0828
G1 X131.623 Y139.702 E1.0834
G1 X132.820 Y140.174 E1.1406
G1 X132.831 Y140.179 E1.1412
G1 X133.044 Y140.292 E1.1519
G1 X133.054 Y140.299 E1.1525
G1 X133.968 Y140.930 E1.2019
G1 X133.976 Y140.936 E1.2024
G1 X134.134 Y141.069 E1.2116
G1 X134.141 Y141.076 E1.2120
G1 X135.162 Y142.128 E1.2773
G1 X135.171 Y142.139 E1.2779
G1 X135.345 Y142.378 E1.2911
G1 X135.353 Y142.390 E1.2917
G1 X135.946 Y143.502 E1.3478
G1 X135.951 Y143.512 E1.3483
G1 X136.031 Y143.708 E1.3578
G1 X136.035 Y143.718 E1.3582
G1 X136.364 Y144.826 E1.4097
G1 X136.366 Y144.837 E1.4102
G1 X136.407 Y145.058 E1.4202
G1 X136.408 Y145.069 E1.4207
G1 X136.494 Y146.213 E1.4718
G1 X136.494 Y146.217 E1.4719
G1 X136.497 Y146.295 E1.4754
G1 X136.497 Y146.299 E1.4756
G1 X136.496 Y163.420 E2.2380
G1 X136.496 Y163.422 E2.2381
G1 X136.495 Y163.467 E2.2401
G1 X136.495 Y163.469 E2.2402
G1 X136.445 Y164.633 E2.2920
G1 X136.444 Y164.648 E2.2927
G1 X136.384 Y164.955 E2.3066
G1 X136.380 Y164.970 E2.3073
G1 X135.970 Y166.135 E2.3623
G1 X135.966 Y166.145 E2.3628
G1 X135.872 Y166.343 E2.3726
G1 X135.866 Y166.353 E2.3731
G1 X135.264 Y167.342 E2.4246
G1 X135.257 Y167.352 E2.4251
G1 X135.108 Y167.543 E2.4359
G1 X135.100 Y167.552 E2.4365
G1 X134.122 Y168.547 E2.4986
G1 X134.113 Y168.555 E2.4991
G1 X133.929 Y168.705 E2.5097
G1 X133.919 Y168.712 E2.5102
G1 X132.964 Y169.322 E2.5607
G1 X132.955 Y169.328 E2.5612
G1 X132.760 Y169.426 E2.5709
G1 X132.750 Y169.430 E2.5714
G1 X131.632 Y169.853 E2.6246
G1 X131.621 Y169.857 E2.6251
G1 X131.387 Y169.916 E2.6359
G1 X131.375 Y169.918 E2.6364
G1 X129.847 Y170.124 E2.7051
G1 X129.840 Y170.124 E2.7054
G1 X129.700 Y170.134 E2.7116
G1 X129.693 Y170.134 E2.7119
G1 X122.737 Y170.133 E3.0217
G1 X122.676 Y170.158 E3.0246
G1 X118.936 Y170.157 E3.1912
G1 X118.877 Y170.132 E3.1940
G1 X111.939 Y170.131 E3.5029
G1 X111.934 Y170.131 E3.5032
G1 X111.831 Y170.126 E3.5077
G1 X111.826 Y170.126 E3.5080
G1 X110.672 Y170.013 E3.5596
G1 X110.662 Y170.011 E3.5601
G1 X110.455 Y169.970 E3.5695
G1 X110.444 Y169.967 E3.5699
G1 X109.388 Y169.643 E3.6191
G1 X109.381 Y169.641 E3.6195
G1 X109.239 Y169.586 E3.6262
G1 X109.232 Y169.583 E3.6266
G1 X108.198 Y169.093 E3.6775
G1 X108.187 Y169.087 E3.6781
G1 X107.981 Y168.958 E3.6889
G1 X107.971 Y168.951 E3.6894
G1 X106.858 Y168.063 E3.7528
G1 X106.845 Y168.052 E3.7536
G1 X106.616 Y167.798 E3.7688
G1 X106.606 Y167.785 E3.7696
G1 X105.955 Y166.778 E3.8229
G1 X105.949 Y166.768 E3.8235
G1 X105.844 Y166.555 E3.8341
G1 X105.839 Y166.544 E3.8346
G1 X105.403 Y165.342 E3.8915
G1 X105.400 Y165.331 E3.8920
G1 X105.344 Y165.098 E3.9027
G1 X105.342 Y165.087 E3.9032
G1 X105.195 Y163.878 E3.9574
G1 X105.194 Y163.872 E3.9577
G1 X105.187 Y163.745 E3.9634
G1 X105.186 Y163.738 E3.9637
G1 X105.183 Y144.885 E4.8032
G1 X105.184 Y144.869 E4.8038
G1 X105.229 Y144.563 E4.8176
G1 X105.232 Y144.548 E4.8183
G1 X105.600 Y143.331 E4.8749
G1 X105.604 Y143.319 E4.8755
G1 X105.697 Y143.103 E4.8860
G1 X105.703 Y143.092 E4.8865
G1 X106.314 Y142.019 E4.9415
G1 X106.321 Y142.007 E4.9421
G1 X106.488 Y141.787 E4.9544
G1 X106.497 Y141.777 E4.9550
G1 X107.424 Y140.839 E5.0137
G1 X107.553 Y140.709 F1800
G1 X107.566 Y140.697 F1800
G92 E0
G1 E-0.8000 F1800
; inner perimeter
G1 X108.446 Y163.344 F9000
G1 E0.0000 F1800
G92 E0
G1 X108.446 Y161.143 E0.0980 F1620
G1 X108.443 Y149.366 E0.6224
G1 X108.754 Y149.342 E0.6363
G1 X109.299 Y152.964 E0.7993
G1 X109.580 Y154.852 E0.8843
G1 X108.788 Y161.030 E1.1617
G1 X110.423 Y160.491 E1.2384
G1 X110.548 Y160.764 E1.2517
G1 X109.976 Y161.111 E1.2815
G1 X109.450 Y161.624 E1.3143
G1 X109.054 Y162.244 E1.3470
G1 X108.811 Y162.937 E1.3797
G1 X108.764 Y163.361 E1.3987
G1 X108.646 Y163.355 E1.4040
G1 X108.446 Y163.344 F1620
G92 E0
G1 E-0.8000 F1800
G1 X112.102 Y160.450 F9000
G1 E0.0000 F1800
G92 E0
G1 X112.111 Y160.150 E0.0134 F1620
G1 X112.454 Y160.122 E0.0287
G1 X113.239 Y160.196 E0.0638
G1 X114.757 Y160.693 E0.1349
G1 X115.636 Y162.041 E0.2066
G1 X115.908 Y162.784 E0.2418
G1 X116.008 Y163.579 E0.2775
G1 X115.924 Y164.375 E0.3131
G1 X115.665 Y165.112 E0.3479
G1 X114.476 Y166.872 E0.4425
G1 X113.166 Y166.872 E0.5008
G1 X113.118 Y166.593 E0.5134
G1 X113.324 Y166.519 E0.5231
G1 X113.912 Y166.151 E0.5540
G1 X114.407 Y165.664 E0.5849
G1 X114.785 Y165.083 E0.6158
G1 X115.031 Y164.433 E0.6468
G1 X115.131 Y163.741 E0.6779
G1 X115.078 Y163.039 E0.7092
G1 X114.871 Y162.362 E0.7408
G1 X114.517 Y161.742 E0.7725
G1 X114.028 Y161.213 E0.8046
G1 X113.431 Y160.807 E0.8368
G1 X112.753 Y160.543 E0.8692
G1 X112.300 Y160.478 E0.8895
G1 X112.102 Y160.450 F1620
G92 E0
G1 E-0.8000 F1800
G1 X112.213 Y149.745 F9000
G1 E0.0000 F1800
G92 E0
G1 X111.444 Y149.652 E0.0345 F1620
G1 X110.438 Y149.210 E0.0834
G1 X108.443 Y148.332 E0.1805
G1 X108.443 Y147.086 E0.2359
G1 X108.715 Y147.033 E0.2483
G1 X108.880 Y147.441 E0.2679
G1 X109.298 Y148.034 E0.3002
G1 X109.835 Y148.513 E0.3322
G1 X110.460 Y148.855 E0.3639
G1 X111.136 Y149.048 E0.3952
G1 X111.830 Y149.089 E0.4262
G1 X112.507 Y148.982 E0.4567
G1 X113.135 Y148.741 E0.4867
G1 X113.705 Y148.371 E0.5169
G1 X114.185 Y147.891 E0.5472
G1 X114.556 Y147.318 E0.5776
G1 X114.801 Y146.673 E0.6083
G1 X114.901 Y145.981 E0.6394
G1 X114.846 Y145.277 E0.6709
G1 X114.635 Y144.595 E0.7027
G1 X114.271 Y143.970 E0.7349
G1 X113.770 Y143.442 E0.7673
G1 X113.160 Y143.038 E0.7999
G1 X113.001 Y142.979 E0.8074
G1 X113.051 Y142.702 E0.8199
G1 X114.170 Y142.702 E0.8697
G1 X115.313 Y144.547 E0.9664
G1 X115.622 Y145.317 E1.0033
G1 X115.745 Y146.121 E1.0396
G1 X115.680 Y146.901 E1.0744
G1 X115.180 Y148.491 E1.1486
G1 X113.775 Y149.392 E1.2229
G1 X113.017 Y149.660 E1.2587
G1 X112.412 Y149.724 E1.2858
G1 X112.213 Y149.745 F1620
G92 E0
G1 E-0.8000 F1800
G1 X118.867 Y143.008 F9000
G1 E0.0000 F1800
G92 E0
G1 X118.894 Y142.702 E0.0137 F1620
G1 X123.112 Y142.702 E0.2015
G1 X123.137 Y143.011 E0.2152
G1 X120.912 Y143.381 E0.3157
G1 X119.063 Y143.044 E0.3993
G1 X118.867 Y143.008 F1620
G92 E0
G1 E-0.8000 F1800
G1 X126.264 Y145.659 F9000
G1 E0.0000 F1800
G92 E0
G1 X126.343 Y145.439 E0.0104 F1620
G1 X126.634 Y145.507 E0.0237
G1 X126.556 Y146.214 E0.0554
G1 X126.644 Y146.939 E0.0879
G1 X126.892 Y147.623 E0.1203
G1 X127.289 Y148.231 E0.1526
G1 X127.808 Y148.731 E0.1847
G1 X128.423 Y149.099 E0.2166
G1 X129.099 Y149.319 E0.2483
G1 X129.802 Y149.383 E0.2797
G1 X130.495 Y149.292 E0.3108
G1 X131.148 Y149.055 E0.3417
G1 X131.732 Y148.685 E0.3725
G1 X132.222 Y148.201 E0.4032
G1 X132.597 Y147.624 E0.4339
G1 X132.841 Y146.979 E0.4646
G1 X132.926 Y146.407 E0.4903
G1 X133.237 Y146.430 E0.5042
G1 X133.237 Y148.656 E0.6033
G1 X130.252 Y149.949 E0.7482
G1 X129.506 Y150.008 E0.7815
G1 X128.717 Y149.889 E0.8170
G1 X127.219 Y149.294 E0.8888
G1 X126.432 Y147.901 E0.9600
G1 X126.210 Y147.166 E0.9942
G1 X126.154 Y146.409 E1.0280
G1 X126.235 Y145.857 E1.0528
G1 X126.264 Y145.659 F1620
G92 E0
G1 E-0.8000 F1800
G1 X127.376 Y144.075 F9000
G1 E0.0000 F1800
G92 E0
G1 X127.144 Y143.882 E0.0135 F1620
G1 X127.928 Y142.702 E0.0765
G1 X129.465 Y142.702 E0.1449
G1 X129.478 Y143.024 E0.1593
G1 X129.128 Y143.054 E0.1749
G1 X128.432 Y143.280 E0.2075
G1 X127.804 Y143.659 E0.2402
G1 X127.520 Y143.935 E0.2579
G1 X127.376 Y144.075 F1620
G92 E0
G1 E-0.8000 F1800
G1 X132.919 Y150.374 F9000
G1 E0.0000 F1800
G92 E0
G1 X133.237 Y150.391 E0.0142 F1620
G1 X133.236 Y159.280 E0.4100
G1 X132.918 Y159.297 E0.4242
G1 X132.443 Y154.841 E0.6237
G1 X132.897 Y150.573 E0.8148
G1 X132.919 Y150.374 F1620
G92 E0
G1 E-0.8000 F1800
G1 X131.426 Y160.238 F9000
G1 E0.0000 F1800
G92 E0
G1 X133.236 Y160.898 E0.0858 F1620
G1 X133.236 Y162.641 E0.1634
G1 X132.953 Y162.687 E0.1762
G1 X132.729 Y162.005 E0.2082
G1 X132.360 Y161.393 E0.2400
G1 X131.861 Y160.876 E0.2720
G1 X131.292 Y160.506 E0.3022
G1 X131.336 Y160.417 E0.3066
G1 X131.426 Y160.238 F1620
G92 E0
G1 E-0.8000 F1800
G1 X128.438 Y160.465 F9000
G1 E0.0000 F1800
G92 E0
G1 X127.814 Y160.862 E0.0329 F1620
G1 X127.301 Y161.386 E0.0656
G1 X126.919 Y162.012 E0.0982
G1 X126.690 Y162.708 E0.1309
G1 X126.626 Y163.437 E0.1635
G1 X126.729 Y164.159 E0.1959
G1 X126.990 Y164.836 E0.2282
G1 X127.397 Y165.434 E0.2605
G1 X127.924 Y165.923 E0.2924
G1 X128.543 Y166.279 E0.3243
G1 X129.221 Y166.487 E0.3558
G1 X129.828 Y166.533 E0.3829
G1 X129.837 Y166.836 E0.3964
G1 X129.553 Y166.874 E0.4092
G1 X127.722 Y166.874 E0.4907
G1 X126.498 Y164.834 E0.5966
G1 X126.257 Y164.096 E0.6312
G1 X126.184 Y163.331 E0.6654
G1 X126.280 Y162.580 E0.6991
G1 X126.532 Y161.871 E0.7326
G1 X127.352 Y160.557 E0.8016
G1 X128.302 Y160.194 E0.8468
G1 X128.349 Y160.286 E0.8515
G1 X128.438 Y160.465 F1620
G92 E0
G1 E-0.8000 F1800
; inner perimeter
G1 X108.138 Y164.554 F9000
G1 E0.0000 F1800
G92 E0
G1 X108.026 Y163.636 E0.0412 F1440
G1 X108.023 Y145.132 E0.8651
G1 X108.264 Y144.333 E0.9023
G1 X108.672 Y143.616 E0.9390
G1 X109.378 Y142.902 E0.9837
G1 X110.049 Y142.567 E1.0171
G1 X110.808 Y142.391 E1.0518
G1 X111.778 Y142.282 E1.0953
G1 X129.855 Y142.282 E1.9002
G1 X130.762 Y142.416 E1.9410
G1 X131.599 Y142.745 E1.9810
G1 X132.218 Y143.173 E2.0145
G1 X132.959 Y143.936 E2.0619
G1 X133.360 Y144.689 E2.0999
G1 X133.590 Y145.461 E2.1358
G1 X133.657 Y146.362 E2.1760
G1 X133.656 Y163.384 E2.9339
G1 X133.619 Y164.262 E2.9731
G1 X133.350 Y165.025 E3.0091
G1 X132.939 Y165.699 E3.0442
G1 X132.229 Y166.421 E3.0893
G1 X131.581 Y166.836 E3.1236
G1 X130.806 Y167.129 E3.1605
G1 X129.581 Y167.294 E3.2155
G1 X121.177 Y167.293 E3.5897
G1 X121.177 Y167.318 E3.5908
G1 X120.437 Y167.317 E3.6238
G1 X120.437 Y167.292 E3.6249
G1 X112.021 Y167.291 E3.9996
G1 X111.117 Y167.203 E4.0401
G1 X110.338 Y166.964 E4.0764
G1 X109.590 Y166.609 E4.1132
G1 X108.842 Y166.014 E4.1558
G1 X108.444 Y165.397 E4.1885
G1 X108.206 Y164.742 E4.2195
