; G-Code generated by Simplify3D(R) Version 3.0.2
; ríj 24, 2016 at 10:00:30 ODP.
; Settings Summary
;   processName,thick
;   applyToModels,battery_holder_01,peg
;   profileName,Default (modified)
;   profileVersion,2015-08-14 23:46:21
;   baseProfile,
;   printMaterial,
;   printQuality,
;   printExtruders,
;   extruderName,Primary Extruder
;   extruderToolheadNumber,0
;   extruderDiameter,0.4
;   extruderAutoWidth,0
;   extruderWidth,0.42
;   extrusionMultiplier,1.02
;   extruderUseRetract,1
;   extruderRetractionDistance,0.8
;   extruderExtraRestartDistance,0
;   extruderRetractionZLift,0
;   extruderRetractionSpeed,1800
;   extruderUseCoasting,1
;   extruderCoastingDistance,0.2
;   extruderUseWipe,1
;   extruderWipeDistance,2
;   primaryExtruder,0
;   layerHeight,0.25
;   topSolidLayers,3
;   bottomSolidLayers,3
;   perimeterOutlines,3
;   printPerimetersInsideOut,1
;   startPointOption,3
;   startPointOriginX,0
;   startPointOriginY,0
;   startPointOriginZ,180
;   sequentialIslands,0
;   spiralVaseMode,0
;   firstLayerHeightPercentage,90
;   firstLayerWidthPercentage,100
;   firstLayerUnderspeed,0.5
;   useRaft,0
;   raftExtruder,0
;   raftLayers,3
;   raftOffset,3
;   raftSeparationDistance,0.14
;   raftInfill,85
;   disableRaftBaseLayers,0
;   useSkirt,1
;   skirtExtruder,0
;   skirtLayers,1
;   skirtOutlines,1
;   skirtOffset,2
;   usePrimePillar,0
;   primePillarExtruder,999
;   primePillarWidth,12
;   primePillarLocation,7
;   primePillarSpeedMultiplier,1
;   useOozeShield,0
;   oozeShieldExtruder,999
;   oozeShieldOffset,2
;   oozeShieldOutlines,1
;   oozeShieldSidewallShape,1
;   oozeShieldSidewallAngle,30
;   oozeShieldSpeedMultiplier,1
;   infillExtruder,0
;   internalInfillPattern,Rectilinear
;   externalInfillPattern,Rectilinear
;   infillPercentage,0
;   outlineOverlapPercentage,15
;   infillExtrusionWidthPercentage,100
;   minInfillLength,5
;   infillLayerInterval,1
;   infillAngles,45,-45
;   overlapInfillAngles,0
;   generateSupport,0
;   supportExtruder,0
;   supportInfillPercentage,30
;   supportExtraInflation,0
;   denseSupportLayers,0
;   denseSupportInfillPercentage,70
;   supportLayerInterval,1
;   supportHorizontalPartOffset,0.3
;   supportUpperSeparationLayers,1
;   supportLowerSeparationLayers,1
;   supportType,0
;   supportGridSpacing,4
;   maxOverhangAngle,45
;   supportAngles,0
;   temperatureName,Primary Extruder,Heated Bed
;   temperatureNumber,0,1
;   temperatureSetpointCount,1,1
;   temperatureSetpointLayers,1,1
;   temperatureSetpointTemperatures,225,60
;   temperatureStabilizeAtStartup,1,1
;   temperatureHeatedBed,0,1
;   temperatureRelayBetweenLayers,0,0
;   temperatureRelayBetweenLoops,0,0
;   fanLayers,1
;   fanSpeeds,0
;   blipFanToFullPower,1
;   adjustSpeedForCooling,1
;   minSpeedLayerTime,15
;   minCoolingSpeedSlowdown,20
;   increaseFanForCooling,0
;   minFanLayerTime,45
;   maxCoolingFanSpeed,100
;   increaseFanForBridging,0
;   bridgingFanSpeed,100
;   use5D,1
;   relativeEdistances,0
;   allowEaxisZeroing,1
;   independentExtruderAxes,0
;   includeM10123,0
;   stickySupport,1
;   applyToolheadOffsets,0
;   gcodeXoffset,0
;   gcodeYoffset,0
;   gcodeZoffset,0
;   overrideMachineDefinition,1
;   machineTypeOverride,0
;   strokeXoverride,200
;   strokeYoverride,200
;   strokeZoverride,185
;   originOffsetXoverride,0
;   originOffsetYoverride,0
;   originOffsetZoverride,0
;   homeXdirOverride,-1
;   homeYdirOverride,-1
;   homeZdirOverride,-1
;   flipXoverride,1
;   flipYoverride,-1
;   flipZoverride,1
;   toolheadOffsets,0,0|0,0|0,0|0,0|0,0|0,0
;   overrideFirmwareConfiguration,1
;   firmwareTypeOverride,RepRap (Marlin/Repetier/Sprinter)
;   GPXconfigOverride,r2
;   baudRateOverride,115200
;   overridePrinterModels,0
;   printerModelsOverride
;   startingGcode,G28,
;   layerChangeGcode,
;   retractionGcode,
;   toolChangeGcode,
;   endingGcode,M104 S0 ; turn off extruder,M140 S0 ; turn off bed,G28 X0 ; home X axis,M84 ; disable motors,M107 ; turn off fan
;   createX3G,0
;   celebration,0
;   celebrationSong,Random Song
;   createMB5G,0
;   postProcessing,
;   defaultSpeed,3600
;   outlineUnderspeed,0.7
;   solidInfillUnderspeed,0.8
;   supportUnderspeed,0.8
;   rapidXYspeed,9000
;   rapidZspeed,1002
;   minBridgingArea,5
;   bridgingExtraInflation,0
;   bridgingExtrusionMultiplier,1
;   bridgingSpeedMultiplier,0.3
;   filamentDiameter,1.75
;   filamentPricePerKg,1000
;   filamentDensity,1.25
;   useMinPrintHeight,0
;   minPrintHeight,196
;   useMaxPrintHeight,0
;   maxPrintHeight,392
;   useDiaphragm,0
;   diaphragmLayerInterval,20
;   robustSlicing,1
;   mergeAllIntoSolid,0
;   onlyRetractWhenCrossingOutline,0
;   retractBetweenLayers,0
;   useRetractionMinTravel,0
;   retractionMinTravel,3
;   retractWhileWiping,0
;   onlyWipeOutlines,1
;   avoidCrossingOutline,0
;   maxMovementDetourFactor,3
;   toolChangeRetractionDistance,0
;   toolChangeExtraRestartDistance,0
;   toolChangeRetractionSpeed,360
;   allowThinWallGapFill,1
;   thinWallAllowedOverlapPercentage,10
;   horizontalSizeCompensation,0
G90
M82
M106 S0
M140 S60
M190 S60
M104 S225 T0
M109 S225 T0
G28
G92 E0
G1 E-0.8000 F1800
G1 Z0.225 F1002
; layer 1, Z = 0.225
T0
; tool H0.250 W0.420
; skirt
G1 X109.504 Y88.130 F9000
G1 E0.0000 F540
G92 E0
G1 X109.580 Y88.081 E0.0041 F1800
G1 X111.478 Y87.820 E0.0894
G1 X111.487 Y87.819 E0.0897
G1 X111.655 Y87.809 E0.0972
G1 X111.664 Y87.809 E0.0976
G1 X113.332 Y87.849 E0.1719
G1 X113.394 Y87.870 E0.1749
G1 X114.477 Y88.692 E0.2354
G1 X114.515 Y88.746 E0.2383
G1 X118.521 Y101.851 E0.8485
G1 X118.525 Y101.892 E0.8504
G1 X118.445 Y102.725 E0.8876
G1 X118.433 Y102.765 E0.8895
G1 X109.759 Y119.091 E1.7126
G1 X125.209 Y117.710 E2.4033
G1 X125.218 Y117.710 E2.4037
G1 X125.409 Y117.710 E2.4122
G1 X125.419 Y117.711 E2.4127
G1 X141.052 Y119.157 E3.1117
G1 X132.561 Y102.564 E3.9417
G1 X132.550 Y102.523 E3.9436
G1 X132.493 Y101.655 E3.9823
G1 X132.499 Y101.612 E3.9842
G1 X137.025 Y88.909 E4.5847
G1 X137.064 Y88.857 E4.5876
G1 X138.151 Y88.089 E4.6468
G1 X138.213 Y88.069 E4.6497
G1 X139.865 Y88.065 E4.7233
G1 X139.873 Y88.065 E4.7237
G1 X140.038 Y88.078 E4.7310
G1 X140.046 Y88.079 E4.7314
G1 X141.946 Y88.375 E4.8170
G1 X142.023 Y88.426 E4.8211
G1 X143.038 Y90.088 E4.9078
G1 X143.048 Y90.180 E4.9119
G1 X142.465 Y91.940 E4.9945
G1 X142.418 Y91.998 E4.9978
G1 X141.321 Y92.669 E5.0551
G1 X138.332 Y101.652 E5.4766
G1 X150.711 Y120.998 E6.4993
G1 X150.724 Y121.028 E6.5008
G1 X150.893 Y121.670 E6.5303
G1 X150.896 Y121.703 E6.5318
G1 X150.233 Y133.443 E7.0554
G1 X150.232 Y133.453 E7.0559
G1 X150.201 Y133.653 E7.0649
G1 X150.199 Y133.663 E7.0653
G1 X149.966 Y134.580 E7.1075
G1 X149.927 Y134.640 E7.1106
G1 X148.756 Y135.529 E7.1761
G1 X148.688 Y135.551 E7.1793
G1 X146.425 Y135.498 E7.2801
G1 X146.422 Y135.498 E7.2802
G1 X146.365 Y135.495 E7.2827
G1 X146.362 Y135.494 E7.2829
G1 X143.077 Y135.239 E7.4296
G1 X143.003 Y135.202 E7.4333
G1 X141.875 Y133.907 E7.5098
G1 X141.848 Y133.829 E7.5134
G1 X141.957 Y131.984 E7.5957
G1 X141.995 Y131.909 E7.5995
G1 X143.325 Y130.750 E7.6780
G1 X143.405 Y130.723 E7.6818
G1 X144.402 Y130.802 E7.7263
G1 X144.717 Y125.408 E7.9669
G1 X125.289 Y123.719 E8.8352
G1 X105.944 Y125.309 E9.6995
G1 X106.156 Y130.791 E9.9437
G1 X107.248 Y130.751 E9.9924
G1 X107.327 Y130.780 E9.9961
G1 X108.601 Y131.963 E10.0735
G1 X108.636 Y132.039 E10.0773
G1 X108.705 Y133.885 E10.1595
G1 X108.676 Y133.963 E10.1632
G1 X107.490 Y135.240 E10.2408
G1 X107.414 Y135.275 E10.2445
G1 X104.068 Y135.396 E10.3936
G1 X104.067 Y135.396 E10.3937
G1 X104.039 Y135.396 E10.3949
G1 X104.037 Y135.396 E10.3950
G1 X101.741 Y135.419 E10.4973
G1 X101.673 Y135.396 E10.5004
G1 X100.520 Y134.506 E10.5653
G1 X100.482 Y134.446 E10.5685
G1 X100.251 Y133.527 E10.6107
G1 X100.249 Y133.516 E10.6112
G1 X100.218 Y133.299 E10.6210
G1 X100.217 Y133.288 E10.6214
G1 X99.776 Y121.527 E11.1455
G1 X99.780 Y121.495 E11.1469
G1 X99.960 Y120.857 E11.1764
G1 X99.974 Y120.827 E11.1779
G1 X112.707 Y101.705 E12.2008
G1 X110.064 Y92.369 E12.6329
G1 X108.985 Y91.660 E12.6904
G1 X108.940 Y91.599 E12.6938
G1 X108.442 Y89.815 E12.7762
G1 X108.456 Y89.725 E12.7803
G1 X109.394 Y88.297 E12.8563
G1 X109.504 Y88.129 F1800
G92 E0
G1 E-0.8000 F1800
G1 X116.502 Y176.286 F9000
G1 E0.0000 F1800
G92 E0
G1 X116.547 Y176.296 E0.0020 F1800
G1 X117.391 Y176.687 E0.0435
G1 X117.427 Y176.715 E0.0455
G1 X118.948 Y178.515 E0.1504
G1 X118.968 Y178.549 E0.1522
G1 X119.224 Y179.311 E0.1879
G1 X119.229 Y179.350 E0.1897
G1 X119.104 Y181.727 E0.2957
G1 X119.070 Y181.800 E0.2993
G1 X117.852 Y182.954 E0.3740
G1 X117.777 Y182.984 E0.3776
G1 X86.182 Y182.946 E1.7845
G1 X85.422 Y184.045 E1.8440
G1 X85.414 Y184.055 E1.8445
G1 X85.246 Y184.246 E1.8558
G1 X85.237 Y184.255 E1.8564
G1 X84.216 Y185.159 E1.9171
G1 X84.206 Y185.167 E1.9177
G1 X83.996 Y185.312 E1.9291
G1 X83.985 Y185.319 E1.9296
G1 X82.776 Y185.953 E1.9904
G1 X82.764 Y185.958 E1.9910
G1 X82.526 Y186.048 E2.0023
G1 X82.514 Y186.052 E2.0029
G1 X81.188 Y186.379 E2.0637
G1 X81.175 Y186.381 E2.0643
G1 X80.922 Y186.412 E2.0757
G1 X80.909 Y186.412 E2.0762
G1 X79.693 Y186.411 E2.1304
G1 X79.681 Y186.411 E2.1309
G1 X79.428 Y186.380 E2.1423
G1 X79.415 Y186.377 E2.1428
G1 X78.091 Y186.050 E2.2036
G1 X78.079 Y186.046 E2.2041
G1 X77.842 Y185.956 E2.2155
G1 X77.830 Y185.950 E2.2160
G1 X76.622 Y185.315 E2.2768
G1 X76.611 Y185.309 E2.2774
G1 X76.402 Y185.164 E2.2887
G1 X76.392 Y185.156 E2.2893
G1 X75.374 Y184.255 E2.3498
G1 X75.365 Y184.246 E2.3503
G1 X75.197 Y184.055 E2.3617
G1 X75.189 Y184.045 E2.3622
G1 X74.430 Y182.946 E2.4217
G1 X42.834 Y182.984 E3.8286
G1 X42.759 Y182.954 E3.8322
G1 X41.541 Y181.800 E3.9069
G1 X41.507 Y181.727 E3.9105
G1 X41.382 Y179.350 E4.0165
G1 X41.388 Y179.311 E4.0183
G1 X41.644 Y178.549 E4.0540
G1 X41.663 Y178.515 E4.0558
G1 X43.184 Y176.715 E4.1607
G1 X43.220 Y176.687 E4.1627
G1 X44.064 Y176.296 E4.2041
G1 X44.109 Y176.286 E4.2062
G1 X74.430 Y176.319 E5.5563
G1 X75.189 Y175.219 E5.6158
G1 X75.197 Y175.209 E5.6164
G1 X75.366 Y175.019 E5.6277
G1 X75.375 Y175.010 E5.6282
G1 X76.395 Y174.106 E5.6889
G1 X76.405 Y174.098 E5.6895
G1 X76.615 Y173.953 E5.7009
G1 X76.626 Y173.946 E5.7014
G1 X77.835 Y173.312 E5.7623
G1 X77.847 Y173.306 E5.7628
G1 X78.086 Y173.216 E5.7742
G1 X78.098 Y173.212 E5.7748
G1 X79.426 Y172.886 E5.8357
G1 X79.439 Y172.884 E5.8362
G1 X79.690 Y172.853 E5.8475
G1 X79.703 Y172.853 E5.8481
G1 X80.912 Y172.853 E5.9019
G1 X80.925 Y172.853 E5.9025
G1 X81.177 Y172.884 E5.9138
G1 X81.190 Y172.886 E5.9144
G1 X82.514 Y173.212 E5.9751
G1 X82.526 Y173.216 E5.9757
G1 X82.765 Y173.307 E5.9870
G1 X82.776 Y173.312 E5.9876
G1 X83.986 Y173.946 E6.0484
G1 X83.996 Y173.953 E6.0490
G1 X84.206 Y174.098 E6.0603
G1 X84.216 Y174.106 E6.0609
G1 X85.237 Y175.010 E6.1216
G1 X85.246 Y175.019 E6.1222
G1 X85.414 Y175.209 E6.1335
G1 X85.422 Y175.219 E6.1340
G1 X86.182 Y176.319 E6.1936
G1 X116.302 Y176.287 E7.5347
G1 X116.502 Y176.286 F1800
G92 E0
G1 E-0.8000 F1800
; inner perimeter
G1 X76.616 Y179.632 F9000
G1 E0.0000 F1800
G92 E0
G1 X77.241 Y177.985 E0.0785 F1620
G1 X77.727 Y177.281 E0.1165
G1 X78.367 Y176.714 E0.1546
G1 X79.124 Y176.317 E0.1926
G1 X79.957 Y176.113 E0.2308
G1 X80.658 Y176.113 E0.2621
G1 X81.487 Y176.317 E0.3001
G1 X82.245 Y176.714 E0.3382
G1 X82.884 Y177.281 E0.3762
G1 X83.370 Y177.985 E0.4143
G1 X83.995 Y179.632 E0.4928
G1 X83.370 Y181.280 E0.5712
G1 X82.884 Y181.984 E0.6093
G1 X82.245 Y182.550 E0.6474
G1 X81.488 Y182.948 E0.6854
G1 X80.657 Y183.152 E0.7235
G1 X79.951 Y183.152 E0.7549
G1 X79.121 Y182.946 E0.7930
G1 X78.364 Y182.548 E0.8311
G1 X77.727 Y181.984 E0.8690
G1 X77.241 Y181.280 E0.9071
G1 X76.687 Y179.819 E0.9766
G1 X76.616 Y179.632 F1620
G92 E0
G1 E-0.8000 F1800
; inner perimeter
G1 X44.252 Y179.851 F9000
G1 E0.0000 F1800
G92 E0
G1 X44.864 Y179.127 E0.0422 F1440
G1 X76.346 Y179.161 E1.4440
G1 X76.867 Y177.788 E1.5094
G1 X77.411 Y177.001 E1.5520
G1 X78.126 Y176.366 E1.5946
G1 X78.974 Y175.921 E1.6372
G1 X79.906 Y175.693 E1.6799
G1 X80.709 Y175.693 E1.7157
G1 X81.637 Y175.921 E1.7582
G1 X82.485 Y176.366 E1.8009
G1 X83.201 Y177.001 E1.8435
G1 X83.745 Y177.788 E1.8861
G1 X84.266 Y179.161 E1.9515
G1 X115.747 Y179.127 E3.3533
G1 X116.359 Y179.851 E3.3954
G1 X116.344 Y180.142 E3.4084
G1 X84.266 Y180.103 E4.8368
G1 X83.745 Y181.477 E4.9022
G1 X83.201 Y182.264 E4.9448
G1 X82.485 Y182.899 E4.9874
G1 X81.637 Y183.343 E5.0300
G1 X80.707 Y183.572 E5.0726
G1 X79.900 Y183.571 E5.1086
G1 X78.971 Y183.342 E5.1512
G1 X78.123 Y182.896 E5.1939
G1 X77.411 Y182.264 E5.2363
G1 X76.867 Y181.477 E5.2789
G1 X76.346 Y180.103 E5.3443
G1 X44.268 Y180.142 E6.7726
G1 X44.263 Y180.050 E6.7767
G1 X44.252 Y179.851 F1440
G92 E0
G1 E-0.8000 F1800
; outer perimeter
G1 X43.824 Y179.707 F9000
G1 E0.0000 F1800
G92 E0
G1 X44.669 Y178.707 E0.0583 F1260
G1 X76.056 Y178.741 E1.4558
G1 X76.492 Y177.591 E1.5106
G1 X77.094 Y176.720 E1.5577
G1 X77.886 Y176.018 E1.6049
G1 X78.824 Y175.526 E1.6520
G1 X79.855 Y175.273 E1.6993
G1 X80.760 Y175.273 E1.7396
G1 X81.787 Y175.526 E1.7867
G1 X82.725 Y176.018 E1.8339
G1 X83.517 Y176.720 E1.8810
G1 X84.119 Y177.591 E1.9282
G1 X84.555 Y178.741 E1.9829
G1 X115.942 Y178.707 E3.3805
G1 X116.787 Y179.707 E3.4387
G1 X116.742 Y180.563 E3.4769
G1 X84.555 Y180.524 E4.9101
G1 X84.119 Y181.673 E4.9648
G1 X83.517 Y182.545 E5.0120
G1 X82.726 Y183.247 E5.0591
G1 X81.787 Y183.739 E5.1063
G1 X80.758 Y183.992 E5.1535
G1 X79.848 Y183.991 E5.1940
G1 X78.821 Y183.737 E5.2411
G1 X77.883 Y183.244 E5.2883
G1 X77.094 Y182.545 E5.3353
G1 X76.492 Y181.673 E5.3824
G1 X76.056 Y180.524 E5.4372
G1 X43.869 Y180.563 E6.8703
G1 X43.835 Y179.906 E6.8996
G1 X43.824 Y179.707 F1260
G92 E0
G1 E-0.8000 F1800
G1 X44.669 Y178.707 F3600
G1 X45.360 Y178.708 F3600
; gap fill
G1 X45.311 Y179.780 F9000
G1 E0.0000 F1800
G92 E0
G1 X45.602 Y179.489 E0.0183 F1800
G1 X46.195 Y179.490 E0.0447
G1 X45.906 Y179.779 E0.0629
G1 X46.501 Y179.778 E0.0894
G1 X46.789 Y179.491 E0.1075
G1 X47.382 Y179.491 E0.1339
G1 X47.095 Y179.778 E0.1520
G1 X47.690 Y179.777 E0.1785
G1 X47.975 Y179.492 E0.1964
G1 X48.569 Y179.492 E0.2228
G1 X48.285 Y179.776 E0.2407
G1 X48.880 Y179.775 E0.2672
G1 X49.162 Y179.493 E0.2849
G1 X49.755 Y179.494 E0.3114
G1 X49.474 Y179.775 E0.3291
G1 X50.069 Y179.774 E0.3555
G1 X50.349 Y179.494 E0.3731
G1 X50.942 Y179.495 E0.3996
G1 X50.664 Y179.773 E0.4171
G1 X51.258 Y179.773 E0.4436
G1 X51.535 Y179.496 E0.4610
G1 X52.129 Y179.496 E0.4874
G1 X51.853 Y179.772 E0.5048
G1 X52.448 Y179.771 E0.5313
G1 X52.722 Y179.497 E0.5485
G1 X53.315 Y179.498 E0.5749
G1 X53.042 Y179.770 E0.5921
G1 X53.637 Y179.770 E0.6186
G1 X53.909 Y179.498 E0.6357
G1 X54.502 Y179.499 E0.6621
G1 X54.232 Y179.769 E0.6791
G1 X54.826 Y179.768 E0.7056
G1 X55.095 Y179.499 E0.7225
G1 X55.689 Y179.500 E0.7489
G1 X55.421 Y179.768 E0.7658
G1 X56.016 Y179.767 E0.7923
G1 X56.282 Y179.501 E0.8090
G1 X56.875 Y179.501 E0.8354
G1 X56.611 Y179.766 E0.8521
G1 X57.205 Y179.765 E0.8786
G1 X57.469 Y179.502 E0.8952
G1 X58.062 Y179.503 E0.9216
G1 X57.800 Y179.765 E0.9381
G1 X58.395 Y179.764 E0.9646
G1 X58.655 Y179.503 E0.9810
G1 X59.249 Y179.504 E1.0074
G1 X58.989 Y179.763 E1.0237
G1 X59.584 Y179.762 E1.0502
G1 X59.842 Y179.505 E1.0664
G1 X60.435 Y179.505 E1.0929
G1 X60.179 Y179.762 E1.1090
G1 X60.773 Y179.761 E1.1355
G1 X61.029 Y179.506 E1.1516
G1 X61.622 Y179.507 E1.1780
G1 X61.368 Y179.760 E1.1940
G1 X61.963 Y179.760 E1.2204
G1 X62.215 Y179.507 E1.2363
G1 X62.809 Y179.508 E1.2628
G1 X62.557 Y179.759 E1.2786
G1 X63.152 Y179.758 E1.3050
G1 X63.402 Y179.508 E1.3208
G1 X63.995 Y179.509 E1.3472
G1 X63.747 Y179.757 E1.3628
