; G-Code generated by Simplify3D(R) Version 3.0.2
; ríj 24, 2016 at 9:41:14 ODP.
; Settings Summary
;   processName,wing2per
;   applyToModels,wingR_4
;   profileName,Default (modified)
;   profileVersion,2016-04-14 15:44:02
;   baseProfile,Default
;   printMaterial,
;   printQuality,
;   printExtruders,
;   extruderName,Primary Extruder
;   extruderToolheadNumber,0
;   extruderDiameter,0.4
;   extruderAutoWidth,0
;   extruderWidth,0.42
;   extrusionMultiplier,1.02
;   extruderUseRetract,1
;   extruderRetractionDistance,0.8
;   extruderExtraRestartDistance,0.12
;   extruderRetractionZLift,0
;   extruderRetractionSpeed,1800
;   extruderUseCoasting,1
;   extruderCoastingDistance,0.2
;   extruderUseWipe,1
;   extruderWipeDistance,2
;   primaryExtruder,0
;   layerHeight,0.25
;   topSolidLayers,0
;   bottomSolidLayers,0
;   perimeterOutlines,2
;   printPerimetersInsideOut,1
;   startPointOption,3
;   startPointOriginX,0
;   startPointOriginY,0
;   startPointOriginZ,-300
;   sequentialIslands,0
;   spiralVaseMode,0
;   firstLayerHeightPercentage,90
;   firstLayerWidthPercentage,110
;   firstLayerUnderspeed,0.5
;   useRaft,0
;   raftExtruder,0
;   raftLayers,3
;   raftOffset,3
;   raftSeparationDistance,0.14
;   raftInfill,85
;   disableRaftBaseLayers,0
;   useSkirt,1
;   skirtExtruder,0
;   skirtLayers,1
;   skirtOutlines,1
;   skirtOffset,1.4
;   usePrimePillar,0
;   primePillarExtruder,999
;   primePillarWidth,12
;   primePillarLocation,7
;   primePillarSpeedMultiplier,1
;   useOozeShield,0
;   oozeShieldExtruder,999
;   oozeShieldOffset,2
;   oozeShieldOutlines,1
;   oozeShieldSidewallShape,1
;   oozeShieldSidewallAngle,30
;   oozeShieldSpeedMultiplier,1
;   infillExtruder,0
;   internalInfillPattern,Rectilinear
;   externalInfillPattern,Rectilinear
;   infillPercentage,0
;   outlineOverlapPercentage,15
;   infillExtrusionWidthPercentage,100
;   minInfillLength,5
;   infillLayerInterval,1
;   infillAngles,45,-45
;   overlapInfillAngles,0
;   generateSupport,0
;   supportExtruder,0
;   supportInfillPercentage,30
;   supportExtraInflation,0
;   denseSupportLayers,0
;   denseSupportInfillPercentage,70
;   supportLayerInterval,1
;   supportHorizontalPartOffset,0.3
;   supportUpperSeparationLayers,1
;   supportLowerSeparationLayers,1
;   supportType,0
;   supportGridSpacing,4
;   maxOverhangAngle,45
;   supportAngles,0
;   temperatureName,Primary Extruder,Heated Bed
;   temperatureNumber,0,1
;   temperatureSetpointCount,1,1
;   temperatureSetpointLayers,1,1
;   temperatureSetpointTemperatures,230,60
;   temperatureStabilizeAtStartup,1,1
;   temperatureHeatedBed,0,1
;   temperatureRelayBetweenLayers,0,0
;   temperatureRelayBetweenLoops,0,0
;   fanLayers,1
;   fanSpeeds,0
;   blipFanToFullPower,1
;   adjustSpeedForCooling,1
;   minSpeedLayerTime,15
;   minCoolingSpeedSlowdown,30
;   increaseFanForCooling,0
;   minFanLayerTime,45
;   maxCoolingFanSpeed,100
;   increaseFanForBridging,0
;   bridgingFanSpeed,100
;   use5D,1
;   relativeEdistances,0
;   allowEaxisZeroing,1
;   independentExtruderAxes,0
;   includeM10123,0
;   stickySupport,1
;   applyToolheadOffsets,0
;   gcodeXoffset,0
;   gcodeYoffset,0
;   gcodeZoffset,0
;   overrideMachineDefinition,1
;   machineTypeOverride,0
;   strokeXoverride,200
;   strokeYoverride,200
;   strokeZoverride,150
;   originOffsetXoverride,0
;   originOffsetYoverride,0
;   originOffsetZoverride,0
;   homeXdirOverride,-1
;   homeYdirOverride,-1
;   homeZdirOverride,-1
;   flipXoverride,1
;   flipYoverride,-1
;   flipZoverride,1
;   toolheadOffsets,0,0|0,0|0,0|0,0|0,0|0,0
;   overrideFirmwareConfiguration,1
;   firmwareTypeOverride,RepRap (Marlin/Repetier/Sprinter)
;   GPXconfigOverride,r2
;   baudRateOverride,115200
;   overridePrinterModels,0
;   printerModelsOverride
;   startingGcode,G28,
;   layerChangeGcode,
;   retractionGcode,
;   toolChangeGcode,
;   endingGcode,M104 S0 ; turn off extruder,M140 S0 ; turn off bed,G28 X0 ; home X axis,M84 ; disable motors,M107 ; turn off fan
;   createX3G,0
;   celebration,0
;   celebrationSong,Random Song
;   createMB5G,0
;   postProcessing,
;   defaultSpeed,3600
;   outlineUnderspeed,0.7
;   solidInfillUnderspeed,0.8
;   supportUnderspeed,0.8
;   rapidXYspeed,9000
;   rapidZspeed,1002
;   minBridgingArea,5
;   bridgingExtraInflation,0
;   bridgingExtrusionMultiplier,1
;   bridgingSpeedMultiplier,0.3
;   filamentDiameter,1.75
;   filamentPricePerKg,1000
;   filamentDensity,1.25
;   useMinPrintHeight,1
;   minPrintHeight,0
;   useMaxPrintHeight,1
;   maxPrintHeight,2
;   useDiaphragm,0
;   diaphragmLayerInterval,20
;   robustSlicing,1
;   mergeAllIntoSolid,0
;   onlyRetractWhenCrossingOutline,0
;   retractBetweenLayers,0
;   useRetractionMinTravel,0
;   retractionMinTravel,3
;   retractWhileWiping,0
;   onlyWipeOutlines,1
;   avoidCrossingOutline,0
;   maxMovementDetourFactor,3
;   toolChangeRetractionDistance,0
;   toolChangeExtraRestartDistance,0
;   toolChangeRetractionSpeed,360
;   allowThinWallGapFill,1
;   thinWallAllowedOverlapPercentage,10
;   horizontalSizeCompensation,0
G90
M82
M106 S0
M140 S60
M190 S60
M104 S230 T0
M109 S230 T0
G28
G92 E0
G1 E-0.8000 F1800
G1 Z0.225 F1002
; layer 1, Z = 0.225
T0
; tool H0.250 W0.462
; skirt
G1 X32.095 Y86.929 F9000
G1 E0.1200 F540
G92 E0
G1 X32.173 Y86.905 E0.0040 F1800
G1 X33.382 Y87.008 E0.0634
G1 X33.455 Y87.045 E0.0674
G1 X36.365 Y90.378 E0.2842
G1 X40.583 Y95.151 E0.5962
G1 X45.347 Y100.413 E0.9438
G1 X64.697 Y121.260 E2.3369
G1 X64.697 Y121.260 E2.3370
G1 X64.702 Y121.264 E2.3373
G1 X64.702 Y121.265 E2.3373
G1 X70.598 Y127.725 E2.7657
G1 X70.599 Y127.726 E2.7657
G1 X70.605 Y127.733 E2.7662
G1 X70.605 Y127.733 E2.7662
G1 X74.891 Y132.545 E3.0818
G1 X74.891 Y132.545 E3.0819
G1 X74.894 Y132.549 E3.0821
G1 X74.894 Y132.549 E3.0821
G1 X79.896 Y138.232 E3.4529
G1 X79.896 Y138.232 E3.4529
G1 X79.905 Y138.242 E3.4536
G1 X79.905 Y138.243 E3.4536
G1 X84.007 Y143.069 E3.7638
G1 X84.008 Y143.070 E3.7639
G1 X84.015 Y143.078 E3.7644
G1 X84.015 Y143.079 E3.7644
G1 X87.179 Y146.916 E4.0080
G1 X87.179 Y146.917 E4.0081
G1 X87.188 Y146.927 E4.0087
G1 X87.188 Y146.928 E4.0088
G1 X90.273 Y150.807 E4.2515
G1 X90.274 Y150.808 E4.2516
G1 X90.285 Y150.823 E4.2525
G1 X90.286 Y150.824 E4.2525
G1 X93.195 Y154.668 E4.4887
G1 X93.196 Y154.669 E4.4888
G1 X93.213 Y154.692 E4.4902
G1 X93.214 Y154.694 E4.4902
G1 X95.301 Y157.676 E4.6685
G1 X95.302 Y157.678 E4.6686
G1 X95.317 Y157.700 E4.6699
G1 X95.318 Y157.702 E4.6700
G1 X96.664 Y159.782 E4.7914
G1 X96.664 Y159.783 E4.7915
G1 X96.677 Y159.803 E4.7926
G1 X96.677 Y159.804 E4.7927
G1 X97.822 Y161.698 E4.9011
G1 X97.823 Y161.700 E4.9012
G1 X97.836 Y161.722 E4.9024
G1 X97.837 Y161.724 E4.9025
G1 X98.283 Y162.523 E4.9474
G1 X98.284 Y162.525 E4.9475
G1 X98.299 Y162.553 E4.9490
G1 X98.300 Y162.555 E4.9491
G1 X98.953 Y163.849 E5.0201
G1 X98.954 Y163.853 E5.0203
G1 X98.975 Y163.898 E5.0228
G1 X98.977 Y163.902 E5.0229
G1 X99.418 Y164.945 E5.0784
G1 X99.420 Y164.950 E5.0787
G1 X99.445 Y165.018 E5.0823
G1 X99.447 Y165.023 E5.0825
G1 X99.838 Y166.276 E5.1468
G1 X99.840 Y166.283 E5.1471
G1 X99.862 Y166.375 E5.1518
G1 X99.864 Y166.382 E5.1521
G1 X99.995 Y167.121 E5.1889
G1 X99.996 Y167.128 E5.1892
G1 X100.007 Y167.223 E5.1939
G1 X100.008 Y167.230 E5.1943
G1 X100.038 Y167.850 E5.2247
G1 X100.038 Y167.858 E5.2251
G1 X100.034 Y167.973 E5.2307
G1 X100.034 Y167.981 E5.2311
G1 X99.998 Y168.325 E5.2480
G1 X99.996 Y168.337 E5.2486
G1 X99.956 Y168.511 E5.2574
G1 X99.953 Y168.523 E5.2580
G1 X99.745 Y169.109 E5.2884
G1 X99.739 Y169.121 E5.2891
G1 X99.653 Y169.292 E5.2985
G1 X99.646 Y169.304 E5.2991
G1 X99.424 Y169.630 E5.3185
G1 X99.418 Y169.638 E5.3190
G1 X99.326 Y169.749 E5.3260
G1 X99.319 Y169.757 E5.3265
G1 X99.061 Y170.014 E5.3444
G1 X99.052 Y170.022 E5.3449
G1 X98.922 Y170.125 E5.3531
G1 X98.913 Y170.132 E5.3537
G1 X98.496 Y170.395 E5.3778
G1 X98.486 Y170.400 E5.3783
G1 X98.343 Y170.470 E5.3862
G1 X98.332 Y170.475 E5.3867
G1 X97.946 Y170.616 E5.4069
G1 X97.936 Y170.619 E5.4074
G1 X97.791 Y170.656 E5.4147
G1 X97.780 Y170.658 E5.4152
G1 X97.310 Y170.729 E5.4385
G1 X97.301 Y170.730 E5.4390
G1 X97.165 Y170.739 E5.4457
G1 X97.155 Y170.739 E5.4461
G1 X96.545 Y170.720 E5.4760
G1 X96.537 Y170.720 E5.4764
G1 X96.424 Y170.708 E5.4820
G1 X96.416 Y170.706 E5.4824
G1 X95.295 Y170.501 E5.5382
G1 X95.288 Y170.499 E5.5386
G1 X95.192 Y170.475 E5.5434
G1 X95.185 Y170.473 E5.5438
G1 X94.312 Y170.190 E5.5887
G1 X94.308 Y170.189 E5.5889
G1 X94.255 Y170.169 E5.5917
G1 X94.251 Y170.168 E5.5919
G1 X93.759 Y169.967 E5.6179
G1 X93.756 Y169.965 E5.6181
G1 X93.714 Y169.946 E5.6204
G1 X93.711 Y169.945 E5.6205
G1 X92.649 Y169.432 E5.6783
G1 X92.645 Y169.430 E5.6785
G1 X92.591 Y169.401 E5.6815
G1 X92.587 Y169.399 E5.6817
G1 X91.281 Y168.630 E5.7559
G1 X91.278 Y168.628 E5.7561
G1 X91.232 Y168.599 E5.7588
G1 X91.229 Y168.597 E5.7590
G1 X89.570 Y167.450 E5.8578
G1 X89.567 Y167.449 E5.8579
G1 X89.537 Y167.427 E5.8597
G1 X89.535 Y167.425 E5.8598
G1 X87.603 Y165.943 E5.9791
G1 X87.601 Y165.942 E5.9792
G1 X87.576 Y165.922 E5.9808
G1 X87.575 Y165.921 E5.9809
G1 X85.648 Y164.311 E6.1038
G1 X85.646 Y164.310 E6.1040
G1 X85.622 Y164.289 E6.1055
G1 X85.621 Y164.288 E6.1056
G1 X83.817 Y162.648 E6.2250
G1 X83.816 Y162.646 E6.2251
G1 X83.797 Y162.629 E6.2264
G1 X83.796 Y162.627 E6.2265
G1 X82.064 Y160.941 E6.3449
G1 X82.063 Y160.940 E6.3449
G1 X82.049 Y160.925 E6.3459
G1 X82.048 Y160.924 E6.3460
G1 X80.350 Y159.179 E6.4652
G1 X80.349 Y159.179 E6.4653
G1 X80.337 Y159.166 E6.4662
G1 X80.336 Y159.165 E6.4662
G1 X77.808 Y156.441 E6.6483
G1 X77.807 Y156.440 E6.6483
G1 X77.797 Y156.428 E6.6491
G1 X77.796 Y156.428 E6.6491
G1 X76.130 Y154.556 E6.7718
G1 X76.130 Y154.556 E6.7719
G1 X76.122 Y154.546 E6.7725
G1 X76.121 Y154.546 E6.7725
G1 X74.496 Y152.658 E6.8945
G1 X74.495 Y152.657 E6.8946
G1 X74.485 Y152.645 E6.8953
G1 X74.485 Y152.644 E6.8954
G1 X72.086 Y149.743 E7.0798
G1 X72.086 Y149.742 E7.0798
G1 X72.078 Y149.732 E7.0805
G1 X72.077 Y149.731 E7.0805
G1 X69.693 Y146.741 E7.2678
G1 X69.692 Y146.741 E7.2678
G1 X69.687 Y146.734 E7.2682
G1 X69.687 Y146.734 E7.2683
G1 X67.349 Y143.736 E7.4545
G1 X67.348 Y143.735 E7.4546
G1 X67.339 Y143.723 E7.4553
G1 X67.338 Y143.722 E7.4553
G1 X63.544 Y138.649 E7.7656
G1 X63.543 Y138.649 E7.7657
G1 X63.535 Y138.638 E7.7663
G1 X63.535 Y138.637 E7.7664
G1 X59.019 Y132.372 E8.1446
G1 X59.019 Y132.372 E8.1447
G1 X59.012 Y132.362 E8.1452
G1 X59.012 Y132.362 E8.1453
G1 X56.175 Y128.294 E8.3881
G1 X56.174 Y128.294 E8.3882
G1 X56.170 Y128.288 E8.3885
G1 X56.170 Y128.288 E8.3885
G1 X54.045 Y125.178 E8.5730
G1 X54.045 Y125.178 E8.5730
G1 X54.040 Y125.170 E8.5735
G1 X54.040 Y125.170 E8.5735
G1 X47.599 Y115.504 E9.1424
G1 X47.598 Y115.503 E9.1424
G1 X47.591 Y115.493 E9.1431
G1 X47.591 Y115.492 E9.1431
G1 X36.566 Y98.330 E10.1422
G1 X30.564 Y89.308 E10.6730
G1 X30.547 Y89.232 E10.6768
G1 X30.720 Y88.085 E10.7336
G1 X30.759 Y88.017 E10.7374
G1 X31.940 Y87.055 E10.8120
G1 X32.095 Y86.929 F1800
G92 E0
G1 E-0.8000 F1800
; inner perimeter
G1 X38.037 Y95.755 F9000
G1 E0.1200 F1800
G92 E0
G1 X38.867 Y96.687 E0.0611 F1530
G1 X42.420 Y100.592 E0.3197
G1 X43.648 Y101.968 E0.4100
G1 X50.863 Y109.741 E0.9295
G1 X48.034 Y111.943 E1.1051
G1 X47.478 Y111.086 E1.1551
G1 X40.987 Y100.918 E1.7460
G1 X38.494 Y97.070 E1.9705
G1 X37.764 Y95.965 E2.0354
G1 X37.878 Y95.877 E2.0424
G1 X38.037 Y95.755 F1530
G92 E0
G1 E-0.8000 F1800
G1 X52.120 Y111.095 F9000
G1 E0.1200 F1800
G92 E0
G1 X53.990 Y113.110 E0.1346 F1530
G1 X52.094 Y114.586 E0.2524
G1 X50.550 Y115.788 E0.3482
G1 X49.522 Y114.237 E0.4393
G1 X49.039 Y113.493 E0.4828
G1 X51.962 Y111.218 E0.6642
G1 X52.120 Y111.095 F1530
G92 E0
G1 E-0.8000 F1800
G1 X55.211 Y114.425 F9000
G1 E0.1200 F1800
G92 E0
G1 X63.006 Y122.823 E0.5612 F1530
G1 X66.341 Y126.456 E0.8028
G1 X68.890 Y129.271 E0.9888
G1 X71.648 Y132.366 E1.1918
G1 X65.374 Y137.250 E1.5813
G1 X63.102 Y134.129 E1.7704
G1 X60.895 Y131.036 E1.9565
G1 X58.068 Y126.983 E2.1985
G1 X55.951 Y123.885 E2.3823
G1 X53.093 Y119.625 E2.6335
G1 X51.540 Y117.282 E2.7712
G1 X53.037 Y116.117 E2.8641
G1 X55.053 Y114.548 E2.9893
G1 X55.211 Y114.425 F1530
G92 E0
G1 E-0.8000 F1800
G1 X72.839 Y133.704 F9000
G1 E0.1200 F1800
G92 E0
G1 X73.169 Y134.075 E0.0243 F1530
G1 X78.160 Y139.745 E0.3943
G1 X79.812 Y141.669 E0.5185
G1 X82.246 Y144.553 E0.7034
G1 X83.826 Y146.453 E0.8244
G1 X85.394 Y148.371 E0.9457
G1 X86.946 Y150.307 E1.0672
G1 X88.461 Y152.228 E1.1871
G1 X89.925 Y154.131 E1.3047
G1 X90.418 Y154.793 E1.3451
G1 X84.102 Y159.711 E1.7372
G1 X83.685 Y159.305 E1.7657
G1 X82.013 Y157.586 E1.8831
G1 X79.507 Y154.885 E2.0636
G1 X77.859 Y153.034 E2.1850
G1 X76.251 Y151.166 E2.3057
G1 X73.870 Y148.285 E2.4888
G1 X71.498 Y145.312 E2.6751
G1 X69.172 Y142.329 E2.8603
G1 X67.657 Y140.334 E2.9830
G1 X66.438 Y138.687 E3.0834
G1 X72.681 Y133.827 E3.4709
G1 X72.839 Y133.704 F1530
G92 E0
G1 E-0.8000 F1800
G1 X91.484 Y156.232 F9000
G1 E0.1200 F1800
G92 E0
G1 X92.034 Y156.996 E0.0461 F1530
G1 X92.658 Y157.901 E0.0999
G1 X86.924 Y162.364 E0.4558
G1 X86.256 Y161.768 E0.4997
G1 X85.397 Y160.971 E0.5571
G1 X91.326 Y156.355 E0.9251
G1 X91.484 Y156.232 F1530
G92 E0
G1 E-0.8000 F1800
G1 X93.763 Y159.537 F9000
G1 E0.1200 F1800
G92 E0
G1 X94.718 Y161.014 E0.0861 F1530
G1 X95.838 Y162.868 E0.1922
G1 X96.260 Y163.624 E0.2346
G1 X96.601 Y164.277 E0.2707
G1 X96.872 Y164.837 E0.3012
G1 X97.275 Y165.791 E0.3519
G1 X97.414 Y166.176 E0.3720
G1 X97.611 Y166.867 E0.4072
G1 X97.712 Y167.433 E0.4353
G1 X97.732 Y167.851 E0.4558
G1 X97.721 Y167.953 E0.4608
G1 X97.708 Y168.012 E0.4638
G1 X97.650 Y168.143 E0.4708
G1 X97.597 Y168.222 E0.4755
G1 X97.538 Y168.280 E0.4795
G1 X97.450 Y168.342 E0.4848
G1 X97.428 Y168.353 E0.4860
G1 X97.292 Y168.403 E0.4931
G1 X97.094 Y168.433 E0.5029
G1 X96.714 Y168.421 E0.5215
G1 X96.134 Y168.332 E0.5503
G1 X95.811 Y168.256 E0.5665
G1 X95.460 Y168.153 E0.5844
G1 X95.081 Y168.019 E0.6041
G1 X94.667 Y167.849 E0.6261
G1 X94.208 Y167.638 E0.6508
G1 X93.703 Y167.384 E0.6785
G1 X93.138 Y167.067 E0.7102
G1 X92.495 Y166.673 E0.7472
G1 X91.758 Y166.182 E0.7906
G1 X90.909 Y165.577 E0.8416
G1 X89.987 Y164.885 E0.8981
G1 X89.028 Y164.134 E0.9577
G1 X88.457 Y163.668 E0.9938
G1 X93.605 Y159.660 E1.3134
G1 X93.763 Y159.537 F1530
G92 E0
G1 E-0.8000 F1800
; outer perimeter
G1 X32.613 Y88.881 F9000
G1 E0.1200 F1800
G92 E0
G1 X34.981 Y91.592 E0.1763 F1260
G1 X37.289 Y94.220 E0.3476
G1 X39.211 Y96.379 E0.4892
G1 X42.763 Y100.282 E0.7477
G1 X43.990 Y101.657 E0.8379
G1 X63.346 Y122.510 E2.2315
G1 X66.683 Y126.145 E2.4732
G1 X69.233 Y128.961 E2.6593
G1 X73.515 Y133.768 E2.9745
G1 X78.509 Y139.442 E3.3448
G1 X80.164 Y141.370 E3.4693
G1 X82.599 Y144.255 E3.6541
G1 X84.183 Y146.159 E3.7755
G1 X85.753 Y148.081 E3.8970
G1 X87.308 Y150.019 E4.0187
G1 X88.825 Y151.944 E4.1388
G1 X90.293 Y153.852 E4.2567
G1 X91.717 Y155.765 E4.3735
G1 X92.411 Y156.730 E4.4317
G1 X93.781 Y158.716 E4.5499
G1 X95.110 Y160.769 E4.6696
G1 X96.238 Y162.636 E4.7765
G1 X96.667 Y163.404 E4.8196
G1 X97.014 Y164.070 E4.8564
G1 X97.293 Y164.647 E4.8878
G1 X97.705 Y165.622 E4.9396
G1 X97.854 Y166.034 E4.9611
G1 X98.062 Y166.763 E4.9982
G1 X98.172 Y167.382 E5.0290
G1 X98.195 Y167.864 E5.0526
G1 X98.178 Y168.030 E5.0608
G1 X98.148 Y168.158 E5.0672
G1 X98.057 Y168.367 E5.0784
G1 X97.954 Y168.518 E5.0874
G1 X97.835 Y168.636 E5.0955
G1 X97.688 Y168.739 E5.1043
G1 X97.613 Y168.778 E5.1085
G1 X97.407 Y168.853 E5.1192
G1 X97.122 Y168.896 E5.1333
G1 X96.672 Y168.882 E5.1554
G1 X96.046 Y168.786 E5.1864
G1 X95.693 Y168.703 E5.2042
G1 X95.318 Y168.592 E5.2233
