; G-Code generated by Simplify3D(R) Version 3.0.2
; ríj 24, 2016 at 9:40:18 ODP.
; Settings Summary
;   processName,wing2per
;   applyToModels,wingR_3
;   profileName,Default (modified)
;   profileVersion,2016-04-14 15:44:02
;   baseProfile,Default
;   printMaterial,
;   printQuality,
;   printExtruders,
;   extruderName,Primary Extruder
;   extruderToolheadNumber,0
;   extruderDiameter,0.4
;   extruderAutoWidth,0
;   extruderWidth,0.42
;   extrusionMultiplier,1.02
;   extruderUseRetract,1
;   extruderRetractionDistance,0.8
;   extruderExtraRestartDistance,0.12
;   extruderRetractionZLift,0
;   extruderRetractionSpeed,1800
;   extruderUseCoasting,1
;   extruderCoastingDistance,0.2
;   extruderUseWipe,1
;   extruderWipeDistance,2
;   primaryExtruder,0
;   layerHeight,0.25
;   topSolidLayers,0
;   bottomSolidLayers,0
;   perimeterOutlines,2
;   printPerimetersInsideOut,1
;   startPointOption,3
;   startPointOriginX,0
;   startPointOriginY,0
;   startPointOriginZ,-300
;   sequentialIslands,0
;   spiralVaseMode,0
;   firstLayerHeightPercentage,90
;   firstLayerWidthPercentage,110
;   firstLayerUnderspeed,0.5
;   useRaft,0
;   raftExtruder,0
;   raftLayers,3
;   raftOffset,3
;   raftSeparationDistance,0.14
;   raftInfill,85
;   disableRaftBaseLayers,0
;   useSkirt,1
;   skirtExtruder,0
;   skirtLayers,1
;   skirtOutlines,1
;   skirtOffset,1.4
;   usePrimePillar,0
;   primePillarExtruder,999
;   primePillarWidth,12
;   primePillarLocation,7
;   primePillarSpeedMultiplier,1
;   useOozeShield,0
;   oozeShieldExtruder,999
;   oozeShieldOffset,2
;   oozeShieldOutlines,1
;   oozeShieldSidewallShape,1
;   oozeShieldSidewallAngle,30
;   oozeShieldSpeedMultiplier,1
;   infillExtruder,0
;   internalInfillPattern,Rectilinear
;   externalInfillPattern,Rectilinear
;   infillPercentage,0
;   outlineOverlapPercentage,15
;   infillExtrusionWidthPercentage,100
;   minInfillLength,5
;   infillLayerInterval,1
;   infillAngles,45,-45
;   overlapInfillAngles,0
;   generateSupport,0
;   supportExtruder,0
;   supportInfillPercentage,30
;   supportExtraInflation,0
;   denseSupportLayers,0
;   denseSupportInfillPercentage,70
;   supportLayerInterval,1
;   supportHorizontalPartOffset,0.3
;   supportUpperSeparationLayers,1
;   supportLowerSeparationLayers,1
;   supportType,0
;   supportGridSpacing,4
;   maxOverhangAngle,45
;   supportAngles,0
;   temperatureName,Primary Extruder,Heated Bed
;   temperatureNumber,0,1
;   temperatureSetpointCount,1,1
;   temperatureSetpointLayers,1,1
;   temperatureSetpointTemperatures,230,60
;   temperatureStabilizeAtStartup,1,1
;   temperatureHeatedBed,0,1
;   temperatureRelayBetweenLayers,0,0
;   temperatureRelayBetweenLoops,0,0
;   fanLayers,1
;   fanSpeeds,0
;   blipFanToFullPower,1
;   adjustSpeedForCooling,1
;   minSpeedLayerTime,15
;   minCoolingSpeedSlowdown,30
;   increaseFanForCooling,0
;   minFanLayerTime,45
;   maxCoolingFanSpeed,100
;   increaseFanForBridging,0
;   bridgingFanSpeed,100
;   use5D,1
;   relativeEdistances,0
;   allowEaxisZeroing,1
;   independentExtruderAxes,0
;   includeM10123,0
;   stickySupport,1
;   applyToolheadOffsets,0
;   gcodeXoffset,0
;   gcodeYoffset,0
;   gcodeZoffset,0
;   overrideMachineDefinition,1
;   machineTypeOverride,0
;   strokeXoverride,200
;   strokeYoverride,200
;   strokeZoverride,150
;   originOffsetXoverride,0
;   originOffsetYoverride,0
;   originOffsetZoverride,0
;   homeXdirOverride,-1
;   homeYdirOverride,-1
;   homeZdirOverride,-1
;   flipXoverride,1
;   flipYoverride,-1
;   flipZoverride,1
;   toolheadOffsets,0,0|0,0|0,0|0,0|0,0|0,0
;   overrideFirmwareConfiguration,1
;   firmwareTypeOverride,RepRap (Marlin/Repetier/Sprinter)
;   GPXconfigOverride,r2
;   baudRateOverride,115200
;   overridePrinterModels,0
;   printerModelsOverride
;   startingGcode,G28,
;   layerChangeGcode,
;   retractionGcode,
;   toolChangeGcode,
;   endingGcode,M104 S0 ; turn off extruder,M140 S0 ; turn off bed,G28 X0 ; home X axis,M84 ; disable motors,M107 ; turn off fan
;   createX3G,0
;   celebration,0
;   celebrationSong,Random Song
;   createMB5G,0
;   postProcessing,
;   defaultSpeed,3600
;   outlineUnderspeed,0.7
;   solidInfillUnderspeed,0.8
;   supportUnderspeed,0.8
;   rapidXYspeed,9000
;   rapidZspeed,1002
;   minBridgingArea,5
;   bridgingExtraInflation,0
;   bridgingExtrusionMultiplier,1
;   bridgingSpeedMultiplier,0.3
;   filamentDiameter,1.75
;   filamentPricePerKg,1000
;   filamentDensity,1.25
;   useMinPrintHeight,1
;   minPrintHeight,0
;   useMaxPrintHeight,1
;   maxPrintHeight,2
;   useDiaphragm,0
;   diaphragmLayerInterval,20
;   robustSlicing,1
;   mergeAllIntoSolid,0
;   onlyRetractWhenCrossingOutline,0
;   retractBetweenLayers,0
;   useRetractionMinTravel,0
;   retractionMinTravel,3
;   retractWhileWiping,0
;   onlyWipeOutlines,1
;   avoidCrossingOutline,0
;   maxMovementDetourFactor,3
;   toolChangeRetractionDistance,0
;   toolChangeExtraRestartDistance,0
;   toolChangeRetractionSpeed,360
;   allowThinWallGapFill,1
;   thinWallAllowedOverlapPercentage,10
;   horizontalSizeCompensation,0
G90
M82
M106 S0
M140 S60
M190 S60
M104 S230 T0
M109 S230 T0
G28
G92 E0
G1 E-0.8000 F1800
G1 Z0.225 F1002
; layer 1, Z = 0.225
T0
; tool H0.250 W0.462
; skirt
G1 X68.603 Y36.298 F9000
G1 E0.1200 F540
G92 E0
G1 X74.842 Y30.235 E0.4261 F1800
G1 X74.915 Y30.204 E0.4300
G1 X76.098 Y30.180 E0.4880
G1 X76.173 Y30.208 E0.4919
G1 X97.627 Y49.419 E1.9024
G1 X97.627 Y49.419 E1.9024
G1 X97.629 Y49.421 E1.9025
G1 X97.629 Y49.421 E1.9026
G1 X103.874 Y55.053 E2.3145
G1 X103.875 Y55.053 E2.3145
G1 X103.878 Y55.057 E2.3147
G1 X103.879 Y55.057 E2.3147
G1 X113.198 Y63.575 E2.9332
G1 X113.199 Y63.576 E2.9332
G1 X113.205 Y63.581 E2.9336
G1 X113.205 Y63.581 E2.9336
G1 X121.131 Y70.982 E3.4647
G1 X121.131 Y70.982 E3.4647
G1 X121.134 Y70.985 E3.4649
G1 X121.134 Y70.985 E3.4650
G1 X127.081 Y76.604 E3.8657
G1 X127.081 Y76.604 E3.8657
G1 X127.085 Y76.608 E3.8660
G1 X127.085 Y76.608 E3.8660
G1 X131.454 Y80.795 E4.1624
G1 X131.455 Y80.795 E4.1624
G1 X131.461 Y80.802 E4.1628
G1 X131.462 Y80.802 E4.1629
G1 X137.588 Y86.816 E4.5833
G1 X137.588 Y86.816 E4.5834
G1 X137.595 Y86.824 E4.5839
G1 X137.596 Y86.824 E4.5839
G1 X143.724 Y93.010 E5.0104
G1 X143.725 Y93.010 E5.0104
G1 X143.734 Y93.020 E5.0111
G1 X143.735 Y93.021 E5.0111
G1 X149.576 Y99.138 E5.4254
G1 X149.577 Y99.139 E5.4255
G1 X149.586 Y99.149 E5.4262
G1 X149.587 Y99.150 E5.4262
G1 X153.788 Y103.723 E5.7304
G1 X153.789 Y103.724 E5.7304
G1 X153.800 Y103.737 E5.7313
G1 X153.801 Y103.738 E5.7313
G1 X156.486 Y106.798 E5.9307
G1 X156.486 Y106.799 E5.9308
G1 X156.495 Y106.810 E5.9315
G1 X156.496 Y106.810 E5.9315
G1 X157.818 Y108.375 E6.0319
G1 X157.819 Y108.376 E6.0319
G1 X157.830 Y108.389 E6.0327
G1 X157.830 Y108.390 E6.0328
G1 X160.445 Y111.627 E6.2366
G1 X160.446 Y111.628 E6.2367
G1 X160.456 Y111.641 E6.2375
G1 X160.457 Y111.642 E6.2375
G1 X161.720 Y113.277 E6.3387
G1 X161.721 Y113.278 E6.3388
G1 X161.732 Y113.292 E6.3397
G1 X161.732 Y113.293 E6.3397
G1 X163.929 Y116.280 E6.5213
G1 X163.931 Y116.282 E6.5214
G1 X163.945 Y116.302 E6.5227
G1 X163.946 Y116.304 E6.5228
G1 X164.807 Y117.560 E6.5974
G1 X164.808 Y117.562 E6.5975
G1 X164.826 Y117.590 E6.5991
G1 X164.827 Y117.592 E6.5992
G1 X166.098 Y119.635 E6.7170
G1 X166.100 Y119.637 E6.7172
G1 X166.119 Y119.670 E6.7190
G1 X166.120 Y119.672 E6.7192
G1 X166.601 Y120.540 E6.7678
G1 X166.603 Y120.543 E6.7679
G1 X166.620 Y120.577 E6.7698
G1 X166.621 Y120.579 E6.7699
G1 X167.353 Y122.073 E6.8514
G1 X167.355 Y122.077 E6.8516
G1 X167.381 Y122.137 E6.8548
G1 X167.382 Y122.141 E6.8550
G1 X167.880 Y123.429 E6.9227
G1 X167.882 Y123.434 E6.9229
G1 X167.906 Y123.507 E6.9267
G1 X167.908 Y123.512 E6.9269
G1 X168.222 Y124.659 E6.9852
G1 X168.223 Y124.666 E6.9855
G1 X168.243 Y124.763 E6.9904
G1 X168.244 Y124.770 E6.9907
G1 X168.379 Y125.755 E7.0395
G1 X168.380 Y125.766 E7.0400
G1 X168.385 Y125.922 E7.0476
G1 X168.385 Y125.933 E7.0481
G1 X168.331 Y126.696 E7.0856
G1 X168.330 Y126.706 E7.0861
G1 X168.305 Y126.853 E7.0934
G1 X168.302 Y126.863 E7.0939
G1 X168.203 Y127.224 E7.1123
G1 X168.201 Y127.231 E7.1126
G1 X168.162 Y127.340 E7.1183
G1 X168.159 Y127.347 E7.1187
G1 X167.931 Y127.855 E7.1459
G1 X167.926 Y127.865 E7.1465
G1 X167.838 Y128.013 E7.1549
G1 X167.832 Y128.023 E7.1555
G1 X167.395 Y128.598 E7.1909
G1 X167.386 Y128.609 E7.1916
G1 X167.242 Y128.753 E7.2015
G1 X167.232 Y128.762 E7.2022
G1 X166.649 Y129.207 E7.2381
G1 X166.640 Y129.213 E7.2386
G1 X166.503 Y129.297 E7.2465
G1 X166.493 Y129.302 E7.2471
G1 X165.981 Y129.542 E7.2747
G1 X165.975 Y129.545 E7.2751
G1 X165.875 Y129.584 E7.2803
G1 X165.868 Y129.586 E7.2807
G1 X165.516 Y129.694 E7.2987
G1 X165.508 Y129.696 E7.2991
G1 X165.395 Y129.721 E7.3048
G1 X165.387 Y129.723 E7.3052
G1 X164.607 Y129.835 E7.3438
G1 X164.599 Y129.836 E7.3442
G1 X164.487 Y129.844 E7.3497
G1 X164.479 Y129.844 E7.3501
G1 X163.407 Y129.837 E7.4026
G1 X163.402 Y129.837 E7.4029
G1 X163.319 Y129.832 E7.4069
G1 X163.314 Y129.831 E7.4072
G1 X162.018 Y129.680 E7.4711
G1 X162.012 Y129.679 E7.4713
G1 X161.933 Y129.666 E7.4753
G1 X161.927 Y129.665 E7.4756
G1 X160.470 Y129.333 E7.5488
G1 X160.465 Y129.332 E7.5490
G1 X160.395 Y129.312 E7.5526
G1 X160.390 Y129.311 E7.5528
G1 X158.712 Y128.754 E7.6394
G1 X158.709 Y128.753 E7.6396
G1 X158.667 Y128.738 E7.6418
G1 X158.664 Y128.737 E7.6419
G1 X157.699 Y128.353 E7.6928
G1 X157.697 Y128.352 E7.6929
G1 X157.668 Y128.340 E7.6944
G1 X157.666 Y128.339 E7.6945
G1 X156.597 Y127.861 E7.7519
G1 X156.595 Y127.860 E7.7520
G1 X156.567 Y127.847 E7.7535
G1 X156.565 Y127.846 E7.7536
G1 X155.357 Y127.247 E7.8197
G1 X155.356 Y127.246 E7.8198
G1 X155.331 Y127.234 E7.8211
G1 X155.329 Y127.233 E7.8212
G1 X153.956 Y126.488 E7.8977
G1 X153.954 Y126.487 E7.8978
G1 X153.934 Y126.475 E7.8990
G1 X153.932 Y126.474 E7.8991
G1 X152.367 Y125.559 E7.9879
G1 X152.366 Y125.559 E7.9879
G1 X152.350 Y125.549 E7.9889
G1 X152.349 Y125.549 E7.9889
G1 X150.655 Y124.502 E8.0864
G1 X150.654 Y124.501 E8.0865
G1 X150.641 Y124.493 E8.0873
G1 X150.640 Y124.493 E8.0873
G1 X148.879 Y123.354 E8.1900
G1 X148.878 Y123.354 E8.1900
G1 X148.865 Y123.345 E8.1908
G1 X148.865 Y123.344 E8.1909
G1 X147.100 Y122.151 E8.2952
G1 X147.099 Y122.150 E8.2953
G1 X147.085 Y122.141 E8.2961
G1 X147.085 Y122.140 E8.2961
G1 X145.380 Y120.933 E8.3984
G1 X145.379 Y120.932 E8.3985
G1 X145.366 Y120.922 E8.3993
G1 X145.365 Y120.922 E8.3993
G1 X143.708 Y119.694 E8.5003
G1 X143.707 Y119.693 E8.5004
G1 X143.695 Y119.684 E8.5011
G1 X143.695 Y119.684 E8.5012
G1 X142.071 Y118.429 E8.6017
G1 X142.070 Y118.429 E8.6017
G1 X142.055 Y118.417 E8.6027
G1 X142.053 Y118.416 E8.6028
G1 X138.866 Y115.819 E8.8041
G1 X138.864 Y115.818 E8.8042
G1 X138.849 Y115.805 E8.8052
G1 X138.848 Y115.804 E8.8053
G1 X135.687 Y113.084 E9.0095
G1 X135.686 Y113.083 E9.0096
G1 X135.676 Y113.074 E9.0103
G1 X135.675 Y113.073 E9.0103
G1 X132.532 Y110.265 E9.2168
G1 X132.532 Y110.264 E9.2168
G1 X132.523 Y110.257 E9.2174
G1 X132.523 Y110.256 E9.2174
G1 X129.407 Y107.386 E9.4249
G1 X129.407 Y107.386 E9.4249
G1 X129.398 Y107.377 E9.4255
G1 X129.397 Y107.376 E9.4256
G1 X126.346 Y104.470 E9.6319
G1 X126.346 Y104.470 E9.6320
G1 X126.336 Y104.461 E9.6326
G1 X126.336 Y104.460 E9.6326
G1 X123.316 Y101.484 E9.8403
G1 X123.315 Y101.484 E9.8404
G1 X123.307 Y101.476 E9.8409
G1 X123.307 Y101.475 E9.8409
G1 X120.349 Y98.473 E10.0473
G1 X120.349 Y98.472 E10.0474
G1 X120.342 Y98.465 E10.0479
G1 X120.341 Y98.464 E10.0479
G1 X115.936 Y93.868 E10.3597
G1 X115.936 Y93.868 E10.3598
G1 X115.930 Y93.861 E10.3602
G1 X115.930 Y93.861 E10.3602
G1 X111.578 Y89.218 E10.6719
G1 X111.578 Y89.218 E10.6719
G1 X111.572 Y89.211 E10.6724
G1 X111.571 Y89.210 E10.6724
G1 X108.709 Y86.078 E10.8802
G1 X108.709 Y86.077 E10.8803
G1 X108.703 Y86.071 E10.8807
G1 X108.703 Y86.071 E10.8807
G1 X105.865 Y82.897 E11.0892
G1 X105.865 Y82.897 E11.0892
G1 X105.860 Y82.891 E11.0896
G1 X105.859 Y82.891 E11.0896
G1 X98.789 Y74.815 E11.6154
G1 X98.788 Y74.814 E11.6154
G1 X98.782 Y74.807 E11.6159
G1 X98.782 Y74.807 E11.6159
G1 X94.684 Y70.006 E11.9250
G1 X94.684 Y70.006 E11.9250
G1 X94.679 Y70.000 E11.9254
G1 X94.679 Y69.999 E11.9255
G1 X87.952 Y61.948 E12.4394
G1 X87.952 Y61.947 E12.4394
G1 X87.946 Y61.940 E12.4398
G1 X87.945 Y61.940 E12.4399
G1 X83.889 Y56.965 E12.7542
G1 X83.888 Y56.965 E12.7543
G1 X83.884 Y56.959 E12.7546
G1 X83.884 Y56.959 E12.7546
G1 X73.376 Y43.824 E13.5785
G1 X73.376 Y43.824 E13.5785
G1 X73.370 Y43.817 E13.5790
G1 X73.370 Y43.816 E13.5790
G1 X68.514 Y37.589 E13.9658
G1 X68.491 Y37.515 E13.9696
G1 X68.562 Y36.490 E14.0199
G1 X68.570 Y36.368 F1800
G1 X68.603 Y36.298 F1800
G92 E0
G1 E-0.8000 F1800
; inner perimeter
G1 X75.559 Y32.749 F9000
G1 E0.1200 F1800
G92 E0
G1 X80.787 Y37.431 E0.3438 F1530
G1 X75.399 Y42.667 E0.7118
G1 X75.180 Y42.393 E0.7289
G1 X72.218 Y38.614 E0.9641
G1 X71.063 Y37.118 E1.0567
G1 X75.415 Y32.888 E1.3539
G1 X75.559 Y32.749 F1530
G92 E0
G1 E-0.8000 F1800
G1 X83.684 Y40.025 F9000
G1 E0.1200 F1800
G92 E0
G1 X96.087 Y51.132 E0.8155 F1530
G1 X102.328 Y56.760 E1.2271
G1 X106.953 Y60.967 E1.5334
G1 X109.282 Y63.106 E1.6882
G1 X99.738 Y72.380 E2.3400
G1 X96.440 Y68.516 E2.5888
G1 X92.413 Y63.722 E2.8955
G1 X89.726 Y60.479 E3.1018
G1 X85.677 Y55.514 E3.4156
G1 X81.688 Y50.558 E3.7272
G1 X77.830 Y45.717 E4.0304
G1 X83.540 Y40.164 E4.4205
G1 X83.684 Y40.025 F1530
G92 E0
G1 E-0.8000 F1800
G1 X110.601 Y64.317 F9000
G1 E0.1200 F1800
G92 E0
G1 X111.639 Y65.270 E0.0690 F1530
G1 X114.815 Y68.218 E0.2813
G1 X119.555 Y72.661 E0.5995
G1 X125.450 Y78.231 E0.9968
G1 X114.453 Y88.917 E1.7478
G1 X113.265 Y87.650 E1.8329
G1 X110.414 Y84.530 E2.0399
G1 X107.587 Y81.368 E2.2476
G1 X103.334 Y76.537 E2.5629
G1 X100.905 Y73.739 E2.7444
G1 X110.457 Y64.456 E3.3968
G1 X110.601 Y64.317 F1530
G92 E0
G1 E-0.8000 F1800
G1 X126.838 Y79.561 F9000
G1 E0.1200 F1800
G92 E0
G1 X129.855 Y82.452 E0.2047 F1530
G1 X132.893 Y85.416 E0.4126
G1 X134.961 Y87.458 E0.5549
G1 X123.604 Y98.495 E1.3306
G1 X121.997 Y96.864 E1.4427
G1 X117.605 Y92.280 E1.7537
G1 X115.766 Y90.319 E1.8853
G1 X126.694 Y79.700 E2.6317
G1 X126.838 Y79.561 F1530
G92 E0
G1 E-0.8000 F1800
G1 X136.235 Y88.721 F9000
G1 E0.1200 F1800
G92 E0
G1 X140.584 Y93.091 E0.3020 F1530
G1 X141.981 Y94.521 E0.3999
G1 X130.725 Y105.461 E1.1687
G1 X127.943 Y102.811 E1.3569
G1 X124.861 Y99.773 E1.5689
G1 X136.091 Y88.860 E2.3358
G1 X136.235 Y88.721 F1530
G92 E0
G1 E-0.8000 F1800
G1 X143.223 Y95.810 F9000
G1 E0.1200 F1800
G92 E0
G1 X145.020 Y97.675 E0.1269 F1530
G1 X147.901 Y100.719 E0.3321
G1 X149.315 Y102.236 E0.4337
G1 X152.081 Y105.269 E0.6348
G1 X153.423 Y106.782 E0.7338
G1 X154.744 Y108.305 E0.8326
G1 X156.051 Y109.852 E0.9317
G1 X156.883 Y110.867 E0.9960
G1 X147.722 Y119.770 E1.6217
G1 X146.724 Y119.062 E1.6817
G1 X145.091 Y117.852 E1.7812
G1 X143.491 Y116.616 E1.8802
G1 X141.910 Y115.350 E1.9794
G1 X140.336 Y114.047 E2.0795
G1 X138.765 Y112.711 E2.1805
G1 X137.201 Y111.349 E2.2821
G1 X134.075 Y108.555 E2.4875
G1 X132.039 Y106.679 E2.6231
G1 X143.080 Y95.949 E3.3772
G1 X143.223 Y95.810 F1530
G92 E0
G1 E-0.8000 F1800
G1 X158.014 Y112.271 F9000
G1 E0.1200 F1800
G92 E0
G1 X158.642 Y113.060 E0.0494 F1530
G1 X159.889 Y114.674 E0.1493
G1 X161.043 Y116.215 E0.2436
G1 X162.058 Y117.622 E0.3286
G1 X162.891 Y118.840 E0.4008
G1 X163.570 Y119.894 E0.4623
G1 X164.121 Y120.815 E0.5148
G1 X164.572 Y121.630 E0.5604
G1 X164.949 Y122.366 E0.6009
G1 X165.214 Y122.935 E0.6317
G1 X164.238 Y123.885 E0.6984
G1 X164.716 Y124.418 E0.7334
G1 X165.467 Y125.191 E0.7862
G1 X165.882 Y124.787 E0.8146
G1 X165.977 Y125.179 E0.8343
