; G-Code generated by Simplify3D(R) Version 3.0.2
; ríj 24, 2016 at 9:50:20 ODP.
; Settings Summary
;   processName,wing2per
;   applyToModels,wingL_3
;   profileName,Default (modified)
;   profileVersion,2016-04-14 15:44:02
;   baseProfile,Default
;   printMaterial,
;   printQuality,
;   printExtruders,
;   extruderName,Primary Extruder
;   extruderToolheadNumber,0
;   extruderDiameter,0.4
;   extruderAutoWidth,0
;   extruderWidth,0.42
;   extrusionMultiplier,1.02
;   extruderUseRetract,1
;   extruderRetractionDistance,0.8
;   extruderExtraRestartDistance,0.12
;   extruderRetractionZLift,0
;   extruderRetractionSpeed,1800
;   extruderUseCoasting,1
;   extruderCoastingDistance,0.2
;   extruderUseWipe,1
;   extruderWipeDistance,2
;   primaryExtruder,0
;   layerHeight,0.25
;   topSolidLayers,0
;   bottomSolidLayers,0
;   perimeterOutlines,2
;   printPerimetersInsideOut,1
;   startPointOption,3
;   startPointOriginX,300
;   startPointOriginY,0
;   startPointOriginZ,-300
;   sequentialIslands,0
;   spiralVaseMode,0
;   firstLayerHeightPercentage,90
;   firstLayerWidthPercentage,110
;   firstLayerUnderspeed,0.5
;   useRaft,0
;   raftExtruder,0
;   raftLayers,3
;   raftOffset,3
;   raftSeparationDistance,0.14
;   raftInfill,85
;   disableRaftBaseLayers,0
;   useSkirt,1
;   skirtExtruder,0
;   skirtLayers,1
;   skirtOutlines,1
;   skirtOffset,1.4
;   usePrimePillar,0
;   primePillarExtruder,999
;   primePillarWidth,12
;   primePillarLocation,7
;   primePillarSpeedMultiplier,1
;   useOozeShield,0
;   oozeShieldExtruder,999
;   oozeShieldOffset,2
;   oozeShieldOutlines,1
;   oozeShieldSidewallShape,1
;   oozeShieldSidewallAngle,30
;   oozeShieldSpeedMultiplier,1
;   infillExtruder,0
;   internalInfillPattern,Rectilinear
;   externalInfillPattern,Rectilinear
;   infillPercentage,0
;   outlineOverlapPercentage,15
;   infillExtrusionWidthPercentage,100
;   minInfillLength,5
;   infillLayerInterval,1
;   infillAngles,45,-45
;   overlapInfillAngles,0
;   generateSupport,0
;   supportExtruder,0
;   supportInfillPercentage,30
;   supportExtraInflation,0
;   denseSupportLayers,0
;   denseSupportInfillPercentage,70
;   supportLayerInterval,1
;   supportHorizontalPartOffset,0.3
;   supportUpperSeparationLayers,1
;   supportLowerSeparationLayers,1
;   supportType,0
;   supportGridSpacing,4
;   maxOverhangAngle,45
;   supportAngles,0
;   temperatureName,Primary Extruder,Heated Bed
;   temperatureNumber,0,1
;   temperatureSetpointCount,1,1
;   temperatureSetpointLayers,1,1
;   temperatureSetpointTemperatures,230,60
;   temperatureStabilizeAtStartup,1,1
;   temperatureHeatedBed,0,1
;   temperatureRelayBetweenLayers,0,0
;   temperatureRelayBetweenLoops,0,0
;   fanLayers,1
;   fanSpeeds,0
;   blipFanToFullPower,1
;   adjustSpeedForCooling,1
;   minSpeedLayerTime,15
;   minCoolingSpeedSlowdown,30
;   increaseFanForCooling,0
;   minFanLayerTime,45
;   maxCoolingFanSpeed,100
;   increaseFanForBridging,0
;   bridgingFanSpeed,100
;   use5D,1
;   relativeEdistances,0
;   allowEaxisZeroing,1
;   independentExtruderAxes,0
;   includeM10123,0
;   stickySupport,1
;   applyToolheadOffsets,0
;   gcodeXoffset,0
;   gcodeYoffset,0
;   gcodeZoffset,0
;   overrideMachineDefinition,1
;   machineTypeOverride,0
;   strokeXoverride,200
;   strokeYoverride,200
;   strokeZoverride,150
;   originOffsetXoverride,0
;   originOffsetYoverride,0
;   originOffsetZoverride,0
;   homeXdirOverride,-1
;   homeYdirOverride,-1
;   homeZdirOverride,-1
;   flipXoverride,1
;   flipYoverride,-1
;   flipZoverride,1
;   toolheadOffsets,0,0|0,0|0,0|0,0|0,0|0,0
;   overrideFirmwareConfiguration,1
;   firmwareTypeOverride,RepRap (Marlin/Repetier/Sprinter)
;   GPXconfigOverride,r2
;   baudRateOverride,115200
;   overridePrinterModels,0
;   printerModelsOverride
;   startingGcode,G28,
;   layerChangeGcode,
;   retractionGcode,
;   toolChangeGcode,
;   endingGcode,M104 S0 ; turn off extruder,M140 S0 ; turn off bed,G28 X0 ; home X axis,M84 ; disable motors,M107 ; turn off fan
;   createX3G,0
;   celebration,0
;   celebrationSong,Random Song
;   createMB5G,0
;   postProcessing,
;   defaultSpeed,3600
;   outlineUnderspeed,0.7
;   solidInfillUnderspeed,0.8
;   supportUnderspeed,0.8
;   rapidXYspeed,9000
;   rapidZspeed,1002
;   minBridgingArea,5
;   bridgingExtraInflation,0
;   bridgingExtrusionMultiplier,1
;   bridgingSpeedMultiplier,0.3
;   filamentDiameter,1.75
;   filamentPricePerKg,1000
;   filamentDensity,1.25
;   useMinPrintHeight,1
;   minPrintHeight,0
;   useMaxPrintHeight,1
;   maxPrintHeight,2
;   useDiaphragm,0
;   diaphragmLayerInterval,20
;   robustSlicing,1
;   mergeAllIntoSolid,0
;   onlyRetractWhenCrossingOutline,0
;   retractBetweenLayers,0
;   useRetractionMinTravel,0
;   retractionMinTravel,3
;   retractWhileWiping,0
;   onlyWipeOutlines,1
;   avoidCrossingOutline,0
;   maxMovementDetourFactor,3
;   toolChangeRetractionDistance,0
;   toolChangeExtraRestartDistance,0
;   toolChangeRetractionSpeed,360
;   allowThinWallGapFill,1
;   thinWallAllowedOverlapPercentage,10
;   horizontalSizeCompensation,0
G90
M82
M106 S0
M140 S60
M190 S60
M104 S230 T0
M109 S230 T0
G28
G92 E0
G1 E-0.8000 F1800
G1 Z0.225 F1002
; layer 1, Z = 0.225
T0
; tool H0.250 W0.462
; skirt
G1 X63.692 Y73.594 F9000
G1 E0.1200 F540
G92 E0
G1 X63.692 Y73.594 E0.0000 F1800
G1 X75.710 Y62.053 E0.8161
G1 X75.711 Y62.053 E0.8161
G1 X75.716 Y62.048 E0.8165
G1 X75.717 Y62.047 E0.8165
G1 X81.984 Y56.147 E1.2381
G1 X81.985 Y56.147 E1.2382
G1 X81.989 Y56.143 E1.2384
G1 X81.989 Y56.143 E1.2384
G1 X88.116 Y50.458 E1.6478
G1 X88.116 Y50.458 E1.6478
G1 X88.119 Y50.456 E1.6480
G1 X88.119 Y50.456 E1.6480
G1 X92.745 Y46.200 E1.9559
G1 X92.748 Y46.198 E1.9561
G1 X92.748 Y46.198 E1.9561
G1 X115.591 Y25.357 E3.4706
G1 X115.666 Y25.329 E3.4745
G1 X116.849 Y25.342 E3.5325
G1 X116.923 Y25.372 E3.5364
G1 X123.217 Y31.377 E3.9624
G1 X123.250 Y31.447 E3.9662
G1 X123.340 Y32.591 E4.0225
G1 X123.319 Y32.665 E4.0262
G1 X119.631 Y37.504 E4.3242
G1 X119.630 Y37.505 E4.3243
G1 X119.625 Y37.511 E4.3247
G1 X119.625 Y37.512 E4.3247
G1 X113.381 Y45.516 E4.8219
G1 X113.381 Y45.516 E4.8219
G1 X113.377 Y45.520 E4.8222
G1 X113.377 Y45.520 E4.8222
G1 X105.453 Y55.529 E5.4475
G1 X105.453 Y55.529 E5.4475
G1 X105.448 Y55.535 E5.4479
G1 X105.448 Y55.535 E5.4479
G1 X102.775 Y58.843 E5.6562
G1 X102.774 Y58.843 E5.6562
G1 X102.770 Y58.848 E5.6565
G1 X102.770 Y58.849 E5.6565
G1 X97.451 Y65.318 E6.0668
G1 X97.450 Y65.319 E6.0668
G1 X97.446 Y65.324 E6.0671
G1 X97.446 Y65.324 E6.0672
G1 X93.393 Y70.161 E6.3762
G1 X93.393 Y70.161 E6.3763
G1 X93.388 Y70.167 E6.3766
G1 X93.388 Y70.168 E6.3766
G1 X89.200 Y75.066 E6.6923
G1 X89.199 Y75.066 E6.6923
G1 X89.196 Y75.071 E6.6926
G1 X89.195 Y75.071 E6.6926
G1 X84.984 Y79.919 E7.0072
G1 X84.984 Y79.919 E7.0072
G1 X84.979 Y79.925 E7.0076
G1 X84.978 Y79.925 E7.0076
G1 X82.160 Y83.104 E7.2156
G1 X82.160 Y83.104 E7.2157
G1 X82.153 Y83.112 E7.2162
G1 X82.152 Y83.113 E7.2162
G1 X77.866 Y87.813 E7.5278
G1 X77.865 Y87.814 E7.5278
G1 X77.859 Y87.820 E7.5283
G1 X77.859 Y87.821 E7.5283
G1 X73.512 Y92.478 E7.8403
G1 X73.511 Y92.479 E7.8404
G1 X73.504 Y92.487 E7.8409
G1 X73.503 Y92.487 E7.8410
G1 X69.116 Y97.051 E8.1510
G1 X69.115 Y97.052 E8.1511
G1 X69.106 Y97.062 E8.1518
G1 X69.105 Y97.062 E8.1518
G1 X66.112 Y100.067 E8.3595
G1 X66.111 Y100.067 E8.3596
G1 X66.102 Y100.076 E8.3602
G1 X66.102 Y100.077 E8.3602
G1 X63.077 Y103.012 E8.5667
G1 X63.076 Y103.013 E8.5667
G1 X63.065 Y103.023 E8.5675
G1 X63.064 Y103.024 E8.5675
G1 X58.420 Y107.348 E8.8783
G1 X58.419 Y107.349 E8.8784
G1 X58.408 Y107.359 E8.8791
G1 X58.408 Y107.359 E8.8791
G1 X55.282 Y110.158 E9.0846
G1 X55.281 Y110.159 E9.0847
G1 X55.268 Y110.170 E9.0855
G1 X55.268 Y110.171 E9.0856
G1 X52.121 Y112.862 E9.2884
G1 X52.120 Y112.862 E9.2884
G1 X52.106 Y112.873 E9.2893
G1 X52.106 Y112.874 E9.2893
G1 X50.515 Y114.172 E9.3899
G1 X50.514 Y114.173 E9.3899
G1 X50.504 Y114.181 E9.3906
G1 X50.503 Y114.182 E9.3906
G1 X48.893 Y115.449 E9.4910
G1 X48.893 Y115.449 E9.4910
G1 X48.881 Y115.459 E9.4918
G1 X48.880 Y115.459 E9.4918
G1 X47.234 Y116.702 E9.5928
G1 X47.233 Y116.703 E9.5929
G1 X47.221 Y116.712 E9.5937
G1 X47.220 Y116.713 E9.5937
G1 X45.526 Y117.936 E9.6960
G1 X45.525 Y117.937 E9.6961
G1 X45.512 Y117.946 E9.6969
G1 X45.511 Y117.947 E9.6970
G1 X43.757 Y119.157 E9.8013
G1 X43.756 Y119.157 E9.8014
G1 X43.743 Y119.166 E9.8021
G1 X43.743 Y119.167 E9.8022
G1 X41.993 Y120.321 E9.9049
G1 X41.992 Y120.322 E9.9049
G1 X41.979 Y120.330 E9.9057
G1 X41.978 Y120.331 E9.9057
G1 X40.293 Y121.393 E10.0033
G1 X40.292 Y121.393 E10.0033
G1 X40.277 Y121.403 E10.0042
G1 X40.276 Y121.404 E10.0043
G1 X38.719 Y122.333 E10.0931
G1 X38.717 Y122.334 E10.0932
G1 X38.697 Y122.346 E10.0943
G1 X38.695 Y122.347 E10.0944
G1 X37.329 Y123.104 E10.1710
G1 X37.327 Y123.105 E10.1710
G1 X37.302 Y123.118 E10.1724
G1 X37.301 Y123.119 E10.1725
G1 X36.098 Y123.729 E10.2386
G1 X36.096 Y123.730 E10.2387
G1 X36.069 Y123.743 E10.2401
G1 X36.067 Y123.744 E10.2402
G1 X35.002 Y124.232 E10.2976
G1 X35.000 Y124.233 E10.2977
G1 X34.971 Y124.245 E10.2992
G1 X34.969 Y124.246 E10.2993
G1 X34.007 Y124.639 E10.3503
G1 X34.005 Y124.640 E10.3504
G1 X33.963 Y124.656 E10.3526
G1 X33.960 Y124.657 E10.3527
G1 X32.287 Y125.229 E10.4393
G1 X32.282 Y125.230 E10.4396
G1 X32.213 Y125.250 E10.4431
G1 X32.208 Y125.252 E10.4434
G1 X30.763 Y125.594 E10.5161
G1 X30.759 Y125.595 E10.5163
G1 X30.699 Y125.607 E10.5193
G1 X30.695 Y125.608 E10.5195
G1 X30.004 Y125.713 E10.5537
G1 X30.000 Y125.714 E10.5539
G1 X29.941 Y125.720 E10.5569
G1 X29.936 Y125.721 E10.5571
G1 X28.768 Y125.805 E10.6145
G1 X28.763 Y125.805 E10.6147
G1 X28.696 Y125.807 E10.6180
G1 X28.692 Y125.807 E10.6182
G1 X28.163 Y125.798 E10.6441
G1 X28.157 Y125.797 E10.6444
G1 X28.069 Y125.791 E10.6487
G1 X28.063 Y125.790 E10.6490
G1 X27.276 Y125.684 E10.6879
G1 X27.266 Y125.682 E10.6884
G1 X27.118 Y125.647 E10.6959
G1 X27.107 Y125.644 E10.6964
G1 X26.505 Y125.433 E10.7276
G1 X26.494 Y125.429 E10.7282
G1 X26.346 Y125.358 E10.7362
G1 X26.336 Y125.352 E10.7368
G1 X25.698 Y124.957 E10.7736
G1 X25.688 Y124.951 E10.7741
G1 X25.557 Y124.847 E10.7823
G1 X25.548 Y124.840 E10.7829
G1 X25.190 Y124.488 E10.8075
G1 X25.183 Y124.481 E10.8080
G1 X25.094 Y124.376 E10.8147
G1 X25.088 Y124.368 E10.8152
G1 X24.803 Y123.960 E10.8396
G1 X24.797 Y123.952 E10.8400
G1 X24.730 Y123.834 E10.8467
G1 X24.725 Y123.826 E10.8472
G1 X24.501 Y123.337 E10.8735
G1 X24.498 Y123.329 E10.8739
G1 X24.458 Y123.221 E10.8796
G1 X24.455 Y123.213 E10.8800
G1 X24.353 Y122.854 E10.8983
G1 X24.350 Y122.844 E10.8988
G1 X24.324 Y122.697 E10.9061
G1 X24.323 Y122.687 E10.9066
G1 X24.263 Y121.940 E10.9433
G1 X24.262 Y121.932 E10.9437
G1 X24.263 Y121.809 E10.9497
G1 X24.263 Y121.800 E10.9501
G1 X24.305 Y121.295 E10.9750
G1 X24.306 Y121.289 E10.9753
G1 X24.318 Y121.203 E10.9795
G1 X24.319 Y121.197 E10.9798
G1 X24.531 Y120.142 E11.0325
G1 X24.533 Y120.137 E11.0328
G1 X24.554 Y120.055 E11.0369
G1 X24.556 Y120.049 E11.0372
G1 X24.947 Y118.831 E11.0999
G1 X24.948 Y118.826 E11.1001
G1 X24.973 Y118.759 E11.1036
G1 X24.975 Y118.754 E11.1039
G1 X25.571 Y117.366 E11.1779
G1 X25.573 Y117.362 E11.1781
G1 X25.597 Y117.311 E11.1809
G1 X25.599 Y117.307 E11.1811
G1 X26.459 Y115.660 E11.2721
G1 X26.461 Y115.657 E11.2723
G1 X26.486 Y115.613 E11.2747
G1 X26.487 Y115.610 E11.2749
G1 X27.743 Y113.551 E11.3930
G1 X27.744 Y113.549 E11.3931
G1 X27.762 Y113.521 E11.3948
G1 X27.763 Y113.519 E11.3949
G1 X28.631 Y112.226 E11.4712
G1 X28.632 Y112.224 E11.4713
G1 X28.647 Y112.203 E11.4725
G1 X28.648 Y112.202 E11.4726
G1 X30.800 Y109.222 E11.6526
G1 X30.801 Y109.220 E11.6527
G1 X30.814 Y109.202 E11.6538
G1 X30.815 Y109.201 E11.6539
G1 X33.351 Y105.905 E11.8576
G1 X33.352 Y105.904 E11.8577
G1 X33.362 Y105.891 E11.8585
G1 X33.363 Y105.890 E11.8585
G1 X34.662 Y104.276 E11.9600
G1 X34.663 Y104.275 E11.9601
G1 X34.673 Y104.263 E11.9608
G1 X34.673 Y104.262 E11.9609
G1 X37.295 Y101.142 E12.1605
G1 X37.296 Y101.141 E12.1605
G1 X37.307 Y101.129 E12.1614
G1 X37.307 Y101.128 E12.1614
G1 X40.011 Y98.053 E12.3620
G1 X40.012 Y98.052 E12.3620
G1 X40.022 Y98.041 E12.3628
G1 X40.022 Y98.040 E12.3628
G1 X44.242 Y93.426 E12.6690
G1 X44.242 Y93.426 E12.6691
G1 X44.251 Y93.416 E12.6697
G1 X44.252 Y93.416 E12.6697
G1 X50.097 Y87.236 E13.0864
G1 X50.097 Y87.235 E13.0864
G1 X50.105 Y87.227 E13.0870
G1 X50.105 Y87.227 E13.0870
G1 X53.166 Y84.081 E13.3020
G1 X53.167 Y84.081 E13.3020
G1 X53.172 Y84.075 E13.3024
G1 X53.173 Y84.075 E13.3024
G1 X59.267 Y77.944 E13.7258
G1 X59.268 Y77.944 E13.7259
G1 X59.274 Y77.938 E13.7263
G1 X59.274 Y77.937 E13.7263
G1 X63.549 Y73.734 E14.0199
G1 X63.685 Y73.601 F1800
G1 X63.686 Y73.600 F1800
G1 X63.692 Y73.594 F1800
G92 E0
G1 E-0.8000 F1800
; inner perimeter
G1 X116.229 Y27.893 F9000
G1 E0.1200 F1800
G92 E0
G1 X120.763 Y32.219 E0.3069 F1530
G1 X117.804 Y36.101 E0.5460
G1 X116.476 Y37.805 E0.6519
G1 X111.044 Y32.623 E1.0195
G1 X116.081 Y28.028 E1.3535
G1 X116.229 Y27.893 F1530
G92 E0
G1 E-0.8000 F1800
G1 X108.172 Y35.243 F9000
G1 E0.1200 F1800
G92 E0
G1 X114.076 Y40.881 E0.3998 F1530
G1 X111.567 Y44.096 E0.5996
G1 X106.320 Y50.750 E1.0146
G1 X103.652 Y54.093 E1.2241
G1 X100.987 Y57.391 E1.4318
G1 X98.332 Y60.637 E1.6372
G1 X95.677 Y63.849 E1.8413
G1 X92.414 Y67.744 E2.0902
G1 X82.785 Y58.557 E2.7420
G1 X83.559 Y57.828 E2.7941
G1 X89.681 Y52.148 E3.2031
G1 X94.303 Y47.896 E3.5108
G1 X108.024 Y35.378 E4.4205
G1 X108.172 Y35.243 F1530
G92 E0
G1 E-0.8000 F1800
G1 X81.481 Y59.784 F9000
G1 E0.1200 F1800
G92 E0
G1 X91.260 Y69.113 E0.6619 F1530
G1 X87.453 Y73.565 E0.9489
G1 X83.250 Y78.403 E1.2627
G1 X80.442 Y81.570 E1.4700
G1 X79.029 Y83.137 E1.5734
G1 X77.854 Y84.418 E1.6585
G1 X66.761 Y73.835 E2.4095
G1 X72.599 Y68.208 E2.8066
G1 X77.300 Y63.720 E3.1249
G1 X81.336 Y59.921 E3.3964
G1 X81.481 Y59.784 F1530
G92 E0
G1 E-0.8000 F1800
G1 X65.376 Y75.168 F9000
G1 E0.1200 F1800
G92 E0
G1 X76.556 Y85.834 E0.7568 F1530
G1 X76.170 Y86.255 E0.7848
G1 X71.835 Y90.900 E1.0960
G1 X68.924 Y93.948 E1.3024
G1 X68.795 Y94.082 E1.3116
G1 X57.330 Y83.144 E2.0876
G1 X57.857 Y82.611 E2.1243
G1 X60.894 Y79.574 E2.3347
G1 X65.233 Y75.308 E2.6328
G1 X65.376 Y75.168 F1530
G92 E0
G1 E-0.8000 F1800
G1 X56.070 Y84.419 F9000
G1 E0.1200 F1800
G92 E0
G1 X67.544 Y95.367 E0.7767 F1530
G1 X64.489 Y98.433 E0.9888
G1 X61.732 Y101.108 E1.1769
G1 X50.376 Y90.272 E1.9457
G1 X51.762 Y88.827 E2.0437
G1 X54.812 Y85.692 E2.2580
G1 X55.929 Y84.562 E2.3358
G1 X56.070 Y84.419 F1530
G92 E0
G1 E-0.8000 F1800
G1 X49.148 Y91.574 F9000
G1 E0.1200 F1800
G92 E0
G1 X60.433 Y102.342 E0.7640 F1530
G1 X59.954 Y102.795 E0.7963
G1 X56.862 Y105.652 E1.0025
G1 X53.756 Y108.433 E1.2067
G1 X52.201 Y109.781 E1.3075
G1 X50.638 Y111.099 E1.4076
G1 X49.069 Y112.380 E1.5068
G1 X47.480 Y113.630 E1.6058
G1 X45.858 Y114.855 E1.7054
G1 X44.867 Y115.572 E1.7653
G1 X35.624 Y106.753 E2.3910
G1 X36.448 Y105.731 E2.4553
G1 X37.740 Y104.173 E2.5545
G1 X39.046 Y102.638 E2.6532
G1 X41.733 Y99.582 E2.8525
G1 X43.112 Y98.055 E2.9533
G1 X45.933 Y94.990 E3.1573
G1 X49.011 Y91.720 E3.3773
G1 X49.148 Y91.574 F1530
G92 E0
G1 E-0.8000 F1800
G1 X34.506 Y108.167 F9000
G1 E0.1200 F1800
G92 E0
G1 X43.371 Y116.625 E0.6001 F1530
G1 X42.462 Y117.252 E0.6542
G1 X40.737 Y118.391 E0.7555
G1 X39.080 Y119.435 E0.8514
G1 X37.558 Y120.344 E0.9382
G1 X36.235 Y121.077 E1.0123
G1 X35.082 Y121.662 E1.0756
G1 X34.070 Y122.126 E1.1301
G1 X33.169 Y122.494 E1.1778
G1 X32.351 Y122.793 E1.2205
G1 X31.702 Y122.998 E1.2538
G1 X30.461 Y121.815 E1.3378
G1 X29.222 Y123.111 E1.4256
G1 X29.570 Y123.442 E1.4491
