; G-Code generated by Simplify3D(R) Version 3.0.2
; ríj 24, 2016 at 9:51:26 ODP.
; Settings Summary
;   processName,wing2per
;   applyToModels,wingL_4
;   profileName,Default (modified)
;   profileVersion,2016-04-14 15:44:02
;   baseProfile,Default
;   printMaterial,
;   printQuality,
;   printExtruders,
;   extruderName,Primary Extruder
;   extruderToolheadNumber,0
;   extruderDiameter,0.4
;   extruderAutoWidth,0
;   extruderWidth,0.42
;   extrusionMultiplier,1.02
;   extruderUseRetract,1
;   extruderRetractionDistance,0.8
;   extruderExtraRestartDistance,0.12
;   extruderRetractionZLift,0
;   extruderRetractionSpeed,1800
;   extruderUseCoasting,1
;   extruderCoastingDistance,0.2
;   extruderUseWipe,1
;   extruderWipeDistance,2
;   primaryExtruder,0
;   layerHeight,0.25
;   topSolidLayers,0
;   bottomSolidLayers,0
;   perimeterOutlines,2
;   printPerimetersInsideOut,1
;   startPointOption,3
;   startPointOriginX,300
;   startPointOriginY,0
;   startPointOriginZ,-300
;   sequentialIslands,0
;   spiralVaseMode,0
;   firstLayerHeightPercentage,90
;   firstLayerWidthPercentage,110
;   firstLayerUnderspeed,0.5
;   useRaft,0
;   raftExtruder,0
;   raftLayers,3
;   raftOffset,3
;   raftSeparationDistance,0.14
;   raftInfill,85
;   disableRaftBaseLayers,0
;   useSkirt,1
;   skirtExtruder,0
;   skirtLayers,1
;   skirtOutlines,1
;   skirtOffset,1.4
;   usePrimePillar,0
;   primePillarExtruder,999
;   primePillarWidth,12
;   primePillarLocation,7
;   primePillarSpeedMultiplier,1
;   useOozeShield,0
;   oozeShieldExtruder,999
;   oozeShieldOffset,2
;   oozeShieldOutlines,1
;   oozeShieldSidewallShape,1
;   oozeShieldSidewallAngle,30
;   oozeShieldSpeedMultiplier,1
;   infillExtruder,0
;   internalInfillPattern,Rectilinear
;   externalInfillPattern,Rectilinear
;   infillPercentage,0
;   outlineOverlapPercentage,15
;   infillExtrusionWidthPercentage,100
;   minInfillLength,5
;   infillLayerInterval,1
;   infillAngles,45,-45
;   overlapInfillAngles,0
;   generateSupport,0
;   supportExtruder,0
;   supportInfillPercentage,30
;   supportExtraInflation,0
;   denseSupportLayers,0
;   denseSupportInfillPercentage,70
;   supportLayerInterval,1
;   supportHorizontalPartOffset,0.3
;   supportUpperSeparationLayers,1
;   supportLowerSeparationLayers,1
;   supportType,0
;   supportGridSpacing,4
;   maxOverhangAngle,45
;   supportAngles,0
;   temperatureName,Primary Extruder,Heated Bed
;   temperatureNumber,0,1
;   temperatureSetpointCount,1,1
;   temperatureSetpointLayers,1,1
;   temperatureSetpointTemperatures,230,60
;   temperatureStabilizeAtStartup,1,1
;   temperatureHeatedBed,0,1
;   temperatureRelayBetweenLayers,0,0
;   temperatureRelayBetweenLoops,0,0
;   fanLayers,1
;   fanSpeeds,0
;   blipFanToFullPower,1
;   adjustSpeedForCooling,1
;   minSpeedLayerTime,15
;   minCoolingSpeedSlowdown,30
;   increaseFanForCooling,0
;   minFanLayerTime,45
;   maxCoolingFanSpeed,100
;   increaseFanForBridging,0
;   bridgingFanSpeed,100
;   use5D,1
;   relativeEdistances,0
;   allowEaxisZeroing,1
;   independentExtruderAxes,0
;   includeM10123,0
;   stickySupport,1
;   applyToolheadOffsets,0
;   gcodeXoffset,0
;   gcodeYoffset,0
;   gcodeZoffset,0
;   overrideMachineDefinition,1
;   machineTypeOverride,0
;   strokeXoverride,200
;   strokeYoverride,200
;   strokeZoverride,150
;   originOffsetXoverride,0
;   originOffsetYoverride,0
;   originOffsetZoverride,0
;   homeXdirOverride,-1
;   homeYdirOverride,-1
;   homeZdirOverride,-1
;   flipXoverride,1
;   flipYoverride,-1
;   flipZoverride,1
;   toolheadOffsets,0,0|0,0|0,0|0,0|0,0|0,0
;   overrideFirmwareConfiguration,1
;   firmwareTypeOverride,RepRap (Marlin/Repetier/Sprinter)
;   GPXconfigOverride,r2
;   baudRateOverride,115200
;   overridePrinterModels,0
;   printerModelsOverride
;   startingGcode,G28,
;   layerChangeGcode,
;   retractionGcode,
;   toolChangeGcode,
;   endingGcode,M104 S0 ; turn off extruder,M140 S0 ; turn off bed,G28 X0 ; home X axis,M84 ; disable motors,M107 ; turn off fan
;   createX3G,0
;   celebration,0
;   celebrationSong,Random Song
;   createMB5G,0
;   postProcessing,
;   defaultSpeed,3600
;   outlineUnderspeed,0.7
;   solidInfillUnderspeed,0.8
;   supportUnderspeed,0.8
;   rapidXYspeed,9000
;   rapidZspeed,1002
;   minBridgingArea,5
;   bridgingExtraInflation,0
;   bridgingExtrusionMultiplier,1
;   bridgingSpeedMultiplier,0.3
;   filamentDiameter,1.75
;   filamentPricePerKg,1000
;   filamentDensity,1.25
;   useMinPrintHeight,1
;   minPrintHeight,0
;   useMaxPrintHeight,1
;   maxPrintHeight,2
;   useDiaphragm,0
;   diaphragmLayerInterval,20
;   robustSlicing,1
;   mergeAllIntoSolid,0
;   onlyRetractWhenCrossingOutline,0
;   retractBetweenLayers,0
;   useRetractionMinTravel,0
;   retractionMinTravel,3
;   retractWhileWiping,0
;   onlyWipeOutlines,1
;   avoidCrossingOutline,0
;   maxMovementDetourFactor,3
;   toolChangeRetractionDistance,0
;   toolChangeExtraRestartDistance,0
;   toolChangeRetractionSpeed,360
;   allowThinWallGapFill,1
;   thinWallAllowedOverlapPercentage,10
;   horizontalSizeCompensation,0
G90
M82
M106 S0
M140 S60
M190 S60
M104 S230 T0
M109 S230 T0
G28
G92 E0
G1 E-0.8000 F1800
G1 Z0.225 F1002
; layer 1, Z = 0.225
T0
; tool H0.250 W0.462
; skirt
G1 X127.464 Y120.335 F9000
G1 E0.1200 F540
G92 E0
G1 X146.372 Y99.070 E1.3937 F1800
G1 X151.894 Y92.690 E1.8070
G1 X157.992 Y85.434 E2.2712
G1 X158.064 Y85.396 E2.2752
G1 X159.269 Y85.269 E2.3346
G1 X159.347 Y85.291 E2.3385
G1 X160.705 Y86.350 E2.4229
G1 X160.745 Y86.417 E2.4267
G1 X160.943 Y87.560 E2.4835
G1 X160.928 Y87.636 E2.4873
G1 X155.141 Y96.751 E3.0161
G1 X144.482 Y114.150 E4.0155
G1 X144.482 Y114.151 E4.0156
G1 X144.476 Y114.160 E4.0161
G1 X144.475 Y114.161 E4.0162
G1 X139.622 Y121.816 E4.4601
G1 X139.622 Y121.816 E4.4601
G1 X139.619 Y121.822 E4.4604
G1 X139.618 Y121.822 E4.4605
G1 X136.865 Y126.083 E4.7089
G1 X136.865 Y126.084 E4.7090
G1 X136.859 Y126.092 E4.7095
G1 X136.859 Y126.093 E4.7095
G1 X132.725 Y132.298 E5.0747
G1 X132.724 Y132.298 E5.0747
G1 X132.716 Y132.310 E5.0754
G1 X132.716 Y132.310 E5.0755
G1 X128.301 Y138.682 E5.4551
G1 X128.300 Y138.682 E5.4552
G1 X128.294 Y138.691 E5.4557
G1 X128.294 Y138.691 E5.4557
G1 X126.090 Y141.780 E5.6415
G1 X126.089 Y141.780 E5.6416
G1 X126.083 Y141.789 E5.6421
G1 X126.083 Y141.789 E5.6421
G1 X124.585 Y143.827 E5.7660
G1 X124.585 Y143.827 E5.7660
G1 X124.579 Y143.836 E5.7665
G1 X124.578 Y143.837 E5.7666
G1 X120.739 Y148.904 E6.0779
G1 X120.739 Y148.905 E6.0780
G1 X120.729 Y148.917 E6.0788
G1 X120.729 Y148.918 E6.0788
G1 X118.392 Y151.872 E6.2633
G1 X118.392 Y151.873 E6.2633
G1 X118.382 Y151.885 E6.2641
G1 X118.382 Y151.886 E6.2641
G1 X116.797 Y153.808 E6.3862
G1 X116.797 Y153.809 E6.3862
G1 X116.789 Y153.819 E6.3868
G1 X116.788 Y153.819 E6.3869
G1 X115.164 Y155.725 E6.5095
G1 X115.164 Y155.725 E6.5095
G1 X115.156 Y155.735 E6.5101
G1 X115.155 Y155.736 E6.5102
G1 X113.508 Y157.604 E6.6322
G1 X113.507 Y157.604 E6.6322
G1 X113.499 Y157.614 E6.6328
G1 X113.498 Y157.614 E6.6329
G1 X111.848 Y159.425 E6.7528
G1 X111.847 Y159.426 E6.7529
G1 X111.835 Y159.438 E6.7538
G1 X111.835 Y159.439 E6.7538
G1 X110.161 Y161.192 E6.8725
G1 X110.160 Y161.193 E6.8726
G1 X110.144 Y161.209 E6.8737
G1 X110.143 Y161.210 E6.8738
G1 X108.418 Y162.909 E6.9924
G1 X108.416 Y162.911 E6.9925
G1 X108.395 Y162.930 E6.9939
G1 X108.394 Y162.932 E6.9940
G1 X106.574 Y164.592 E7.1146
G1 X106.573 Y164.593 E7.1147
G1 X106.555 Y164.609 E7.1159
G1 X106.553 Y164.610 E7.1160
G1 X105.584 Y165.438 E7.1784
G1 X105.583 Y165.439 E7.1785
G1 X105.565 Y165.454 E7.1796
G1 X105.564 Y165.455 E7.1797
G1 X103.666 Y166.978 E7.2989
G1 X103.664 Y166.979 E7.2990
G1 X103.634 Y167.002 E7.3008
G1 X103.632 Y167.003 E7.3010
G1 X101.993 Y168.190 E7.4001
G1 X101.990 Y168.192 E7.4003
G1 X101.945 Y168.223 E7.4029
G1 X101.942 Y168.225 E7.4031
G1 X100.649 Y169.026 E7.4776
G1 X100.645 Y169.028 E7.4778
G1 X100.592 Y169.058 E7.4808
G1 X100.588 Y169.060 E7.4810
G1 X99.534 Y169.599 E7.5390
G1 X99.532 Y169.600 E7.5391
G1 X99.489 Y169.620 E7.5414
G1 X99.486 Y169.622 E7.5416
G1 X98.998 Y169.835 E7.5677
G1 X98.994 Y169.836 E7.5679
G1 X98.942 Y169.857 E7.5706
G1 X98.938 Y169.858 E7.5708
G1 X98.070 Y170.161 E7.6159
G1 X98.063 Y170.164 E7.6162
G1 X97.968 Y170.190 E7.6211
G1 X97.961 Y170.192 E7.6214
G1 X96.842 Y170.423 E7.6774
G1 X96.834 Y170.425 E7.6778
G1 X96.722 Y170.439 E7.6833
G1 X96.714 Y170.440 E7.6837
G1 X96.103 Y170.473 E7.7137
G1 X96.093 Y170.473 E7.7142
G1 X95.958 Y170.468 E7.7208
G1 X95.948 Y170.467 E7.7213
G1 X95.461 Y170.406 E7.7453
G1 X95.449 Y170.403 E7.7459
G1 X95.274 Y170.360 E7.7547
G1 X95.263 Y170.356 E7.7554
G1 X94.739 Y170.156 E7.7828
G1 X94.726 Y170.150 E7.7835
G1 X94.552 Y170.056 E7.7932
G1 X94.541 Y170.049 E7.7938
G1 X94.118 Y169.743 E7.8194
G1 X94.107 Y169.734 E7.8201
G1 X93.956 Y169.589 E7.8303
G1 X93.947 Y169.578 E7.8311
G1 X93.623 Y169.167 E7.8567
G1 X93.616 Y169.157 E7.8573
G1 X93.525 Y169.009 E7.8658
G1 X93.519 Y168.998 E7.8664
G1 X93.329 Y168.589 E7.8885
G1 X93.324 Y168.576 E7.8891
G1 X93.266 Y168.397 E7.8984
G1 X93.263 Y168.384 E7.8990
G1 X93.164 Y167.856 E7.9253
G1 X93.163 Y167.845 E7.9259
G1 X93.150 Y167.688 E7.9336
G1 X93.150 Y167.677 E7.9342
G1 X93.166 Y167.026 E7.9660
G1 X93.167 Y167.018 E7.9664
G1 X93.179 Y166.901 E7.9722
G1 X93.180 Y166.893 E7.9726
G1 X93.383 Y165.785 E8.0278
G1 X93.384 Y165.778 E8.0281
G1 X93.406 Y165.690 E8.0326
G1 X93.408 Y165.684 E8.0329
G1 X93.684 Y164.795 E8.0784
G1 X93.686 Y164.792 E8.0786
G1 X93.705 Y164.738 E8.0814
G1 X93.706 Y164.734 E8.0816
G1 X94.120 Y163.691 E8.1366
G1 X94.121 Y163.688 E8.1367
G1 X94.141 Y163.642 E8.1392
G1 X94.143 Y163.639 E8.1394
G1 X94.764 Y162.335 E8.2101
G1 X94.765 Y162.333 E8.2102
G1 X94.780 Y162.304 E8.2118
G1 X94.781 Y162.302 E8.2119
G1 X95.209 Y161.493 E8.2568
G1 X95.210 Y161.491 E8.2569
G1 X95.226 Y161.463 E8.2585
G1 X95.227 Y161.461 E8.2586
G1 X96.977 Y158.477 E8.4280
G1 X96.978 Y158.475 E8.4281
G1 X96.996 Y158.446 E8.4298
G1 X96.997 Y158.444 E8.4299
G1 X98.984 Y155.376 E8.6089
G1 X98.985 Y155.374 E8.6090
G1 X99.001 Y155.351 E8.6104
G1 X99.002 Y155.349 E8.6105
G1 X101.075 Y152.401 E8.7870
G1 X101.076 Y152.399 E8.7871
G1 X101.087 Y152.384 E8.7880
G1 X101.087 Y152.383 E8.7881
G1 X103.258 Y149.453 E8.9667
G1 X103.258 Y149.453 E8.9667
G1 X103.265 Y149.444 E8.9673
G1 X103.265 Y149.443 E8.9673
G1 X105.530 Y146.479 E9.1500
G1 X105.530 Y146.478 E9.1500
G1 X105.536 Y146.470 E9.1505
G1 X105.537 Y146.469 E9.1506
G1 X107.841 Y143.537 E9.3333
G1 X107.842 Y143.536 E9.3333
G1 X107.847 Y143.529 E9.3338
G1 X107.848 Y143.528 E9.3338
G1 X111.001 Y139.614 E9.5800
G1 X111.002 Y139.614 E9.5800
G1 X111.007 Y139.607 E9.5804
G1 X111.008 Y139.606 E9.5805
G1 X113.440 Y136.660 E9.7676
G1 X113.440 Y136.659 E9.7677
G1 X113.447 Y136.650 E9.7682
G1 X113.448 Y136.650 E9.7682
G1 X122.535 Y125.962 E10.4554
G1 X122.536 Y125.961 E10.4554
G1 X122.543 Y125.953 E10.4560
G1 X122.544 Y125.952 E10.4560
G1 X127.333 Y120.485 E10.8120
G1 X127.460 Y120.340 F1800
G1 X127.460 Y120.339 F1800
G1 X127.464 Y120.335 F1800
G1 X127.464 Y120.335 F1800
G92 E0
G1 E-0.8000 F1800
; inner perimeter
G1 X153.590 Y94.250 F9000
G1 E0.1200 F1800
G92 E0
G1 X153.865 Y94.454 E0.0168 F1530
G1 X153.186 Y95.532 E0.0792
G1 X149.852 Y100.939 E0.3903
G1 X144.500 Y109.744 E0.8950
G1 X143.946 Y110.640 E0.9466
G1 X141.070 Y108.499 E1.1222
G1 X148.104 Y100.588 E1.6407
G1 X149.301 Y99.187 E1.7309
G1 X151.292 Y96.917 E1.8788
G1 X153.459 Y94.402 E2.0415
G1 X153.590 Y94.250 F1530
G92 E0
G1 E-0.8000 F1800
G1 X139.842 Y109.880 F9000
G1 E0.1200 F1800
G92 E0
G1 X142.974 Y112.211 E0.1912 F1530
G1 X142.524 Y112.937 E0.2330
G1 X141.515 Y114.539 E0.3258
G1 X139.897 Y113.335 E0.4246
G1 X138.016 Y111.934 E0.5395
G1 X139.709 Y110.029 E0.6643
G1 X139.842 Y109.880 F1530
G92 E0
G1 E-0.8000 F1800
G1 X136.824 Y113.275 F9000
G1 E0.1200 F1800
G92 E0
G1 X138.939 Y114.850 E0.1292 F1530
G1 X140.559 Y116.056 E0.2281
G1 X140.464 Y116.206 E0.2368
G1 X137.681 Y120.577 E0.4906
G1 X134.936 Y124.826 E0.7384
G1 X132.888 Y127.924 E0.9203
G1 X130.815 Y131.010 E1.1023
G1 X128.636 Y134.183 E1.2909
G1 X127.148 Y136.311 E1.4180
G1 X120.776 Y131.565 E1.8072
G1 X124.282 Y127.462 E2.0716
G1 X129.189 Y121.861 E2.4363
G1 X136.691 Y113.424 E2.9893
G1 X136.824 Y113.275 F1530
G92 E0
G1 E-0.8000 F1800
G1 X119.612 Y132.927 F9000
G1 E0.1200 F1800
G92 E0
G1 X126.120 Y137.773 E0.3974 F1530
G1 X124.221 Y140.434 E0.5575
G1 X122.735 Y142.455 E0.6804
G1 X120.455 Y145.489 E0.8663
G1 X118.914 Y147.500 E0.9904
G1 X116.595 Y150.432 E1.1735
G1 X115.027 Y152.335 E1.2942
G1 X113.420 Y154.222 E1.4157
G1 X111.788 Y156.072 E1.5365
G1 X110.157 Y157.861 E1.6550
G1 X108.909 Y159.169 E1.7436
G1 X102.485 Y154.385 E2.1359
G1 X102.946 Y153.743 E2.1747
G1 X105.102 Y150.833 E2.3520
G1 X107.354 Y147.884 E2.5337
G1 X109.647 Y144.966 E2.7155
G1 X112.789 Y141.066 E2.9608
G1 X115.210 Y138.133 E3.1471
G1 X119.269 Y133.328 E3.4552
G1 X119.482 Y133.079 E3.4712
G1 X119.612 Y132.927 F1530
G92 E0
G1 E-0.8000 F1800
G1 X101.457 Y155.852 F9000
G1 E0.1200 F1800
G92 E0
G1 X107.640 Y160.456 E0.3776 F1530
G1 X106.821 Y161.250 E0.4335
G1 X106.143 Y161.881 E0.4788
G1 X100.315 Y157.542 E0.8347
G1 X100.901 Y156.652 E0.8869
G1 X101.343 Y156.016 E0.9248
G1 X101.457 Y155.852 F1530
G92 E0
G1 E-0.8000 F1800
G1 X99.242 Y159.199 F9000
G1 E0.1200 F1800
G92 E0
G1 X104.638 Y163.217 E0.3295 F1530
G1 X104.103 Y163.675 E0.3640
G1 X103.159 Y164.447 E0.4237
G1 X102.251 Y165.160 E0.4803
G1 X101.414 Y165.785 E0.5315
G1 X100.684 Y166.295 E0.5751
G1 X100.048 Y166.706 E0.6122
G1 X99.488 Y167.036 E0.6440
G1 X98.987 Y167.304 E0.6718
G1 X98.531 Y167.526 E0.6967
G1 X98.119 Y167.705 E0.7187
G1 X97.742 Y167.848 E0.7384
G1 X97.393 Y167.959 E0.7564
G1 X97.071 Y168.043 E0.7726
G1 X96.491 Y168.146 E0.8015
G1 X96.109 Y168.166 E0.8203
G1 X95.895 Y168.139 E0.8308
G1 X95.860 Y168.129 E0.8326
G1 X95.750 Y168.081 E0.8385
G1 X95.606 Y167.977 E0.8472
G1 X95.544 Y167.889 E0.8525
G1 X95.484 Y167.761 E0.8594
G1 X95.469 Y167.702 E0.8624
G1 X95.456 Y167.602 E0.8673
G1 X95.466 Y167.187 E0.8877
G1 X95.555 Y166.611 E0.9162
G1 X95.627 Y166.301 E0.9318
G1 X95.869 Y165.527 E0.9715
G1 X96.035 Y165.085 E0.9946
G1 X96.243 Y164.585 E1.0212
G1 X96.502 Y164.016 E1.0518
G1 X96.828 Y163.358 E1.0877
G1 X97.233 Y162.593 E1.1301
G1 X97.732 Y161.706 E1.1800
G1 X98.949 Y159.667 E1.2963
G1 X99.136 Y159.368 E1.3136
G1 X99.242 Y159.199 F1530
G92 E0
G1 E-0.8000 F1800
; outer perimeter
G1 X158.869 Y87.253 F9000
G1 E0.1200 F1800
G92 E0
G1 X158.950 Y87.316 E0.0050 F1260
G1 X156.040 Y91.869 E0.2697
G1 X153.579 Y95.776 E0.4959
G1 X150.246 Y101.181 E0.8069
G1 X144.894 Y109.985 E1.3115
G1 X142.916 Y113.182 E1.4956
G1 X140.854 Y116.454 E1.6851
G1 X138.070 Y120.826 E1.9389
G1 X135.322 Y125.079 E2.1869
G1 X133.273 Y128.180 E2.3690
G1 X131.197 Y131.270 E2.5513
G1 X129.016 Y134.446 E2.7400
G1 X126.792 Y137.627 E2.9301
G1 X124.595 Y140.705 E3.1154
G1 X123.106 Y142.731 E3.2385
G1 X120.823 Y145.768 E3.4246
G1 X119.278 Y147.784 E3.5490
G1 X116.954 Y150.722 E3.7325
G1 X115.382 Y152.631 E3.8536
G1 X113.768 Y154.525 E3.9755
G1 X112.132 Y156.380 E4.0966
G1 X110.495 Y158.176 E4.2157
G1 X108.840 Y159.910 E4.3331
G1 X107.998 Y160.753 E4.3914
G1 X107.139 Y161.585 E4.4500
G1 X106.258 Y162.406 E4.5090
G1 X105.346 Y163.220 E4.5689
G1 X104.399 Y164.029 E4.6299
G1 X103.448 Y164.808 E4.6901
G1 X102.532 Y165.527 E4.7471
G1 X101.684 Y166.160 E4.7989
G1 X100.942 Y166.679 E4.8433
G1 X100.290 Y167.099 E4.8813
G1 X99.714 Y167.439 E4.9140
G1 X99.197 Y167.715 E4.9428
G1 X98.725 Y167.945 E4.9685
G1 X98.293 Y168.133 E4.9915
