; G-Code generated by Simplify3D(R) Version 3.0.2
; ríj 24, 2016 at 9:19:36 ODP.
; Settings Summary
;   processName,fuselage2per
;   applyToModels,fuselage_7
;   profileName,Default (modified)
;   profileVersion,2015-07-24 21:36:39
;   baseProfile,
;   printMaterial,
;   printQuality,
;   printExtruders,
;   extruderName,Primary Extruder
;   extruderToolheadNumber,0
;   extruderDiameter,0.4
;   extruderAutoWidth,0
;   extruderWidth,0.42
;   extrusionMultiplier,1.02
;   extruderUseRetract,1
;   extruderRetractionDistance,0.8
;   extruderExtraRestartDistance,0.12
;   extruderRetractionZLift,0
;   extruderRetractionSpeed,1800
;   extruderUseCoasting,1
;   extruderCoastingDistance,0.2
;   extruderUseWipe,1
;   extruderWipeDistance,2
;   primaryExtruder,0
;   layerHeight,0.25
;   topSolidLayers,0
;   bottomSolidLayers,0
;   perimeterOutlines,2
;   printPerimetersInsideOut,1
;   startPointOption,3
;   startPointOriginX,0
;   startPointOriginY,0
;   startPointOriginZ,0
;   sequentialIslands,0
;   spiralVaseMode,0
;   firstLayerHeightPercentage,90
;   firstLayerWidthPercentage,110
;   firstLayerUnderspeed,0.5
;   useRaft,0
;   raftExtruder,0
;   raftLayers,3
;   raftOffset,3
;   raftSeparationDistance,0.14
;   raftInfill,85
;   disableRaftBaseLayers,0
;   useSkirt,1
;   skirtExtruder,0
;   skirtLayers,1
;   skirtOutlines,1
;   skirtOffset,2
;   usePrimePillar,0
;   primePillarExtruder,999
;   primePillarWidth,12
;   primePillarLocation,7
;   primePillarSpeedMultiplier,1
;   useOozeShield,0
;   oozeShieldExtruder,999
;   oozeShieldOffset,2
;   oozeShieldOutlines,1
;   oozeShieldSidewallShape,1
;   oozeShieldSidewallAngle,30
;   oozeShieldSpeedMultiplier,1
;   infillExtruder,0
;   internalInfillPattern,Rectilinear
;   externalInfillPattern,Rectilinear
;   infillPercentage,0
;   outlineOverlapPercentage,15
;   infillExtrusionWidthPercentage,100
;   minInfillLength,5
;   infillLayerInterval,1
;   infillAngles,45,-45
;   overlapInfillAngles,0
;   generateSupport,0
;   supportExtruder,0
;   supportInfillPercentage,30
;   supportExtraInflation,0
;   denseSupportLayers,0
;   denseSupportInfillPercentage,70
;   supportLayerInterval,1
;   supportHorizontalPartOffset,0.3
;   supportUpperSeparationLayers,1
;   supportLowerSeparationLayers,1
;   supportType,0
;   supportGridSpacing,4
;   maxOverhangAngle,45
;   supportAngles,0
;   temperatureName,Primary Extruder,Heated Bed
;   temperatureNumber,0,1
;   temperatureSetpointCount,1,1
;   temperatureSetpointLayers,1,1
;   temperatureSetpointTemperatures,230,55
;   temperatureStabilizeAtStartup,1,1
;   temperatureHeatedBed,0,1
;   temperatureRelayBetweenLayers,0,0
;   temperatureRelayBetweenLoops,0,0
;   fanLayers,1
;   fanSpeeds,0
;   blipFanToFullPower,1
;   adjustSpeedForCooling,1
;   minSpeedLayerTime,15
;   minCoolingSpeedSlowdown,20
;   increaseFanForCooling,0
;   minFanLayerTime,45
;   maxCoolingFanSpeed,100
;   increaseFanForBridging,0
;   bridgingFanSpeed,100
;   use5D,1
;   relativeEdistances,0
;   allowEaxisZeroing,1
;   independentExtruderAxes,0
;   includeM10123,0
;   stickySupport,1
;   applyToolheadOffsets,0
;   gcodeXoffset,0
;   gcodeYoffset,0
;   gcodeZoffset,0
;   overrideMachineDefinition,1
;   machineTypeOverride,0
;   strokeXoverride,200
;   strokeYoverride,200
;   strokeZoverride,150
;   originOffsetXoverride,0
;   originOffsetYoverride,0
;   originOffsetZoverride,0
;   homeXdirOverride,-1
;   homeYdirOverride,-1
;   homeZdirOverride,-1
;   flipXoverride,1
;   flipYoverride,-1
;   flipZoverride,1
;   toolheadOffsets,0,0|0,0|0,0|0,0|0,0|0,0
;   overrideFirmwareConfiguration,1
;   firmwareTypeOverride,RepRap (Marlin/Repetier/Sprinter)
;   GPXconfigOverride,r2
;   baudRateOverride,115200
;   overridePrinterModels,0
;   printerModelsOverride
;   startingGcode,G28,
;   layerChangeGcode,
;   retractionGcode,
;   toolChangeGcode,
;   endingGcode,M104 S0 ; turn off extruder,M140 S0 ; turn off bed,G28 X0 ; home X axis,M84 ; disable motors,M107 ; turn off fan
;   createX3G,0
;   celebration,0
;   celebrationSong,Random Song
;   createMB5G,0
;   postProcessing,
;   defaultSpeed,3600
;   outlineUnderspeed,0.7
;   solidInfillUnderspeed,0.8
;   supportUnderspeed,0.8
;   rapidXYspeed,9000
;   rapidZspeed,1002
;   minBridgingArea,5
;   bridgingExtraInflation,0
;   bridgingExtrusionMultiplier,1
;   bridgingSpeedMultiplier,0.3
;   filamentDiameter,1.75
;   filamentPricePerKg,1000
;   filamentDensity,1.25
;   useMinPrintHeight,1
;   minPrintHeight,0
;   useMaxPrintHeight,1
;   maxPrintHeight,4
;   useDiaphragm,0
;   diaphragmLayerInterval,20
;   robustSlicing,1
;   mergeAllIntoSolid,0
;   onlyRetractWhenCrossingOutline,0
;   retractBetweenLayers,0
;   useRetractionMinTravel,0
;   retractionMinTravel,3
;   retractWhileWiping,0
;   onlyWipeOutlines,1
;   avoidCrossingOutline,0
;   maxMovementDetourFactor,3
;   toolChangeRetractionDistance,0
;   toolChangeExtraRestartDistance,0
;   toolChangeRetractionSpeed,360
;   allowThinWallGapFill,1
;   thinWallAllowedOverlapPercentage,10
;   horizontalSizeCompensation,0
G90
M82
M106 S0
M140 S55
M190 S55
M104 S230 T0
M109 S230 T0
G28
G92 E0
G1 E-0.8000 F1800
G1 Z0.225 F1002
; layer 1, Z = 0.225
T0
; tool H0.250 W0.462
; skirt
G1 X158.404 Y50.567 F9000
G1 E0.1200 F540
G92 E0
G1 X158.407 Y50.559 E0.0004 F1800
G1 X158.465 Y50.407 E0.0084
G1 X158.468 Y50.399 E0.0088
G1 X158.808 Y49.678 E0.0478
G1 X158.814 Y49.668 E0.0484
G1 X158.947 Y49.456 E0.0607
G1 X158.954 Y49.446 E0.0613
G1 X159.410 Y48.880 E0.0968
G1 X159.421 Y48.868 E0.0977
G1 X159.677 Y48.639 E0.1145
G1 X159.690 Y48.629 E0.1153
G1 X160.263 Y48.264 E0.1486
G1 X160.278 Y48.256 E0.1494
G1 X160.593 Y48.121 E0.1662
G1 X160.609 Y48.116 E0.1670
G1 X161.192 Y47.972 E0.1964
G1 X161.204 Y47.969 E0.1970
G1 X161.457 Y47.939 E0.2095
G1 X161.470 Y47.938 E0.2101
G1 X162.319 Y47.938 E0.2517
G1 X162.332 Y47.938 E0.2523
G1 X162.585 Y47.969 E0.2648
G1 X162.597 Y47.971 E0.2655
G1 X163.180 Y48.115 E0.2948
G1 X163.196 Y48.121 E0.2957
G1 X163.511 Y48.256 E0.3125
G1 X163.526 Y48.264 E0.3133
G1 X164.099 Y48.628 E0.3466
G1 X164.112 Y48.638 E0.3474
G1 X164.368 Y48.867 E0.3642
G1 X164.379 Y48.879 E0.3650
G1 X164.835 Y49.444 E0.4005
G1 X164.842 Y49.454 E0.4012
G1 X164.975 Y49.666 E0.4134
G1 X164.981 Y49.677 E0.4140
G1 X165.322 Y50.398 E0.4531
G1 X165.325 Y50.405 E0.4535
G1 X165.383 Y50.558 E0.4615
G1 X165.386 Y50.565 E0.4619
G1 X165.652 Y51.471 E0.5081
G1 X165.654 Y51.476 E0.5084
G1 X165.678 Y51.578 E0.5135
G1 X165.679 Y51.583 E0.5137
G1 X165.897 Y52.734 E0.5711
G1 X165.898 Y52.737 E0.5713
G1 X165.908 Y52.805 E0.5746
G1 X165.909 Y52.808 E0.5748
G1 X166.065 Y54.078 E0.6374
G1 X166.065 Y54.080 E0.6376
G1 X166.070 Y54.126 E0.6398
G1 X166.070 Y54.128 E0.6399
G1 X166.228 Y56.132 E0.7384
G1 X166.228 Y56.134 E0.7385
G1 X166.230 Y56.173 E0.7404
G1 X166.230 Y56.175 E0.7405
G1 X166.409 Y60.519 E0.9534
G1 X166.409 Y60.520 E0.9535
G1 X166.410 Y60.544 E0.9547
G1 X166.410 Y60.546 E0.9547
G1 X166.495 Y65.287 E1.1870
G1 X166.495 Y65.288 E1.1871
G1 X166.495 Y65.303 E1.1878
G1 X166.495 Y65.304 E1.1879
G1 X166.538 Y78.761 E1.8470
G1 X166.507 Y78.838 E1.8511
G1 X165.276 Y80.074 E1.9365
G1 X165.198 Y80.106 E1.9406
G1 X158.606 Y80.107 E2.2635
G1 X158.529 Y80.075 E2.2676
G1 X157.297 Y78.842 E2.3529
G1 X157.265 Y78.765 E2.3570
G1 X157.282 Y67.855 E2.8914
G1 X157.282 Y67.854 E2.8914
G1 X157.282 Y67.845 E2.8919
G1 X157.282 Y67.845 E2.8919
G1 X157.334 Y62.922 E3.1330
G1 X157.334 Y62.921 E3.1331
G1 X157.334 Y62.903 E3.1339
G1 X157.334 Y62.903 E3.1340
G1 X157.459 Y58.275 E3.3607
G1 X157.459 Y58.274 E3.3608
G1 X157.460 Y58.250 E3.3619
G1 X157.460 Y58.249 E3.3620
G1 X157.563 Y56.164 E3.4642
G1 X157.563 Y56.163 E3.4643
G1 X157.565 Y56.136 E3.4656
G1 X157.565 Y56.135 E3.4657
G1 X157.701 Y54.322 E3.5547
G1 X157.701 Y54.320 E3.5548
G1 X157.706 Y54.272 E3.5572
G1 X157.706 Y54.270 E3.5573
G1 X157.882 Y52.812 E3.6292
G1 X157.882 Y52.809 E3.6294
G1 X157.893 Y52.740 E3.6328
G1 X157.894 Y52.736 E3.6329
G1 X158.111 Y51.585 E3.6904
G1 X158.112 Y51.580 E3.6906
G1 X158.137 Y51.478 E3.6957
G1 X158.138 Y51.473 E3.6960
G1 X158.348 Y50.759 E3.7324
G1 X158.404 Y50.567 F1800
G92 E0
G1 E-0.8000 F1800
G1 X159.416 Y105.146 F9000
G1 E0.1200 F1800
G92 E0
G1 X164.399 Y105.144 E0.2441 F1800
G1 X164.480 Y105.180 E0.2484
G1 X165.728 Y106.538 E0.3387
G1 X165.757 Y106.621 E0.3430
G1 X165.637 Y108.044 E0.4130
G1 X165.538 Y111.944 E0.6041
G1 X165.113 Y141.279 E2.0410
G1 X165.113 Y141.279 E2.0410
G1 X165.113 Y141.282 E2.0412
G1 X165.113 Y141.282 E2.0412
G1 X164.788 Y159.725 E2.9447
G1 X164.788 Y159.726 E2.9447
G1 X164.788 Y159.738 E2.9453
G1 X164.788 Y159.738 E2.9453
G1 X164.655 Y164.358 E3.1717
G1 X164.655 Y164.359 E3.1717
G1 X164.654 Y164.370 E3.1722
G1 X164.654 Y164.370 E3.1722
G1 X164.222 Y175.497 E3.7176
G1 X164.188 Y175.571 E3.7216
G1 X162.969 Y176.745 E3.8045
G1 X162.893 Y176.775 E3.8085
G1 X160.955 Y176.776 E3.9035
G1 X160.879 Y176.745 E3.9075
G1 X159.659 Y175.572 E3.9904
G1 X159.625 Y175.498 E3.9944
G1 X159.178 Y164.113 E4.5524
G1 X159.178 Y164.112 E4.5525
G1 X159.177 Y164.097 E4.5532
G1 X159.177 Y164.096 E4.5533
G1 X158.970 Y155.749 E4.9622
G1 X158.970 Y155.748 E4.9623
G1 X158.969 Y155.740 E4.9627
G1 X158.969 Y155.739 E4.9627
G1 X158.561 Y131.267 E6.1615
G1 X158.561 Y131.267 E6.1615
G1 X158.561 Y131.265 E6.1616
G1 X158.278 Y111.768 E7.1167
G1 X158.233 Y109.595 E7.2231
G1 X158.180 Y108.055 E7.2986
G1 X158.059 Y106.622 E7.3690
G1 X158.088 Y106.539 E7.3733
G1 X159.260 Y105.263 E7.4582
G1 X159.336 Y105.181 F1800
G1 X159.416 Y105.146 F1800
G92 E0
G1 E-0.8000 F1800
; inner perimeter
G1 X161.084 Y108.048 F9000
G1 E0.1200 F1800
G92 E0
G1 X162.731 Y108.048 E0.0806 F1530
G1 X162.701 Y108.793 E0.1172
G1 X162.635 Y111.889 E0.2688
G1 X162.244 Y138.939 E1.5939
G1 X161.586 Y138.940 E1.6261
G1 X161.464 Y131.220 E2.0042
G1 X161.180 Y111.717 E2.9596
G1 X161.135 Y109.516 E3.0674
G1 X161.091 Y108.248 E3.1296
G1 X161.084 Y108.048 F1530
G92 E0
G1 E-0.8000 F1800
G1 X161.617 Y140.854 F9000
G1 E0.1200 F1800
G92 E0
G1 X162.216 Y140.854 E0.0294 F1530
G1 X162.211 Y141.233 E0.0479
G1 X162.099 Y147.937 E0.3763
G1 X161.735 Y147.937 E0.3941
G1 X161.675 Y144.528 E0.5611
G1 X161.620 Y141.054 E0.7313
G1 X161.617 Y140.854 F1530
G92 E0
G1 E-0.8000 F1800
; outer perimeter
G1 X160.594 Y107.586 F9000
G1 E0.1200 F1800
G92 E0
G1 X163.226 Y107.586 E0.1289 F1260
G1 X163.199 Y107.909 E0.1448
G1 X163.163 Y108.807 E0.1888
G1 X163.097 Y111.897 E0.3402
G1 X162.673 Y141.241 E1.7776
G1 X162.470 Y153.341 E2.3704
G1 X162.347 Y159.676 E2.6807
G1 X162.215 Y164.280 E2.9063
G1 X161.923 Y171.798 E3.2748
G1 X161.617 Y164.026 E3.6558
G1 X161.540 Y161.651 E3.7722
G1 X161.410 Y155.693 E4.0641
G1 X161.213 Y144.535 E4.6107
G1 X161.002 Y131.228 E5.2625
G1 X161.002 Y131.228 E5.2625
G1 X160.718 Y111.726 E6.2178
G1 X160.674 Y109.529 E6.3255
G1 X160.617 Y107.913 E6.4047
G1 X160.609 Y107.786 E6.4109
G1 X160.601 Y107.652 F1260
G1 X160.594 Y107.586 F1260
G92 E0
G1 E-0.8000 F1800
G1 X162.594 Y107.586 F3600
; inner perimeter
; outer perimeter
G1 X161.297 Y139.402 F9000
G1 E0.1200 F1800
G92 E0
G1 X161.297 Y140.392 E0.0485 F1260
G1 X162.534 Y140.392 E0.1091
G1 X162.534 Y139.401 E0.1577
G1 X161.497 Y139.402 E0.2084
G1 X161.297 Y139.402 F1260
G92 E0
G1 E-0.8000 F1800
G1 X161.297 Y140.392 F3600
G1 X162.306 Y140.392 F3600
; gap fill
G1 X161.682 Y148.573 F9000
G1 E0.1200 F1800
G92 E0
G1 X161.925 Y148.330 E0.0169 F1800
G1 X162.157 Y148.330 E0.0282
G1 X162.150 Y148.759 E0.0492
G1 X161.693 Y149.215 E0.0808
G1 X161.704 Y149.857 E0.1123
G1 X162.138 Y149.423 E0.1423
G1 X162.127 Y150.088 E0.1749
G1 X161.716 Y150.499 E0.2034
G1 X161.727 Y151.141 E0.2349
G1 X162.116 Y150.752 E0.2618
G1 X162.105 Y151.417 E0.2944
G1 X161.738 Y151.783 E0.3198
G1 X161.750 Y152.425 E0.3512
G1 X162.094 Y152.081 E0.3751
G1 X162.083 Y152.746 E0.4076
G1 X161.761 Y153.067 E0.4299
G1 X161.772 Y153.709 E0.4614
G1 X162.072 Y153.410 E0.4821
G1 X162.059 Y154.077 E0.5147
G1 X161.784 Y154.351 E0.5338
G1 X161.795 Y154.994 E0.5652
G1 X162.046 Y154.743 E0.5826
G1 X162.033 Y155.409 E0.6152
G1 X161.806 Y155.636 E0.6309
G1 X161.807 Y155.685 E0.6334
G1 X161.820 Y156.275 E0.6622
G1 X162.020 Y156.075 E0.6761
G1 X162.007 Y156.742 E0.7087
G1 X161.834 Y156.915 E0.7207
G1 X161.848 Y157.554 E0.7520
G1 X161.994 Y157.408 E0.7621
G1 X161.981 Y158.074 E0.7948
G1 X161.862 Y158.193 E0.8030
G1 X161.876 Y158.833 E0.8343
G1 X161.968 Y158.741 E0.8407
G1 X161.955 Y159.407 E0.8734
G1 X161.890 Y159.472 E0.8779
G1 X161.904 Y160.111 E0.9092
G1 X161.938 Y160.077 E0.9116
G1 X161.925 Y160.551 E0.9348
G1 X161.919 Y160.750 F1800
G1 X161.918 Y160.751 F1800
G92 E0
G1 E-0.8000 F1800
; inner perimeter
G1 X161.151 Y51.515 F9000
G1 E0.1200 F1800
G92 E0
G1 X161.345 Y51.105 E0.0222 F1530
G1 X161.491 Y50.924 E0.0336
G1 X161.583 Y50.865 E0.0390
G1 X161.683 Y50.841 E0.0440
G1 X162.108 Y50.841 E0.0648
G1 X162.207 Y50.865 E0.0698
G1 X162.299 Y50.924 E0.0752
G1 X162.445 Y51.105 E0.0866
G1 X162.639 Y51.515 E0.1088
G1 X162.843 Y52.208 E0.1442
G1 X163.034 Y53.218 E0.1945
G1 X163.179 Y54.394 E0.2525
G1 X163.331 Y56.331 E0.3477
G1 X163.433 Y58.374 E0.4479
G1 X163.508 Y60.615 E0.5577
G1 X163.593 Y65.328 E0.7886
G1 X163.620 Y69.517 E0.9938
G1 X163.632 Y77.203 E1.3703
G1 X160.171 Y77.204 E1.5398
G1 X160.185 Y67.867 E1.9971
G1 X160.237 Y62.964 E2.2372
G1 X160.287 Y60.617 E2.3522
G1 X160.360 Y58.375 E2.4621
G1 X160.461 Y56.330 E2.5624
G1 X160.593 Y54.579 E2.6484
G1 X160.757 Y53.218 E2.7155
G1 X160.948 Y52.208 E2.7659
G1 X161.095 Y51.707 E2.7914
G1 X161.151 Y51.515 F1530
G92 E0
G1 E-0.8000 F1800
; outer perimeter
G1 X160.718 Y51.351 F9000
G1 E0.1200 F1800
G92 E0
G1 X160.951 Y50.858 E0.0267 F1260
G1 X161.179 Y50.575 E0.0445
G1 X161.398 Y50.435 E0.0572
G1 X161.626 Y50.379 E0.0687
G1 X162.164 Y50.379 E0.0951
G1 X162.392 Y50.435 E0.1066
G1 X162.611 Y50.574 E0.1193
G1 X162.839 Y50.858 E0.1371
G1 X163.072 Y51.350 E0.1638
G1 X163.293 Y52.100 E0.2021
G1 X163.491 Y53.147 E0.2543
G1 X163.639 Y54.348 E0.3135
G1 X163.793 Y56.301 E0.4095
G1 X163.895 Y58.355 E0.5102
G1 X163.970 Y60.603 E0.6204
G1 X164.054 Y65.321 E0.8515
G1 X164.082 Y69.516 E1.0570
G1 X164.094 Y77.665 E1.4561
G1 X159.708 Y77.666 E1.6710
G1 X159.723 Y67.865 E2.1510
G1 X159.775 Y62.957 E2.3914
G1 X159.825 Y60.605 E2.5067
G1 X159.899 Y58.356 E2.6169
G1 X160.000 Y56.301 E2.7176
G1 X160.133 Y54.534 E2.8044
G1 X160.300 Y53.148 E2.8728
G1 X160.498 Y52.100 E2.9250
G1 X160.662 Y51.543 E2.9535
G1 X160.718 Y51.351 F1260
G92 E0
G1 E-0.8000 F1800
G1 X160.951 Y50.858 F3600
G1 X161.179 Y50.575 F3600
G1 X161.398 Y50.435 F3600
G1 X161.626 Y50.379 F3600
G1 X162.164 Y50.379 F3600
G1 X162.221 Y50.393 F3600
; layer 2, Z = 0.475
; tool H0.250 W0.420
; inner perimeter
G1 X161.105 Y51.538 F9000
G1 Z0.475 F1002
G1 E0.1200 F1800
G92 E0
G1 X161.304 Y51.102 E0.0213 F1586
G1 X161.462 Y50.900 E0.0327
G1 X161.567 Y50.831 E0.0383
G1 X161.678 Y50.803 E0.0434
G1 X162.112 Y50.803 E0.0628
G1 X162.223 Y50.831 E0.0679
G1 X162.328 Y50.900 E0.0735
G1 X162.486 Y51.102 E0.0849
G1 X162.685 Y51.537 E0.1062
G1 X162.891 Y52.259 E0.1396
G1 X163.083 Y53.302 E0.1868
G1 X163.185 Y54.131 E0.2240
G1 X163.248 Y54.694 E0.2492
G1 X163.379 Y56.483 E0.3291
G1 X163.481 Y58.559 E0.4217
G1 X163.555 Y60.823 E0.5225
G1 X163.640 Y65.547 E0.7329
G1 X163.668 Y69.924 E0.9278
G1 X163.678 Y77.165 E1.2502
G1 X160.125 Y77.166 E1.4084
G1 X160.139 Y67.823 E1.8244
G1 X160.189 Y63.185 E2.0310
G1 X160.239 Y60.825 E2.1361
G1 X160.313 Y58.560 E2.2370
G1 X160.413 Y56.484 E2.3295
G1 X160.544 Y54.696 E2.4093
G1 X160.708 Y53.301 E2.4719
G1 X160.900 Y52.260 E2.5190
