; G-Code generated by Simplify3D(R) Version 3.0.2
; ríj 24, 2016 at 9:17:49 ODP.
; Settings Summary
;   processName,fuselage2per
;   applyToModels,fuselage_5
;   profileName,Default (modified)
;   profileVersion,2015-07-24 21:36:39
;   baseProfile,
;   printMaterial,
;   printQuality,
;   printExtruders,
;   extruderName,Primary Extruder
;   extruderToolheadNumber,0
;   extruderDiameter,0.4
;   extruderAutoWidth,0
;   extruderWidth,0.42
;   extrusionMultiplier,1.02
;   extruderUseRetract,1
;   extruderRetractionDistance,0.8
;   extruderExtraRestartDistance,0.12
;   extruderRetractionZLift,0
;   extruderRetractionSpeed,1800
;   extruderUseCoasting,1
;   extruderCoastingDistance,0.2
;   extruderUseWipe,1
;   extruderWipeDistance,2
;   primaryExtruder,0
;   layerHeight,0.25
;   topSolidLayers,0
;   bottomSolidLayers,0
;   perimeterOutlines,2
;   printPerimetersInsideOut,1
;   startPointOption,3
;   startPointOriginX,0
;   startPointOriginY,0
;   startPointOriginZ,0
;   sequentialIslands,0
;   spiralVaseMode,0
;   firstLayerHeightPercentage,90
;   firstLayerWidthPercentage,110
;   firstLayerUnderspeed,0.5
;   useRaft,0
;   raftExtruder,0
;   raftLayers,3
;   raftOffset,3
;   raftSeparationDistance,0.14
;   raftInfill,85
;   disableRaftBaseLayers,0
;   useSkirt,1
;   skirtExtruder,0
;   skirtLayers,1
;   skirtOutlines,1
;   skirtOffset,2
;   usePrimePillar,0
;   primePillarExtruder,999
;   primePillarWidth,12
;   primePillarLocation,7
;   primePillarSpeedMultiplier,1
;   useOozeShield,0
;   oozeShieldExtruder,999
;   oozeShieldOffset,2
;   oozeShieldOutlines,1
;   oozeShieldSidewallShape,1
;   oozeShieldSidewallAngle,30
;   oozeShieldSpeedMultiplier,1
;   infillExtruder,0
;   internalInfillPattern,Rectilinear
;   externalInfillPattern,Rectilinear
;   infillPercentage,0
;   outlineOverlapPercentage,15
;   infillExtrusionWidthPercentage,100
;   minInfillLength,5
;   infillLayerInterval,1
;   infillAngles,45,-45
;   overlapInfillAngles,0
;   generateSupport,0
;   supportExtruder,0
;   supportInfillPercentage,30
;   supportExtraInflation,0
;   denseSupportLayers,0
;   denseSupportInfillPercentage,70
;   supportLayerInterval,1
;   supportHorizontalPartOffset,0.3
;   supportUpperSeparationLayers,1
;   supportLowerSeparationLayers,1
;   supportType,0
;   supportGridSpacing,4
;   maxOverhangAngle,45
;   supportAngles,0
;   temperatureName,Primary Extruder,Heated Bed
;   temperatureNumber,0,1
;   temperatureSetpointCount,1,1
;   temperatureSetpointLayers,1,1
;   temperatureSetpointTemperatures,230,55
;   temperatureStabilizeAtStartup,1,1
;   temperatureHeatedBed,0,1
;   temperatureRelayBetweenLayers,0,0
;   temperatureRelayBetweenLoops,0,0
;   fanLayers,1
;   fanSpeeds,0
;   blipFanToFullPower,1
;   adjustSpeedForCooling,1
;   minSpeedLayerTime,15
;   minCoolingSpeedSlowdown,20
;   increaseFanForCooling,0
;   minFanLayerTime,45
;   maxCoolingFanSpeed,100
;   increaseFanForBridging,0
;   bridgingFanSpeed,100
;   use5D,1
;   relativeEdistances,0
;   allowEaxisZeroing,1
;   independentExtruderAxes,0
;   includeM10123,0
;   stickySupport,1
;   applyToolheadOffsets,0
;   gcodeXoffset,0
;   gcodeYoffset,0
;   gcodeZoffset,0
;   overrideMachineDefinition,1
;   machineTypeOverride,0
;   strokeXoverride,200
;   strokeYoverride,200
;   strokeZoverride,150
;   originOffsetXoverride,0
;   originOffsetYoverride,0
;   originOffsetZoverride,0
;   homeXdirOverride,-1
;   homeYdirOverride,-1
;   homeZdirOverride,-1
;   flipXoverride,1
;   flipYoverride,-1
;   flipZoverride,1
;   toolheadOffsets,0,0|0,0|0,0|0,0|0,0|0,0
;   overrideFirmwareConfiguration,1
;   firmwareTypeOverride,RepRap (Marlin/Repetier/Sprinter)
;   GPXconfigOverride,r2
;   baudRateOverride,115200
;   overridePrinterModels,0
;   printerModelsOverride
;   startingGcode,G28,
;   layerChangeGcode,
;   retractionGcode,
;   toolChangeGcode,
;   endingGcode,M104 S0 ; turn off extruder,M140 S0 ; turn off bed,G28 X0 ; home X axis,M84 ; disable motors,M107 ; turn off fan
;   createX3G,0
;   celebration,0
;   celebrationSong,Random Song
;   createMB5G,0
;   postProcessing,
;   defaultSpeed,3600
;   outlineUnderspeed,0.7
;   solidInfillUnderspeed,0.8
;   supportUnderspeed,0.8
;   rapidXYspeed,9000
;   rapidZspeed,1002
;   minBridgingArea,5
;   bridgingExtraInflation,0
;   bridgingExtrusionMultiplier,1
;   bridgingSpeedMultiplier,0.3
;   filamentDiameter,1.75
;   filamentPricePerKg,1000
;   filamentDensity,1.25
;   useMinPrintHeight,1
;   minPrintHeight,0
;   useMaxPrintHeight,1
;   maxPrintHeight,4
;   useDiaphragm,0
;   diaphragmLayerInterval,20
;   robustSlicing,1
;   mergeAllIntoSolid,0
;   onlyRetractWhenCrossingOutline,0
;   retractBetweenLayers,0
;   useRetractionMinTravel,0
;   retractionMinTravel,3
;   retractWhileWiping,0
;   onlyWipeOutlines,1
;   avoidCrossingOutline,0
;   maxMovementDetourFactor,3
;   toolChangeRetractionDistance,0
;   toolChangeExtraRestartDistance,0
;   toolChangeRetractionSpeed,360
;   allowThinWallGapFill,1
;   thinWallAllowedOverlapPercentage,10
;   horizontalSizeCompensation,0
G90
M82
M106 S0
M140 S55
M190 S55
M104 S230 T0
M109 S230 T0
G28
G92 E0
G1 E-0.8000 F1800
G1 Z0.225 F1002
; layer 1, Z = 0.225
T0
; tool H0.250 W0.462
; skirt
G1 X30.973 Y97.357 F9000
G1 E0.1200 F540
G92 E0
G1 X30.994 Y97.351 E0.0011 F1800
G1 X30.995 Y97.350 E0.0012
G1 X33.144 Y96.711 E0.1110
G1 X33.145 Y96.710 E0.1110
G1 X33.171 Y96.703 E0.1123
G1 X33.172 Y96.703 E0.1124
G1 X35.347 Y96.115 E0.2227
G1 X35.348 Y96.115 E0.2228
G1 X35.379 Y96.107 E0.2243
G1 X35.380 Y96.106 E0.2244
G1 X37.581 Y95.582 E0.3352
G1 X37.582 Y95.581 E0.3353
G1 X37.618 Y95.574 E0.3371
G1 X37.620 Y95.573 E0.3372
G1 X39.859 Y95.120 E0.4491
G1 X39.861 Y95.120 E0.4492
G1 X39.892 Y95.114 E0.4507
G1 X39.894 Y95.114 E0.4508
G1 X42.115 Y94.735 E0.5612
G1 X42.116 Y94.734 E0.5612
G1 X42.142 Y94.730 E0.5625
G1 X42.144 Y94.730 E0.5626
G1 X44.367 Y94.408 E0.6726
G1 X44.369 Y94.408 E0.6727
G1 X44.400 Y94.404 E0.6743
G1 X44.401 Y94.404 E0.6743
G1 X48.789 Y93.902 E0.8906
G1 X48.790 Y93.902 E0.8907
G1 X48.813 Y93.900 E0.8918
G1 X48.814 Y93.900 E0.8919
G1 X50.983 Y93.699 E0.9986
G1 X50.984 Y93.699 E0.9986
G1 X50.998 Y93.698 E0.9993
G1 X50.998 Y93.698 E0.9993
G1 X61.109 Y92.894 E1.4961
G1 X61.109 Y92.894 E1.4961
G1 X61.118 Y92.893 E1.4966
G1 X61.119 Y92.893 E1.4966
G1 X64.523 Y92.652 E1.6637
G1 X64.524 Y92.652 E1.6638
G1 X64.540 Y92.651 E1.6646
G1 X64.541 Y92.651 E1.6646
G1 X67.313 Y92.498 E1.8006
G1 X67.315 Y92.498 E1.8007
G1 X67.354 Y92.496 E1.8026
G1 X67.356 Y92.496 E1.8027
G1 X69.320 Y92.460 E1.8989
G1 X69.324 Y92.460 E1.8991
G1 X69.395 Y92.461 E1.9026
G1 X69.398 Y92.461 E1.9028
G1 X70.110 Y92.496 E1.9377
G1 X70.115 Y92.496 E1.9379
G1 X70.206 Y92.505 E1.9424
G1 X70.210 Y92.505 E1.9426
G1 X70.791 Y92.585 E1.9713
G1 X70.800 Y92.586 E1.9717
G1 X70.974 Y92.625 E1.9805
G1 X70.982 Y92.627 E1.9809
G1 X71.534 Y92.801 E2.0092
G1 X71.551 Y92.808 E2.0101
G1 X71.883 Y92.982 E2.0285
G1 X71.898 Y92.992 E2.0294
G1 X72.460 Y93.428 E2.0642
G1 X72.483 Y93.452 E2.0658
G1 X72.856 Y93.998 E2.0982
G1 X72.870 Y94.028 E2.0998
G1 X73.089 Y94.768 E2.1377
G1 X73.094 Y94.797 E2.1391
G1 X73.102 Y95.374 E2.1673
G1 X73.099 Y95.402 E2.1687
G1 X72.944 Y95.992 E2.1986
G1 X72.939 Y96.006 E2.1993
G1 X72.828 Y96.273 E2.2135
G1 X72.821 Y96.286 E2.2142
G1 X72.428 Y96.955 E2.2522
G1 X72.391 Y97.050 E2.2572
G1 X72.322 Y97.351 E2.2723
G1 X72.258 Y97.921 E2.3005
G1 X72.238 Y98.807 E2.3439
G1 X72.295 Y100.050 E2.4048
G1 X72.454 Y101.685 E2.4853
G1 X72.741 Y103.766 E2.5881
G1 X74.097 Y112.275 E3.0102
G1 X74.097 Y112.276 E3.0102
G1 X74.098 Y112.286 E3.0107
G1 X74.098 Y112.286 E3.0107
G1 X74.610 Y115.709 E3.1802
G1 X74.610 Y115.709 E3.1803
G1 X74.612 Y115.724 E3.1810
G1 X74.612 Y115.725 E3.1810
G1 X75.105 Y119.372 E3.3613
G1 X75.105 Y119.373 E3.3613
G1 X75.108 Y119.393 E3.3623
G1 X75.108 Y119.394 E3.3624
G1 X75.551 Y123.230 E3.5515
G1 X75.551 Y123.231 E3.5515
G1 X75.553 Y123.256 E3.5528
G1 X75.554 Y123.258 E3.5529
G1 X75.916 Y127.242 E3.7488
G1 X75.916 Y127.243 E3.7489
G1 X75.919 Y127.274 E3.7504
G1 X75.919 Y127.275 E3.7504
G1 X76.172 Y131.367 E3.9512
G1 X76.172 Y131.368 E3.9513
G1 X76.173 Y131.396 E3.9527
G1 X76.173 Y131.397 E3.9527
G1 X76.321 Y135.525 E4.1550
G1 X76.321 Y135.526 E4.1551
G1 X76.322 Y135.552 E4.1564
G1 X76.322 Y135.554 E4.1564
G1 X76.366 Y139.650 E4.3571
G1 X76.366 Y139.652 E4.3572
G1 X76.366 Y139.677 E4.3584
G1 X76.366 Y139.678 E4.3585
G1 X76.312 Y143.679 E4.5544
G1 X76.312 Y143.680 E4.5545
G1 X76.312 Y143.707 E4.5558
G1 X76.312 Y143.708 E4.5559
G1 X76.163 Y147.545 E4.7439
G1 X76.163 Y147.547 E4.7440
G1 X76.161 Y147.575 E4.7454
G1 X76.161 Y147.577 E4.7455
G1 X75.922 Y151.184 E4.9226
G1 X75.922 Y151.186 E4.9227
G1 X75.919 Y151.220 E4.9243
G1 X75.919 Y151.222 E4.9244
G1 X75.591 Y154.535 E5.0875
G1 X75.591 Y154.537 E5.0876
G1 X75.586 Y154.579 E5.0897
G1 X75.586 Y154.581 E5.0898
G1 X75.173 Y157.538 E5.2360
G1 X75.173 Y157.541 E5.2361
G1 X75.163 Y157.598 E5.2390
G1 X75.163 Y157.601 E5.2391
G1 X74.665 Y160.134 E5.3655
G1 X74.664 Y160.137 E5.3657
G1 X74.649 Y160.202 E5.3690
G1 X74.649 Y160.205 E5.3692
G1 X74.082 Y162.356 E5.4781
G1 X74.081 Y162.360 E5.4783
G1 X74.058 Y162.434 E5.4821
G1 X74.057 Y162.438 E5.4823
G1 X73.433 Y164.254 E5.5763
G1 X73.432 Y164.258 E5.5765
G1 X73.401 Y164.338 E5.5807
G1 X73.399 Y164.342 E5.5809
G1 X72.732 Y165.866 E5.6624
G1 X72.730 Y165.870 E5.6627
G1 X72.690 Y165.951 E5.6671
G1 X72.688 Y165.955 E5.6673
G1 X71.995 Y167.229 E5.7383
G1 X71.993 Y167.233 E5.7385
G1 X71.947 Y167.308 E5.7429
G1 X71.945 Y167.312 E5.7431
G1 X71.245 Y168.374 E5.8054
G1 X71.243 Y168.377 E5.8055
G1 X71.199 Y168.439 E5.8093
G1 X71.197 Y168.442 E5.8095
G1 X70.528 Y169.314 E5.8633
G1 X70.526 Y169.316 E5.8634
G1 X70.492 Y169.358 E5.8661
G1 X70.490 Y169.360 E5.8662
G1 X69.247 Y170.818 E5.9601
G1 X69.245 Y170.820 E5.9602
G1 X69.216 Y170.852 E5.9623
G1 X69.215 Y170.854 E5.9624
G1 X67.539 Y172.661 E6.0831
G1 X67.536 Y172.664 E6.0833
G1 X67.486 Y172.715 E6.0868
G1 X67.483 Y172.717 E6.0870
G1 X66.295 Y173.835 E6.1669
G1 X66.294 Y173.836 E6.1670
G1 X66.258 Y173.868 E6.1693
G1 X66.256 Y173.870 E6.1694
G1 X65.591 Y174.441 E6.2124
G1 X65.589 Y174.443 E6.2125
G1 X65.558 Y174.468 E6.2145
G1 X65.557 Y174.469 E6.2146
G1 X64.052 Y175.665 E6.3087
G1 X64.051 Y175.666 E6.3088
G1 X64.017 Y175.691 E6.3109
G1 X64.015 Y175.693 E6.3110
G1 X63.136 Y176.336 E6.3643
G1 X63.135 Y176.337 E6.3644
G1 X63.103 Y176.359 E6.3663
G1 X63.101 Y176.360 E6.3664
G1 X62.154 Y177.000 E6.4224
G1 X62.152 Y177.002 E6.4225
G1 X62.113 Y177.027 E6.4248
G1 X62.111 Y177.028 E6.4249
G1 X61.097 Y177.649 E6.4831
G1 X61.095 Y177.650 E6.4833
G1 X61.045 Y177.679 E6.4861
G1 X61.042 Y177.681 E6.4862
G1 X59.966 Y178.261 E6.5461
G1 X59.963 Y178.263 E6.5463
G1 X59.903 Y178.293 E6.5496
G1 X59.900 Y178.294 E6.5497
G1 X58.768 Y178.816 E6.6108
G1 X58.764 Y178.817 E6.6110
G1 X58.691 Y178.848 E6.6149
G1 X58.687 Y178.849 E6.6151
G1 X57.501 Y179.290 E6.6771
G1 X57.497 Y179.291 E6.6773
G1 X57.409 Y179.320 E6.6818
G1 X57.404 Y179.321 E6.6820
G1 X56.171 Y179.659 E6.7447
G1 X56.166 Y179.661 E6.7450
G1 X56.060 Y179.684 E6.7502
G1 X56.055 Y179.685 E6.7505
G1 X54.793 Y179.895 E6.8131
G1 X54.789 Y179.896 E6.8134
G1 X54.697 Y179.907 E6.8179
G1 X54.692 Y179.907 E6.8181
G1 X53.431 Y180.005 E6.8801
G1 X53.427 Y180.005 E6.8803
G1 X53.348 Y180.008 E6.8842
G1 X53.344 Y180.008 E6.8844
G1 X52.097 Y180.010 E6.9455
G1 X52.093 Y180.010 E6.9456
G1 X52.027 Y180.008 E6.9489
G1 X52.023 Y180.008 E6.9491
G1 X50.803 Y179.932 E7.0090
G1 X50.800 Y179.932 E7.0091
G1 X50.743 Y179.926 E7.0119
G1 X50.740 Y179.926 E7.0120
G1 X49.550 Y179.787 E7.0707
G1 X49.547 Y179.786 E7.0709
G1 X49.481 Y179.776 E7.0741
G1 X49.478 Y179.776 E7.0743
G1 X47.307 Y179.382 E7.1824
G1 X47.304 Y179.381 E7.1825
G1 X47.254 Y179.371 E7.1850
G1 X47.252 Y179.371 E7.1851
G1 X46.253 Y179.139 E7.2354
G1 X46.251 Y179.138 E7.2355
G1 X46.215 Y179.129 E7.2373
G1 X46.213 Y179.129 E7.2374
G1 X44.493 Y178.666 E7.3246
G1 X44.490 Y178.665 E7.3247
G1 X44.431 Y178.647 E7.3278
G1 X44.428 Y178.646 E7.3279
G1 X42.880 Y178.130 E7.4079
G1 X42.877 Y178.129 E7.4080
G1 X42.820 Y178.108 E7.4110
G1 X42.818 Y178.107 E7.4111
G1 X41.303 Y177.504 E7.4909
G1 X41.301 Y177.503 E7.4911
G1 X41.257 Y177.484 E7.4934
G1 X41.255 Y177.483 E7.4935
G1 X38.768 Y176.357 E7.6273
G1 X38.765 Y176.356 E7.6274
G1 X38.710 Y176.329 E7.6304
G1 X38.707 Y176.328 E7.6305
G1 X37.710 Y175.804 E7.6857
G1 X37.706 Y175.803 E7.6859
G1 X37.640 Y175.765 E7.6896
G1 X37.637 Y175.763 E7.6898
G1 X36.557 Y175.093 E7.7521
G1 X36.553 Y175.090 E7.7523
G1 X36.480 Y175.041 E7.7566
G1 X36.476 Y175.038 E7.7569
G1 X35.313 Y174.173 E7.8279
G1 X35.309 Y174.170 E7.8281
G1 X35.239 Y174.113 E7.8325
G1 X35.236 Y174.110 E7.8327
G1 X33.991 Y173.006 E7.9142
G1 X33.988 Y173.003 E7.9144
G1 X33.926 Y172.944 E7.9186
G1 X33.923 Y172.941 E7.9189
G1 X32.594 Y171.554 E8.0129
G1 X32.592 Y171.551 E8.0131
G1 X32.540 Y171.493 E8.0169
G1 X32.538 Y171.490 E8.0171
G1 X31.121 Y169.775 E8.1260
G1 X31.119 Y169.773 E8.1262
G1 X31.078 Y169.720 E8.1295
G1 X31.076 Y169.717 E8.1296
G1 X29.562 Y167.627 E8.2560
G1 X29.561 Y167.624 E8.2562
G1 X29.528 Y167.576 E8.2590
G1 X29.526 Y167.574 E8.2592
G1 X27.912 Y165.063 E8.4054
G1 X27.911 Y165.061 E8.4055
G1 X27.889 Y165.025 E8.4076
G1 X27.887 Y165.023 E8.4077
G1 X26.200 Y162.153 E8.5708
G1 X26.199 Y162.152 E8.5708
G1 X26.182 Y162.122 E8.5725
G1 X26.181 Y162.120 E8.5726
G1 X24.451 Y158.946 E8.7497
G1 X24.451 Y158.944 E8.7498
G1 X24.437 Y158.919 E8.7512
G1 X24.436 Y158.918 E8.7512
G1 X22.692 Y155.497 E8.9393
G1 X22.691 Y155.496 E8.9394
G1 X22.680 Y155.472 E8.9407
G1 X22.679 Y155.471 E8.9408
G1 X20.952 Y151.862 E9.1367
G1 X20.952 Y151.861 E9.1368
G1 X20.941 Y151.837 E9.1380
G1 X20.941 Y151.836 E9.1381
G1 X19.262 Y148.099 E9.3388
G1 X19.262 Y148.097 E9.3388
G1 X19.252 Y148.073 E9.3401
G1 X19.251 Y148.072 E9.3402
G1 X17.654 Y144.263 E9.5425
G1 X17.653 Y144.262 E9.5425
G1 X17.643 Y144.237 E9.5439
G1 X17.642 Y144.235 E9.5439
G1 X16.156 Y140.415 E9.7447
G1 X16.155 Y140.413 E9.7448
G1 X16.145 Y140.385 E9.7463
G1 X16.144 Y140.383 E9.7464
G1 X14.802 Y136.614 E9.9423
G1 X14.802 Y136.613 E9.9424
G1 X14.793 Y136.589 E9.9436
G1 X14.793 Y136.588 E9.9437
G1 X13.599 Y132.958 E10.1309
G1 X13.599 Y132.957 E10.1309
G1 X13.593 Y132.938 E10.1319
G1 X13.592 Y132.937 E10.1319
G1 X12.508 Y129.418 E10.3123
G1 X12.508 Y129.417 E10.3123
G1 X12.504 Y129.403 E10.3131
G1 X12.504 Y129.402 E10.3131
G1 X11.531 Y126.078 E10.4827
G1 X11.531 Y126.078 E10.4827
G1 X11.528 Y126.068 E10.4832
G1 X11.528 Y126.068 E10.4833
G1 X9.187 Y117.766 E10.9057
G1 X8.568 Y115.731 E11.0099
G1 X8.026 Y114.180 E11.0904
G1 X7.556 Y113.028 E11.1513
G1 X7.167 Y112.232 E11.1947
G1 X6.870 Y111.741 E11.2228
G1 X6.680 Y111.497 E11.2380
G1 X6.607 Y111.426 E11.2430
G1 X5.969 Y110.984 E11.2810
G1 X5.958 Y110.975 E11.2817
G1 X5.745 Y110.779 E11.2959
G1 X5.735 Y110.769 E11.2966
G1 X5.347 Y110.298 E11.3265
G1 X5.332 Y110.274 E11.3279
G1 X5.098 Y109.747 E11.3561
G1 X5.090 Y109.719 E11.3575
G1 X4.978 Y108.956 E11.3953
G1 X4.978 Y108.923 E11.3969
G1 X5.087 Y108.273 E11.4291
G1 X5.097 Y108.242 E11.4307
G1 X5.421 Y107.614 E11.4654
G1 X5.431 Y107.598 E11.4663
G1 X5.659 Y107.300 E11.4847
G1 X5.671 Y107.287 E11.4856
G1 X6.098 Y106.897 E11.5139
G1 X6.104 Y106.891 E11.5143
G1 X6.247 Y106.782 E11.5231
G1 X6.254 Y106.777 E11.5235
G1 X6.747 Y106.461 E11.5522
G1 X6.751 Y106.459 E11.5524
G1 X6.831 Y106.413 E11.5569
G1 X6.835 Y106.410 E11.5571
G1 X7.457 Y106.085 E11.5916
G1 X7.459 Y106.083 E11.5917
G1 X7.507 Y106.060 E11.5943
G1 X7.509 Y106.059 E11.5944
