; G-Code generated by Simplify3D(R) Version 3.0.2
; ríj 24, 2016 at 9:11:03 ODP.
; Settings Summary
;   processName,fuselage2per
;   applyToModels,fuselage_2
;   profileName,Default (modified)
;   profileVersion,2015-07-24 21:36:39
;   baseProfile,
;   printMaterial,
;   printQuality,
;   printExtruders,
;   extruderName,Primary Extruder
;   extruderToolheadNumber,0
;   extruderDiameter,0.4
;   extruderAutoWidth,0
;   extruderWidth,0.42
;   extrusionMultiplier,1.02
;   extruderUseRetract,1
;   extruderRetractionDistance,0.8
;   extruderExtraRestartDistance,0.12
;   extruderRetractionZLift,0
;   extruderRetractionSpeed,1800
;   extruderUseCoasting,1
;   extruderCoastingDistance,0.2
;   extruderUseWipe,1
;   extruderWipeDistance,2
;   primaryExtruder,0
;   layerHeight,0.25
;   topSolidLayers,0
;   bottomSolidLayers,0
;   perimeterOutlines,2
;   printPerimetersInsideOut,1
;   startPointOption,3
;   startPointOriginX,0
;   startPointOriginY,0
;   startPointOriginZ,0
;   sequentialIslands,0
;   spiralVaseMode,0
;   firstLayerHeightPercentage,90
;   firstLayerWidthPercentage,110
;   firstLayerUnderspeed,0.5
;   useRaft,0
;   raftExtruder,0
;   raftLayers,3
;   raftOffset,3
;   raftSeparationDistance,0.14
;   raftInfill,85
;   disableRaftBaseLayers,0
;   useSkirt,1
;   skirtExtruder,0
;   skirtLayers,1
;   skirtOutlines,1
;   skirtOffset,2
;   usePrimePillar,0
;   primePillarExtruder,999
;   primePillarWidth,12
;   primePillarLocation,7
;   primePillarSpeedMultiplier,1
;   useOozeShield,0
;   oozeShieldExtruder,999
;   oozeShieldOffset,2
;   oozeShieldOutlines,1
;   oozeShieldSidewallShape,1
;   oozeShieldSidewallAngle,30
;   oozeShieldSpeedMultiplier,1
;   infillExtruder,0
;   internalInfillPattern,Rectilinear
;   externalInfillPattern,Rectilinear
;   infillPercentage,0
;   outlineOverlapPercentage,15
;   infillExtrusionWidthPercentage,100
;   minInfillLength,5
;   infillLayerInterval,1
;   infillAngles,45,-45
;   overlapInfillAngles,0
;   generateSupport,0
;   supportExtruder,0
;   supportInfillPercentage,30
;   supportExtraInflation,0
;   denseSupportLayers,0
;   denseSupportInfillPercentage,70
;   supportLayerInterval,1
;   supportHorizontalPartOffset,0.3
;   supportUpperSeparationLayers,1
;   supportLowerSeparationLayers,1
;   supportType,0
;   supportGridSpacing,4
;   maxOverhangAngle,45
;   supportAngles,0
;   temperatureName,Primary Extruder,Heated Bed
;   temperatureNumber,0,1
;   temperatureSetpointCount,1,1
;   temperatureSetpointLayers,1,1
;   temperatureSetpointTemperatures,230,55
;   temperatureStabilizeAtStartup,1,1
;   temperatureHeatedBed,0,1
;   temperatureRelayBetweenLayers,0,0
;   temperatureRelayBetweenLoops,0,0
;   fanLayers,1
;   fanSpeeds,0
;   blipFanToFullPower,1
;   adjustSpeedForCooling,1
;   minSpeedLayerTime,15
;   minCoolingSpeedSlowdown,20
;   increaseFanForCooling,0
;   minFanLayerTime,45
;   maxCoolingFanSpeed,100
;   increaseFanForBridging,0
;   bridgingFanSpeed,100
;   use5D,1
;   relativeEdistances,0
;   allowEaxisZeroing,1
;   independentExtruderAxes,0
;   includeM10123,0
;   stickySupport,1
;   applyToolheadOffsets,0
;   gcodeXoffset,0
;   gcodeYoffset,0
;   gcodeZoffset,0
;   overrideMachineDefinition,1
;   machineTypeOverride,0
;   strokeXoverride,200
;   strokeYoverride,200
;   strokeZoverride,150
;   originOffsetXoverride,0
;   originOffsetYoverride,0
;   originOffsetZoverride,0
;   homeXdirOverride,-1
;   homeYdirOverride,-1
;   homeZdirOverride,-1
;   flipXoverride,1
;   flipYoverride,-1
;   flipZoverride,1
;   toolheadOffsets,0,0|0,0|0,0|0,0|0,0|0,0
;   overrideFirmwareConfiguration,1
;   firmwareTypeOverride,RepRap (Marlin/Repetier/Sprinter)
;   GPXconfigOverride,r2
;   baudRateOverride,115200
;   overridePrinterModels,0
;   printerModelsOverride
;   startingGcode,G28,
;   layerChangeGcode,
;   retractionGcode,
;   toolChangeGcode,
;   endingGcode,M104 S0 ; turn off extruder,M140 S0 ; turn off bed,G28 X0 ; home X axis,M84 ; disable motors,M107 ; turn off fan
;   createX3G,0
;   celebration,0
;   celebrationSong,Random Song
;   createMB5G,0
;   postProcessing,
;   defaultSpeed,3600
;   outlineUnderspeed,0.7
;   solidInfillUnderspeed,0.8
;   supportUnderspeed,0.8
;   rapidXYspeed,9000
;   rapidZspeed,1002
;   minBridgingArea,5
;   bridgingExtraInflation,0
;   bridgingExtrusionMultiplier,1
;   bridgingSpeedMultiplier,0.3
;   filamentDiameter,1.75
;   filamentPricePerKg,1000
;   filamentDensity,1.25
;   useMinPrintHeight,1
;   minPrintHeight,0
;   useMaxPrintHeight,1
;   maxPrintHeight,4
;   useDiaphragm,0
;   diaphragmLayerInterval,20
;   robustSlicing,1
;   mergeAllIntoSolid,0
;   onlyRetractWhenCrossingOutline,0
;   retractBetweenLayers,0
;   useRetractionMinTravel,0
;   retractionMinTravel,3
;   retractWhileWiping,0
;   onlyWipeOutlines,1
;   avoidCrossingOutline,0
;   maxMovementDetourFactor,3
;   toolChangeRetractionDistance,0
;   toolChangeExtraRestartDistance,0
;   toolChangeRetractionSpeed,360
;   allowThinWallGapFill,1
;   thinWallAllowedOverlapPercentage,10
;   horizontalSizeCompensation,0
G90
M82
M106 S0
M140 S55
M190 S55
M104 S230 T0
M109 S230 T0
G28
G92 E0
G1 E-0.8000 F1800
G1 Z0.225 F1002
; layer 1, Z = 0.225
T0
; tool H0.250 W0.462
; skirt
G1 X107.543 Y94.569 F9000
G1 E0.1200 F540
G92 E0
G1 X114.912 Y94.586 E0.3609 F1800
G1 X114.913 Y94.586 E0.3610
G1 X114.928 Y94.586 E0.3617
G1 X114.929 Y94.586 E0.3618
G1 X116.469 Y94.612 E0.4372
G1 X116.470 Y94.612 E0.4373
G1 X116.500 Y94.613 E0.4387
G1 X116.501 Y94.613 E0.4388
G1 X119.462 Y94.746 E0.5839
G1 X119.465 Y94.746 E0.5841
G1 X119.527 Y94.751 E0.5872
G1 X119.530 Y94.751 E0.5873
G1 X122.437 Y95.055 E0.7305
G1 X122.442 Y95.056 E0.7307
G1 X122.536 Y95.070 E0.7354
G1 X122.541 Y95.071 E0.7356
G1 X125.518 Y95.660 E0.8843
G1 X125.523 Y95.661 E0.8845
G1 X125.614 Y95.683 E0.8891
G1 X125.619 Y95.684 E0.8893
G1 X127.298 Y96.175 E0.9750
G1 X127.300 Y96.176 E0.9751
G1 X127.345 Y96.190 E0.9774
G1 X127.347 Y96.191 E0.9775
G1 X130.382 Y97.227 E1.1346
G1 X130.400 Y97.235 E1.1356
G1 X130.757 Y97.441 E1.1558
G1 X130.774 Y97.453 E1.1568
G1 X131.131 Y97.766 E1.1800
G1 X132.325 Y98.400 E1.2463
G1 X132.335 Y98.405 E1.2468
G1 X132.519 Y98.529 E1.2577
G1 X132.528 Y98.536 E1.2582
G1 X132.924 Y98.869 E1.2836
G1 X136.351 Y101.254 E1.4881
G1 X137.602 Y102.063 E1.5611
G1 X139.403 Y103.081 E1.6624
G1 X141.201 Y103.878 E1.7587
G1 X142.955 Y104.393 E1.8482
G1 X144.627 Y104.577 E1.9306
G1 X146.299 Y104.393 E2.0130
G1 X148.052 Y103.878 E2.1025
G1 X149.850 Y103.081 E2.1988
G1 X151.651 Y102.063 E2.3002
G1 X152.902 Y101.254 E2.3731
G1 X156.329 Y98.869 E2.5776
G1 X156.726 Y98.536 E2.6030
G1 X156.735 Y98.529 E2.6035
G1 X156.919 Y98.405 E2.6144
G1 X156.928 Y98.400 E2.6150
G1 X158.122 Y97.766 E2.6812
G1 X158.480 Y97.453 E2.7044
G1 X158.496 Y97.441 E2.7054
G1 X158.853 Y97.235 E2.7256
G1 X158.872 Y97.227 E2.7266
G1 X161.906 Y96.191 E2.8837
G1 X161.908 Y96.190 E2.8838
G1 X161.953 Y96.176 E2.8861
G1 X161.955 Y96.175 E2.8862
G1 X163.635 Y95.684 E2.9719
G1 X163.639 Y95.683 E2.9721
G1 X163.730 Y95.661 E2.9767
G1 X163.735 Y95.660 E2.9770
G1 X166.713 Y95.071 E3.1256
G1 X166.717 Y95.070 E3.1258
G1 X166.812 Y95.056 E3.1305
G1 X166.817 Y95.055 E3.1308
G1 X169.723 Y94.751 E3.2739
G1 X169.726 Y94.751 E3.2741
G1 X169.789 Y94.746 E3.2771
G1 X169.792 Y94.746 E3.2773
G1 X172.752 Y94.613 E3.4224
G1 X172.754 Y94.613 E3.4225
G1 X172.783 Y94.612 E3.4239
G1 X172.784 Y94.612 E3.4240
G1 X174.324 Y94.586 E3.4994
G1 X174.325 Y94.586 E3.4995
G1 X174.341 Y94.586 E3.5002
G1 X174.341 Y94.586 E3.5003
G1 X181.584 Y94.569 E3.8550
G1 X181.675 Y94.616 E3.8600
G1 X182.933 Y96.392 E3.9666
G1 X182.947 Y96.493 E3.9716
G1 X182.520 Y97.700 E4.0343
G1 X182.516 Y97.710 E4.0348
G1 X182.425 Y97.902 E4.0453
G1 X182.420 Y97.912 E4.0458
G1 X181.999 Y98.610 E4.0857
G1 X181.984 Y98.756 E4.0929
G1 X181.934 Y112.718 E4.7768
G1 X181.934 Y112.719 E4.7768
G1 X181.934 Y112.728 E4.7772
G1 X181.934 Y112.728 E4.7773
G1 X181.894 Y116.135 E4.9441
G1 X181.894 Y116.136 E4.9442
G1 X181.893 Y116.145 E4.9446
G1 X181.893 Y116.146 E4.9447
G1 X181.727 Y123.929 E5.3260
G1 X181.727 Y123.930 E5.3260
G1 X181.727 Y123.941 E5.3266
G1 X181.727 Y123.942 E5.3266
G1 X181.587 Y128.283 E5.5393
G1 X181.587 Y128.283 E5.5394
G1 X181.587 Y128.292 E5.5398
G1 X181.587 Y128.292 E5.5398
G1 X181.401 Y132.900 E5.7656
G1 X181.401 Y132.900 E5.7657
G1 X181.401 Y132.909 E5.7661
G1 X181.401 Y132.910 E5.7661
G1 X181.163 Y137.764 E6.0042
G1 X181.163 Y137.765 E6.0042
G1 X181.162 Y137.778 E6.0049
G1 X181.162 Y137.779 E6.0049
G1 X180.855 Y142.769 E6.2498
G1 X180.855 Y142.770 E6.2498
G1 X180.854 Y142.788 E6.2507
G1 X180.854 Y142.789 E6.2508
G1 X180.461 Y147.798 E6.4969
G1 X180.461 Y147.799 E6.4969
G1 X180.459 Y147.823 E6.4981
G1 X180.459 Y147.824 E6.4981
G1 X179.963 Y152.740 E6.7401
G1 X179.963 Y152.741 E6.7402
G1 X179.960 Y152.772 E6.7417
G1 X179.959 Y152.773 E6.7418
G1 X179.345 Y157.482 E6.9744
G1 X179.345 Y157.484 E6.9745
G1 X179.339 Y157.525 E6.9765
G1 X179.338 Y157.528 E6.9766
G1 X178.587 Y161.918 E7.1948
G1 X178.587 Y161.921 E7.1950
G1 X178.575 Y161.979 E7.1978
G1 X178.575 Y161.982 E7.1980
G1 X177.666 Y165.946 E7.3972
G1 X177.664 Y165.950 E7.3974
G1 X177.642 Y166.034 E7.4016
G1 X177.640 Y166.038 E7.4019
G1 X176.548 Y169.475 E7.5785
G1 X176.546 Y169.482 E7.5788
G1 X176.496 Y169.609 E7.5855
G1 X176.493 Y169.615 E7.5859
G1 X175.187 Y172.405 E7.7368
G1 X175.183 Y172.413 E7.7372
G1 X175.099 Y172.560 E7.7455
G1 X175.095 Y172.567 E7.7459
G1 X173.589 Y174.776 E7.8768
G1 X173.583 Y174.784 E7.8773
G1 X173.458 Y174.934 E7.8869
G1 X173.452 Y174.941 E7.8874
G1 X171.765 Y176.633 E8.0043
G1 X171.758 Y176.640 E8.0048
G1 X171.601 Y176.769 E8.0148
G1 X171.593 Y176.775 E8.0153
G1 X169.761 Y178.011 E8.1235
G1 X169.753 Y178.016 E8.1240
G1 X169.592 Y178.105 E8.1330
G1 X169.584 Y178.109 E8.1334
G1 X167.660 Y178.966 E8.2366
G1 X167.653 Y178.968 E8.2369
G1 X167.518 Y179.018 E8.2440
G1 X167.511 Y179.020 E8.2444
G1 X165.536 Y179.591 E8.3451
G1 X165.531 Y179.593 E8.3453
G1 X165.438 Y179.615 E8.3500
G1 X165.433 Y179.616 E8.3502
G1 X163.435 Y180.001 E8.4499
G1 X163.432 Y180.002 E8.4500
G1 X163.381 Y180.010 E8.4526
G1 X163.379 Y180.011 E8.4527
G1 X155.307 Y181.157 E8.8520
G1 X155.305 Y181.157 E8.8521
G1 X155.272 Y181.161 E8.8538
G1 X155.270 Y181.162 E8.8538
G1 X151.109 Y181.618 E9.0589
G1 X151.108 Y181.618 E9.0589
G1 X151.074 Y181.621 E9.0606
G1 X151.073 Y181.621 E9.0607
G1 X148.961 Y181.785 E9.1644
G1 X148.959 Y181.785 E9.1645
G1 X148.931 Y181.787 E9.1659
G1 X148.929 Y181.787 E9.1660
G1 X146.812 Y181.894 E9.2698
G1 X146.810 Y181.894 E9.2699
G1 X146.777 Y181.895 E9.2715
G1 X146.775 Y181.895 E9.2716
G1 X144.648 Y181.934 E9.3758
G1 X144.646 Y181.934 E9.3759
G1 X144.607 Y181.934 E9.3778
G1 X144.605 Y181.934 E9.3779
G1 X142.478 Y181.895 E9.4821
G1 X142.477 Y181.895 E9.4822
G1 X142.443 Y181.894 E9.4838
G1 X142.442 Y181.894 E9.4839
G1 X140.324 Y181.787 E9.5877
G1 X140.323 Y181.787 E9.5878
G1 X140.294 Y181.785 E9.5892
G1 X140.293 Y181.785 E9.5893
G1 X138.181 Y181.621 E9.6930
G1 X138.179 Y181.621 E9.6931
G1 X138.146 Y181.618 E9.6948
G1 X138.144 Y181.618 E9.6948
G1 X133.983 Y181.162 E9.8999
G1 X133.981 Y181.161 E9.8999
G1 X133.948 Y181.157 E9.9016
G1 X133.946 Y181.157 E9.9017
G1 X125.875 Y180.011 E10.3010
G1 X125.872 Y180.010 E10.3011
G1 X125.821 Y180.002 E10.3037
G1 X125.818 Y180.001 E10.3038
G1 X123.820 Y179.616 E10.4035
G1 X123.816 Y179.615 E10.4037
G1 X123.722 Y179.593 E10.4084
G1 X123.717 Y179.591 E10.4086
G1 X121.743 Y179.020 E10.5093
G1 X121.736 Y179.018 E10.5097
G1 X121.600 Y178.968 E10.5168
G1 X121.593 Y178.966 E10.5171
G1 X119.669 Y178.109 E10.6203
G1 X119.661 Y178.105 E10.6207
G1 X119.500 Y178.016 E10.6297
G1 X119.492 Y178.011 E10.6302
G1 X117.661 Y176.775 E10.7384
G1 X117.653 Y176.769 E10.7389
G1 X117.496 Y176.640 E10.7489
G1 X117.488 Y176.633 E10.7494
G1 X115.802 Y174.941 E10.8664
G1 X115.795 Y174.934 E10.8668
G1 X115.670 Y174.784 E10.8764
G1 X115.665 Y174.776 E10.8769
G1 X114.159 Y172.567 E11.0078
G1 X114.154 Y172.560 E11.0082
G1 X114.070 Y172.413 E11.0165
G1 X114.067 Y172.405 E11.0169
G1 X112.760 Y169.615 E11.1678
G1 X112.758 Y169.609 E11.1682
G1 X112.708 Y169.482 E11.1749
G1 X112.706 Y169.475 E11.1752
G1 X111.613 Y166.038 E11.3518
G1 X111.612 Y166.034 E11.3521
G1 X111.589 Y165.950 E11.3563
G1 X111.588 Y165.946 E11.3565
G1 X110.679 Y161.982 E11.5557
G1 X110.678 Y161.979 E11.5559
G1 X110.667 Y161.921 E11.5587
G1 X110.666 Y161.918 E11.5589
G1 X109.915 Y157.528 E11.7771
G1 X109.915 Y157.525 E11.7772
G1 X109.909 Y157.484 E11.7792
G1 X109.908 Y157.482 E11.7793
G1 X109.294 Y152.773 E12.0119
G1 X109.294 Y152.772 E12.0120
G1 X109.290 Y152.741 E12.0135
G1 X109.290 Y152.740 E12.0136
G1 X108.795 Y147.824 E12.2556
G1 X108.795 Y147.823 E12.2556
G1 X108.793 Y147.799 E12.2568
G1 X108.792 Y147.798 E12.2568
G1 X108.400 Y142.789 E12.5029
G1 X108.400 Y142.788 E12.5030
G1 X108.398 Y142.770 E12.5039
G1 X108.398 Y142.769 E12.5039
G1 X108.091 Y137.779 E12.7488
G1 X108.091 Y137.778 E12.7488
G1 X108.090 Y137.765 E12.7495
G1 X108.090 Y137.764 E12.7495
G1 X107.853 Y132.910 E12.9876
G1 X107.853 Y132.909 E12.9876
G1 X107.852 Y132.900 E12.9880
G1 X107.852 Y132.900 E12.9881
G1 X107.666 Y128.290 E13.2140
G1 X107.666 Y128.290 E13.2140
G1 X107.666 Y128.277 E13.2147
G1 X107.666 Y128.277 E13.2147
G1 X107.422 Y119.684 E13.6357
G1 X107.422 Y119.684 E13.6357
G1 X107.422 Y119.666 E13.6366
G1 X107.422 Y119.666 E13.6366
G1 X107.298 Y109.420 E14.1385
G1 X107.298 Y109.419 E14.1385
G1 X107.298 Y109.410 E14.1390
G1 X107.298 Y109.409 E14.1390
G1 X107.269 Y98.755 E14.6609
G1 X107.253 Y98.598 E14.6686
G1 X106.232 Y96.844 E14.7680
G1 X106.231 Y96.731 E14.7735
G1 X107.401 Y94.701 E14.8883
G1 X107.445 Y94.625 F1800
G1 X107.543 Y94.569 F1800
G92 E0
G1 E-0.8000 F1800
; inner perimeter
G1 X109.967 Y97.478 F9000
G1 E0.1200 F1800
G92 E0
G1 X114.893 Y97.489 E0.2413 F1530
G1 X116.398 Y97.514 E0.3150
G1 X117.826 Y97.565 E0.3850
G1 X119.276 Y97.643 E0.4561
G1 X122.056 Y97.934 E0.5930
G1 X124.875 Y98.492 E0.7338
G1 X126.195 Y98.894 E0.8014
G1 X126.469 Y98.958 E0.8151
G1 X127.981 Y99.454 E0.8931
G1 X129.115 Y99.860 E0.9521
G1 X129.472 Y100.172 E0.9753
G1 X130.802 Y100.878 E1.0491
G1 X131.161 Y101.180 E1.0720
G1 X132.443 Y102.050 E1.1479
G1 X132.888 Y102.394 E1.1755
G1 X134.735 Y103.666 E1.2853
G1 X136.099 Y104.548 E1.3649
G1 X138.097 Y105.678 E1.4773
G1 X140.200 Y106.610 E1.5900
G1 X142.383 Y107.250 E1.7014
G1 X144.627 Y107.498 E1.8120
G1 X146.871 Y107.250 E1.9225
G1 X149.053 Y106.610 E2.0339
G1 X151.156 Y105.678 E2.1466
G1 X153.155 Y104.548 E2.2591
G1 X154.518 Y103.666 E2.3386
G1 X156.366 Y102.394 E2.4485
G1 X156.810 Y102.050 E2.4760
G1 X158.092 Y101.180 E2.5519
G1 X158.451 Y100.878 E2.5749
G1 X159.781 Y100.172 E2.6486
G1 X160.138 Y99.860 E2.6718
G1 X161.272 Y99.454 E2.7308
G1 X162.785 Y98.958 E2.8088
G1 X163.059 Y98.894 E2.8226
G1 X164.378 Y98.492 E2.8901
G1 X167.198 Y97.934 E3.0309
G1 X169.977 Y97.643 E3.1678
G1 X171.428 Y97.565 E3.2389
G1 X172.855 Y97.514 E3.3089
G1 X174.361 Y97.489 E3.3826
G1 X179.287 Y97.478 E3.6239
G1 X179.155 Y97.892 E3.6452
G1 X179.082 Y98.597 E3.6799
G1 X179.062 Y99.655 E3.7317
G1 X179.058 Y106.988 E4.0909
G1 X179.031 Y112.700 E4.3707
G1 X178.991 Y116.094 E4.5370
G1 X178.944 Y118.730 E4.6661
G1 X176.852 Y118.730 E4.7685
G1 X176.852 Y120.516 E4.8560
G1 X178.908 Y120.515 E4.9567
G1 X178.825 Y123.857 E5.1205
G1 X178.686 Y128.182 E5.3324
G1 X178.545 Y131.689 E5.5043
G1 X166.546 Y131.689 E6.0920
G1 X166.555 Y123.760 E6.4804
G1 X174.113 Y100.080 E7.6979
G1 X174.604 Y98.632 E7.7727
G1 X172.969 Y98.036 E7.8580
G1 X172.508 Y99.333 E7.9254
