; G-Code generated by Simplify3D(R) Version 3.0.2
; ríj 24, 2016 at 9:18:39 ODP.
; Settings Summary
;   processName,fuselage2per
;   applyToModels,fuselage_6
;   profileName,Default (modified)
;   profileVersion,2015-07-24 21:36:39
;   baseProfile,
;   printMaterial,
;   printQuality,
;   printExtruders,
;   extruderName,Primary Extruder
;   extruderToolheadNumber,0
;   extruderDiameter,0.4
;   extruderAutoWidth,0
;   extruderWidth,0.42
;   extrusionMultiplier,1.02
;   extruderUseRetract,1
;   extruderRetractionDistance,0.8
;   extruderExtraRestartDistance,0.12
;   extruderRetractionZLift,0
;   extruderRetractionSpeed,1800
;   extruderUseCoasting,1
;   extruderCoastingDistance,0.2
;   extruderUseWipe,1
;   extruderWipeDistance,2
;   primaryExtruder,0
;   layerHeight,0.25
;   topSolidLayers,0
;   bottomSolidLayers,0
;   perimeterOutlines,2
;   printPerimetersInsideOut,1
;   startPointOption,3
;   startPointOriginX,0
;   startPointOriginY,0
;   startPointOriginZ,0
;   sequentialIslands,0
;   spiralVaseMode,0
;   firstLayerHeightPercentage,90
;   firstLayerWidthPercentage,110
;   firstLayerUnderspeed,0.5
;   useRaft,0
;   raftExtruder,0
;   raftLayers,3
;   raftOffset,3
;   raftSeparationDistance,0.14
;   raftInfill,85
;   disableRaftBaseLayers,0
;   useSkirt,1
;   skirtExtruder,0
;   skirtLayers,1
;   skirtOutlines,1
;   skirtOffset,2
;   usePrimePillar,0
;   primePillarExtruder,999
;   primePillarWidth,12
;   primePillarLocation,7
;   primePillarSpeedMultiplier,1
;   useOozeShield,0
;   oozeShieldExtruder,999
;   oozeShieldOffset,2
;   oozeShieldOutlines,1
;   oozeShieldSidewallShape,1
;   oozeShieldSidewallAngle,30
;   oozeShieldSpeedMultiplier,1
;   infillExtruder,0
;   internalInfillPattern,Rectilinear
;   externalInfillPattern,Rectilinear
;   infillPercentage,0
;   outlineOverlapPercentage,15
;   infillExtrusionWidthPercentage,100
;   minInfillLength,5
;   infillLayerInterval,1
;   infillAngles,45,-45
;   overlapInfillAngles,0
;   generateSupport,0
;   supportExtruder,0
;   supportInfillPercentage,30
;   supportExtraInflation,0
;   denseSupportLayers,0
;   denseSupportInfillPercentage,70
;   supportLayerInterval,1
;   supportHorizontalPartOffset,0.3
;   supportUpperSeparationLayers,1
;   supportLowerSeparationLayers,1
;   supportType,0
;   supportGridSpacing,4
;   maxOverhangAngle,45
;   supportAngles,0
;   temperatureName,Primary Extruder,Heated Bed
;   temperatureNumber,0,1
;   temperatureSetpointCount,1,1
;   temperatureSetpointLayers,1,1
;   temperatureSetpointTemperatures,230,55
;   temperatureStabilizeAtStartup,1,1
;   temperatureHeatedBed,0,1
;   temperatureRelayBetweenLayers,0,0
;   temperatureRelayBetweenLoops,0,0
;   fanLayers,1
;   fanSpeeds,0
;   blipFanToFullPower,1
;   adjustSpeedForCooling,1
;   minSpeedLayerTime,15
;   minCoolingSpeedSlowdown,20
;   increaseFanForCooling,0
;   minFanLayerTime,45
;   maxCoolingFanSpeed,100
;   increaseFanForBridging,0
;   bridgingFanSpeed,100
;   use5D,1
;   relativeEdistances,0
;   allowEaxisZeroing,1
;   independentExtruderAxes,0
;   includeM10123,0
;   stickySupport,1
;   applyToolheadOffsets,0
;   gcodeXoffset,0
;   gcodeYoffset,0
;   gcodeZoffset,0
;   overrideMachineDefinition,1
;   machineTypeOverride,0
;   strokeXoverride,200
;   strokeYoverride,200
;   strokeZoverride,150
;   originOffsetXoverride,0
;   originOffsetYoverride,0
;   originOffsetZoverride,0
;   homeXdirOverride,-1
;   homeYdirOverride,-1
;   homeZdirOverride,-1
;   flipXoverride,1
;   flipYoverride,-1
;   flipZoverride,1
;   toolheadOffsets,0,0|0,0|0,0|0,0|0,0|0,0
;   overrideFirmwareConfiguration,1
;   firmwareTypeOverride,RepRap (Marlin/Repetier/Sprinter)
;   GPXconfigOverride,r2
;   baudRateOverride,115200
;   overridePrinterModels,0
;   printerModelsOverride
;   startingGcode,G28,
;   layerChangeGcode,
;   retractionGcode,
;   toolChangeGcode,
;   endingGcode,M104 S0 ; turn off extruder,M140 S0 ; turn off bed,G28 X0 ; home X axis,M84 ; disable motors,M107 ; turn off fan
;   createX3G,0
;   celebration,0
;   celebrationSong,Random Song
;   createMB5G,0
;   postProcessing,
;   defaultSpeed,3600
;   outlineUnderspeed,0.7
;   solidInfillUnderspeed,0.8
;   supportUnderspeed,0.8
;   rapidXYspeed,9000
;   rapidZspeed,1002
;   minBridgingArea,5
;   bridgingExtraInflation,0
;   bridgingExtrusionMultiplier,1
;   bridgingSpeedMultiplier,0.3
;   filamentDiameter,1.75
;   filamentPricePerKg,1000
;   filamentDensity,1.25
;   useMinPrintHeight,1
;   minPrintHeight,0
;   useMaxPrintHeight,1
;   maxPrintHeight,4
;   useDiaphragm,0
;   diaphragmLayerInterval,20
;   robustSlicing,1
;   mergeAllIntoSolid,0
;   onlyRetractWhenCrossingOutline,0
;   retractBetweenLayers,0
;   useRetractionMinTravel,0
;   retractionMinTravel,3
;   retractWhileWiping,0
;   onlyWipeOutlines,1
;   avoidCrossingOutline,0
;   maxMovementDetourFactor,3
;   toolChangeRetractionDistance,0
;   toolChangeExtraRestartDistance,0
;   toolChangeRetractionSpeed,360
;   allowThinWallGapFill,1
;   thinWallAllowedOverlapPercentage,10
;   horizontalSizeCompensation,0
G90
M82
M106 S0
M140 S55
M190 S55
M104 S230 T0
M109 S230 T0
G28
G92 E0
G1 E-0.8000 F1800
G1 Z0.225 F1002
; layer 1, Z = 0.225
T0
; tool H0.250 W0.462
; skirt
G1 X22.216 Y23.771 F9000
G1 E0.1200 F540
G92 E0
G1 X23.802 Y22.335 E0.1048 F1800
G1 X23.806 Y22.331 E0.1051
G1 X23.888 Y22.264 E0.1102
G1 X23.892 Y22.261 E0.1105
G1 X25.620 Y20.987 E0.2156
G1 X25.624 Y20.984 E0.2159
G1 X25.708 Y20.928 E0.2208
G1 X25.712 Y20.925 E0.2211
G1 X27.555 Y19.822 E0.3263
G1 X27.559 Y19.819 E0.3265
G1 X27.653 Y19.769 E0.3317
G1 X27.658 Y19.767 E0.3320
G1 X29.596 Y18.857 E0.4369
G1 X29.602 Y18.855 E0.4372
G1 X29.707 Y18.812 E0.4427
G1 X29.713 Y18.810 E0.4430
G1 X31.729 Y18.118 E0.5475
G1 X31.735 Y18.116 E0.5478
G1 X31.855 Y18.083 E0.5539
G1 X31.861 Y18.081 E0.5542
G1 X33.936 Y17.635 E0.6581
G1 X33.943 Y17.633 E0.6585
G1 X34.079 Y17.613 E0.6652
G1 X34.085 Y17.612 E0.6655
G1 X36.195 Y17.439 E0.7692
G1 X36.202 Y17.439 E0.7695
G1 X36.352 Y17.437 E0.7769
G1 X36.360 Y17.437 E0.7773
G1 X38.482 Y17.566 E0.8814
G1 X38.490 Y17.566 E0.8818
G1 X38.651 Y17.589 E0.8897
G1 X38.659 Y17.590 E0.8901
G1 X40.763 Y18.049 E0.9956
G1 X40.771 Y18.051 E0.9960
G1 X40.935 Y18.102 E1.0044
G1 X40.943 Y18.104 E1.0049
G1 X42.999 Y18.920 E1.1132
G1 X43.007 Y18.924 E1.1136
G1 X43.163 Y19.001 E1.1222
G1 X43.171 Y19.006 E1.1226
G1 X45.135 Y20.192 E1.2350
G1 X45.141 Y20.196 E1.2353
G1 X45.260 Y20.279 E1.2424
G1 X45.265 Y20.283 E1.2428
G1 X47.134 Y21.797 E1.3605
G1 X47.138 Y21.800 E1.3608
G1 X47.224 Y21.879 E1.3665
G1 X47.229 Y21.883 E1.3668
G1 X49.015 Y23.691 E1.4913
G1 X49.018 Y23.694 E1.4915
G1 X49.080 Y23.762 E1.4960
G1 X49.083 Y23.766 E1.4963
G1 X50.802 Y25.841 E1.6283
G1 X50.804 Y25.844 E1.6284
G1 X50.849 Y25.902 E1.6320
G1 X50.851 Y25.905 E1.6322
G1 X52.517 Y28.224 E1.7720
G1 X52.518 Y28.226 E1.7722
G1 X52.550 Y28.273 E1.7750
G1 X52.552 Y28.275 E1.7751
G1 X54.174 Y30.814 E1.9226
G1 X54.175 Y30.816 E1.9228
G1 X54.198 Y30.853 E1.9249
G1 X54.199 Y30.855 E1.9250
G1 X55.790 Y33.590 E2.0800
G1 X55.791 Y33.591 E2.0801
G1 X55.808 Y33.621 E2.0817
G1 X55.809 Y33.623 E2.0818
G1 X57.376 Y36.531 E2.2436
G1 X57.377 Y36.532 E2.2437
G1 X57.389 Y36.555 E2.2450
G1 X57.389 Y36.556 E2.2450
G1 X58.943 Y39.615 E2.4131
G1 X58.944 Y39.616 E2.4132
G1 X58.954 Y39.637 E2.4143
G1 X58.954 Y39.638 E2.4144
G1 X60.468 Y42.791 E2.5856
G1 X60.469 Y42.792 E2.5857
G1 X60.479 Y42.812 E2.5868
G1 X60.479 Y42.814 E2.5869
G1 X61.924 Y45.998 E2.7582
G1 X61.924 Y45.999 E2.7582
G1 X61.934 Y46.021 E2.7594
G1 X61.934 Y46.022 E2.7594
G1 X63.281 Y49.179 E2.9275
G1 X63.281 Y49.180 E2.9276
G1 X63.291 Y49.204 E2.9288
G1 X63.292 Y49.205 E2.9289
G1 X64.512 Y52.271 E3.0905
G1 X64.513 Y52.272 E3.0906
G1 X64.523 Y52.301 E3.0921
G1 X64.524 Y52.302 E3.0922
G1 X65.589 Y55.220 E3.2443
G1 X65.590 Y55.222 E3.2444
G1 X65.602 Y55.257 E3.2463
G1 X65.603 Y55.259 E3.2464
G1 X66.484 Y57.970 E3.3860
G1 X66.485 Y57.973 E3.3861
G1 X66.499 Y58.020 E3.3885
G1 X66.500 Y58.023 E3.3887
G1 X67.170 Y60.472 E3.5131
G1 X67.171 Y60.476 E3.5132
G1 X67.188 Y60.547 E3.5168
G1 X67.189 Y60.551 E3.5170
G1 X67.614 Y62.678 E3.6233
G1 X67.615 Y62.682 E3.6235
G1 X67.629 Y62.768 E3.6277
G1 X67.629 Y62.772 E3.6279
G1 X67.842 Y64.609 E3.7185
G1 X67.842 Y64.614 E3.7187
G1 X67.849 Y64.713 E3.7236
G1 X67.849 Y64.717 E3.7238
G1 X67.883 Y66.297 E3.8012
G1 X67.883 Y66.303 E3.8015
G1 X67.880 Y66.414 E3.8069
G1 X67.880 Y66.419 E3.8072
G1 X67.766 Y67.774 E3.8738
G1 X67.765 Y67.780 E3.8741
G1 X67.750 Y67.892 E3.8796
G1 X67.749 Y67.898 E3.8799
G1 X67.525 Y69.052 E3.9375
G1 X67.524 Y69.058 E3.9378
G1 X67.499 Y69.159 E3.9429
G1 X67.497 Y69.164 E3.9432
G1 X67.204 Y70.143 E3.9932
G1 X67.203 Y70.147 E3.9934
G1 X67.174 Y70.230 E3.9977
G1 X67.173 Y70.234 E3.9979
G1 X66.371 Y72.273 E4.1052
G1 X66.057 Y73.246 E4.1553
G1 X65.848 Y74.072 E4.1970
G1 X65.408 Y76.199 E4.3034
G1 X65.406 Y76.206 E4.3038
G1 X65.368 Y76.343 E4.3107
G1 X65.366 Y76.350 E4.3111
G1 X65.153 Y76.954 E4.3425
G1 X65.150 Y76.962 E4.3429
G1 X65.081 Y77.117 E4.3512
G1 X65.077 Y77.124 E4.3516
G1 X64.868 Y77.509 E4.3730
G1 X64.860 Y77.520 E4.3737
G1 X64.700 Y77.741 E4.3871
G1 X64.691 Y77.751 E4.3877
G1 X64.210 Y78.259 E4.4220
G1 X64.197 Y78.271 E4.4229
G1 X63.907 Y78.488 E4.4406
G1 X63.891 Y78.497 E4.4415
G1 X63.427 Y78.733 E4.4670
G1 X63.413 Y78.739 E4.4678
G1 X63.122 Y78.837 E4.4828
G1 X63.107 Y78.840 E4.4835
G1 X62.426 Y78.963 E4.5174
G1 X62.414 Y78.965 E4.5180
G1 X62.164 Y78.980 E4.5303
G1 X62.152 Y78.980 E4.5309
G1 X61.455 Y78.939 E4.5651
G1 X61.448 Y78.938 E4.5654
G1 X61.309 Y78.921 E4.5723
G1 X61.302 Y78.920 E4.5726
G1 X58.785 Y78.432 E4.6982
G1 X57.967 Y78.320 E4.7386
G1 X57.030 Y78.253 E4.7847
G1 X55.216 Y78.218 E4.8735
G1 X55.213 Y78.218 E4.8737
G1 X55.156 Y78.215 E4.8765
G1 X55.153 Y78.215 E4.8766
G1 X54.406 Y78.160 E4.9133
G1 X54.403 Y78.160 E4.9135
G1 X54.338 Y78.153 E4.9167
G1 X54.335 Y78.153 E4.9168
G1 X53.538 Y78.045 E4.9562
G1 X53.534 Y78.044 E4.9564
G1 X53.456 Y78.030 E4.9603
G1 X53.452 Y78.030 E4.9605
G1 X52.603 Y77.848 E5.0030
G1 X52.599 Y77.847 E5.0032
G1 X52.514 Y77.825 E5.0075
G1 X52.510 Y77.824 E5.0077
G1 X51.613 Y77.552 E5.0536
G1 X51.608 Y77.551 E5.0539
G1 X51.520 Y77.520 E5.0585
G1 X51.515 Y77.518 E5.0587
G1 X50.573 Y77.138 E5.1084
G1 X50.569 Y77.136 E5.1087
G1 X50.483 Y77.097 E5.1133
G1 X50.479 Y77.095 E5.1135
G1 X49.505 Y76.598 E5.1671
G1 X49.502 Y76.596 E5.1672
G1 X49.442 Y76.563 E5.1706
G1 X49.439 Y76.561 E5.1708
G1 X48.445 Y75.968 E5.2275
G1 X48.443 Y75.967 E5.2276
G1 X48.399 Y75.939 E5.2301
G1 X48.397 Y75.938 E5.2302
G1 X47.377 Y75.260 E5.2903
G1 X47.374 Y75.258 E5.2904
G1 X47.332 Y75.229 E5.2929
G1 X47.330 Y75.227 E5.2930
G1 X45.255 Y73.696 E5.4194
G1 X45.253 Y73.695 E5.4195
G1 X45.219 Y73.669 E5.4215
G1 X45.217 Y73.668 E5.4217
G1 X41.198 Y70.444 E5.6740
G1 X41.157 Y70.353 E5.6789
G1 X41.247 Y68.230 E5.7830
G1 X41.296 Y68.143 E5.7879
G1 X44.229 Y66.173 E5.9609
G1 X39.748 Y59.437 E6.3572
G1 X35.130 Y62.806 E6.6372
G1 X35.055 Y62.826 E6.6410
G1 X33.444 Y62.656 E6.7203
G1 X33.375 Y62.621 E6.7242
G1 X30.278 Y59.161 E6.9516
G1 X30.277 Y59.160 E6.9516
G1 X30.259 Y59.139 E6.9530
G1 X30.258 Y59.138 E6.9531
G1 X28.488 Y57.050 E7.0872
G1 X28.487 Y57.049 E7.0872
G1 X28.466 Y57.024 E7.0888
G1 X28.465 Y57.023 E7.0889
G1 X26.408 Y54.442 E7.2506
G1 X26.407 Y54.441 E7.2506
G1 X26.387 Y54.415 E7.2522
G1 X26.386 Y54.414 E7.2523
G1 X24.010 Y51.238 E7.4465
G1 X24.009 Y51.237 E7.4466
G1 X23.990 Y51.210 E7.4483
G1 X23.989 Y51.209 E7.4483
G1 X22.709 Y49.380 E7.5577
G1 X22.708 Y49.378 E7.5578
G1 X22.687 Y49.347 E7.5596
G1 X22.686 Y49.346 E7.5597
G1 X21.423 Y47.397 E7.6734
G1 X21.422 Y47.395 E7.6735
G1 X21.396 Y47.353 E7.6759
G1 X21.395 Y47.351 E7.6761
G1 X20.201 Y45.306 E7.7921
G1 X20.200 Y45.303 E7.7922
G1 X20.169 Y45.247 E7.7954
G1 X20.167 Y45.244 E7.7955
G1 X19.099 Y43.127 E7.9116
G1 X19.097 Y43.123 E7.9118
G1 X19.063 Y43.047 E7.9159
G1 X19.061 Y43.044 E7.9161
G1 X18.175 Y40.877 E8.0308
G1 X18.173 Y40.872 E8.0311
G1 X18.137 Y40.769 E8.0364
G1 X18.135 Y40.764 E8.0366
G1 X17.491 Y38.568 E8.1488
G1 X17.489 Y38.561 E8.1491
G1 X17.459 Y38.424 E8.1559
G1 X17.458 Y38.418 E8.1563
G1 X17.119 Y36.213 E8.2655
G1 X17.118 Y36.204 E8.2660
G1 X17.106 Y36.024 E8.2748
G1 X17.106 Y36.015 E8.2752
G1 X17.146 Y33.850 E8.3813
G1 X17.147 Y33.841 E8.3818
G1 X17.164 Y33.668 E8.3903
G1 X17.166 Y33.659 E8.3907
G1 X17.553 Y31.576 E8.4945
G1 X17.555 Y31.568 E8.4949
G1 X17.598 Y31.410 E8.5029
G1 X17.600 Y31.402 E8.5033
G1 X18.300 Y29.422 E8.6062
G1 X18.303 Y29.415 E8.6066
G1 X18.363 Y29.278 E8.6139
G1 X18.366 Y29.271 E8.6143
G1 X19.340 Y27.410 E8.7171
G1 X19.343 Y27.404 E8.7175
G1 X19.413 Y27.288 E8.7241
G1 X19.417 Y27.283 E8.7244
G1 X20.629 Y25.552 E8.8279
G1 X20.633 Y25.547 E8.8282
G1 X20.709 Y25.451 E8.8342
G1 X20.713 Y25.446 E8.8345
G1 X22.078 Y23.915 E8.9350
G1 X22.128 Y23.858 F1800
G1 X22.132 Y23.854 F1800
G1 X22.212 Y23.774 F1800
G1 X22.216 Y23.770 F1800
G92 E0
G1 E-0.8000 F1800
; inner perimeter
G1 X24.233 Y25.860 F9000
G1 E0.1200 F1800
G92 E0
G1 X25.686 Y24.545 E0.0959 F1530
G1 X27.275 Y23.373 E0.1927
G1 X28.970 Y22.358 E0.2895
G1 X30.744 Y21.525 E0.3854
G1 X32.574 Y20.898 E0.4802
G1 X34.437 Y20.496 E0.5735
G1 X36.309 Y20.342 E0.6655
G1 X38.171 Y20.455 E0.7569
G1 X40.005 Y20.855 E0.8488
G1 X41.794 Y21.565 E0.9431
G1 X43.532 Y22.615 E1.0425
G1 X45.231 Y23.992 E1.1497
G1 X46.896 Y25.677 E1.2657
G1 X48.528 Y27.647 E1.3910
G1 X50.131 Y29.879 E1.5256
G1 X51.708 Y32.346 E1.6690
G1 X53.267 Y35.025 E1.8209
G1 X54.811 Y37.889 E1.9802
G1 X56.346 Y40.913 E2.1463
G1 X57.688 Y43.707 E2.2981
G1 X40.507 Y55.336 E3.3143
G1 X40.485 Y55.304 E3.3162
G1 X34.578 Y59.615 E3.6744
G1 X33.302 Y58.202 E3.7677
G1 X32.459 Y57.245 E3.8302
G1 X30.717 Y55.191 E3.9621
G1 X29.740 Y53.986 E4.0380
G1 X28.694 Y52.654 E4.1210
G1 X27.568 Y51.171 E4.2122
G1 X26.353 Y49.524 E4.3125
G1 X25.105 Y47.741 E4.4190
G1 X23.881 Y45.852 E4.5293
G1 X22.735 Y43.888 E4.6406
G1 X21.722 Y41.881 E4.7508
G1 X20.896 Y39.861 E4.8577
G1 X20.309 Y37.862 E4.9597
G1 X20.011 Y35.920 E5.0559
G1 X20.046 Y34.048 E5.1476
G1 X20.382 Y32.241 E5.2377
G1 X20.996 Y30.507 E5.3278
G1 X21.859 Y28.856 E5.4190
G1 X22.948 Y27.302 E5.5120
G1 X24.100 Y26.009 E5.5968
G1 X24.233 Y25.860 F1530
G92 E0
G1 E-0.8000 F1800
G1 X41.496 Y56.823 F9000
G1 E0.1200 F1800
G92 E0
G1 X58.443 Y45.352 E1.0023 F1530
G1 X59.272 Y47.180 E1.1006
G1 X60.602 Y50.298 E1.2667
G1 X61.806 Y53.321 E1.4260
G1 X62.452 Y55.093 E1.5184
G1 X47.215 Y65.421 E2.4200
G1 X41.607 Y56.990 E2.9160
G1 X41.496 Y56.823 F1530
G92 E0
G1 E-0.8000 F1800
G1 X48.204 Y66.908 F9000
G1 E0.1200 F1800
G92 E0
G1 X63.063 Y56.836 E0.8792 F1530
G1 X63.711 Y58.829 E0.9819
G1 X64.354 Y61.180 E1.1013
G1 X64.754 Y63.177 E1.2010
G1 X64.949 Y64.862 E1.2841
G1 X64.979 Y66.268 E1.3530
G1 X64.881 Y67.438 E1.4105
G1 X64.692 Y68.414 E1.4592
G1 X64.444 Y69.240 E1.5014
G1 X63.636 Y71.295 E1.6096
G1 X63.265 Y72.444 E1.6687
G1 X63.017 Y73.425 E1.7183
G1 X62.717 Y74.950 E1.7944
G1 X62.592 Y75.488 E1.8215
G1 X62.462 Y75.857 E1.8406
G1 X62.411 Y75.951 E1.8459
G1 X62.347 Y76.033 E1.8510
G1 X62.246 Y76.060 E1.8561
G1 X62.141 Y76.071 E1.8613
G1 X61.733 Y76.047 E1.8813
G1 X61.187 Y75.953 E1.9084
G1 X60.120 Y75.729 E1.9618
G1 X59.257 Y75.566 E2.0048
G1 X58.269 Y75.431 E2.0537
G1 X57.161 Y75.352 E2.1081
G1 X55.319 Y75.317 E2.1983
G1 X54.672 Y75.269 E2.2301
G1 X53.994 Y75.177 E2.2636
G1 X53.281 Y75.025 E2.2993
G1 X52.529 Y74.797 E2.3378
G1 X51.731 Y74.475 E2.3799
G1 X50.877 Y74.039 E2.4269
G1 X49.968 Y73.496 E2.4788
G1 X49.015 Y72.863 E2.5348
