; G-Code generated by Simplify3D(R) Version 3.0.2
; ríj 24, 2016 at 9:16:54 ODP.
; Settings Summary
;   processName,fuselage2per
;   applyToModels,fuselage_4
;   profileName,Default (modified)
;   profileVersion,2015-07-24 21:36:39
;   baseProfile,
;   printMaterial,
;   printQuality,
;   printExtruders,
;   extruderName,Primary Extruder
;   extruderToolheadNumber,0
;   extruderDiameter,0.4
;   extruderAutoWidth,0
;   extruderWidth,0.42
;   extrusionMultiplier,1.02
;   extruderUseRetract,1
;   extruderRetractionDistance,0.8
;   extruderExtraRestartDistance,0.12
;   extruderRetractionZLift,0
;   extruderRetractionSpeed,1800
;   extruderUseCoasting,1
;   extruderCoastingDistance,0.2
;   extruderUseWipe,1
;   extruderWipeDistance,2
;   primaryExtruder,0
;   layerHeight,0.25
;   topSolidLayers,0
;   bottomSolidLayers,0
;   perimeterOutlines,2
;   printPerimetersInsideOut,1
;   startPointOption,3
;   startPointOriginX,0
;   startPointOriginY,0
;   startPointOriginZ,0
;   sequentialIslands,0
;   spiralVaseMode,0
;   firstLayerHeightPercentage,90
;   firstLayerWidthPercentage,110
;   firstLayerUnderspeed,0.5
;   useRaft,0
;   raftExtruder,0
;   raftLayers,3
;   raftOffset,3
;   raftSeparationDistance,0.14
;   raftInfill,85
;   disableRaftBaseLayers,0
;   useSkirt,1
;   skirtExtruder,0
;   skirtLayers,1
;   skirtOutlines,1
;   skirtOffset,2
;   usePrimePillar,0
;   primePillarExtruder,999
;   primePillarWidth,12
;   primePillarLocation,7
;   primePillarSpeedMultiplier,1
;   useOozeShield,0
;   oozeShieldExtruder,999
;   oozeShieldOffset,2
;   oozeShieldOutlines,1
;   oozeShieldSidewallShape,1
;   oozeShieldSidewallAngle,30
;   oozeShieldSpeedMultiplier,1
;   infillExtruder,0
;   internalInfillPattern,Rectilinear
;   externalInfillPattern,Rectilinear
;   infillPercentage,0
;   outlineOverlapPercentage,15
;   infillExtrusionWidthPercentage,100
;   minInfillLength,5
;   infillLayerInterval,1
;   infillAngles,45,-45
;   overlapInfillAngles,0
;   generateSupport,0
;   supportExtruder,0
;   supportInfillPercentage,30
;   supportExtraInflation,0
;   denseSupportLayers,0
;   denseSupportInfillPercentage,70
;   supportLayerInterval,1
;   supportHorizontalPartOffset,0.3
;   supportUpperSeparationLayers,1
;   supportLowerSeparationLayers,1
;   supportType,0
;   supportGridSpacing,4
;   maxOverhangAngle,45
;   supportAngles,0
;   temperatureName,Primary Extruder,Heated Bed
;   temperatureNumber,0,1
;   temperatureSetpointCount,1,1
;   temperatureSetpointLayers,1,1
;   temperatureSetpointTemperatures,230,55
;   temperatureStabilizeAtStartup,1,1
;   temperatureHeatedBed,0,1
;   temperatureRelayBetweenLayers,0,0
;   temperatureRelayBetweenLoops,0,0
;   fanLayers,1
;   fanSpeeds,0
;   blipFanToFullPower,1
;   adjustSpeedForCooling,1
;   minSpeedLayerTime,15
;   minCoolingSpeedSlowdown,20
;   increaseFanForCooling,0
;   minFanLayerTime,45
;   maxCoolingFanSpeed,100
;   increaseFanForBridging,0
;   bridgingFanSpeed,100
;   use5D,1
;   relativeEdistances,0
;   allowEaxisZeroing,1
;   independentExtruderAxes,0
;   includeM10123,0
;   stickySupport,1
;   applyToolheadOffsets,0
;   gcodeXoffset,0
;   gcodeYoffset,0
;   gcodeZoffset,0
;   overrideMachineDefinition,1
;   machineTypeOverride,0
;   strokeXoverride,200
;   strokeYoverride,200
;   strokeZoverride,150
;   originOffsetXoverride,0
;   originOffsetYoverride,0
;   originOffsetZoverride,0
;   homeXdirOverride,-1
;   homeYdirOverride,-1
;   homeZdirOverride,-1
;   flipXoverride,1
;   flipYoverride,-1
;   flipZoverride,1
;   toolheadOffsets,0,0|0,0|0,0|0,0|0,0|0,0
;   overrideFirmwareConfiguration,1
;   firmwareTypeOverride,RepRap (Marlin/Repetier/Sprinter)
;   GPXconfigOverride,r2
;   baudRateOverride,115200
;   overridePrinterModels,0
;   printerModelsOverride
;   startingGcode,G28,
;   layerChangeGcode,
;   retractionGcode,
;   toolChangeGcode,
;   endingGcode,M104 S0 ; turn off extruder,M140 S0 ; turn off bed,G28 X0 ; home X axis,M84 ; disable motors,M107 ; turn off fan
;   createX3G,0
;   celebration,0
;   celebrationSong,Random Song
;   createMB5G,0
;   postProcessing,
;   defaultSpeed,3600
;   outlineUnderspeed,0.7
;   solidInfillUnderspeed,0.8
;   supportUnderspeed,0.8
;   rapidXYspeed,9000
;   rapidZspeed,1002
;   minBridgingArea,5
;   bridgingExtraInflation,0
;   bridgingExtrusionMultiplier,1
;   bridgingSpeedMultiplier,0.3
;   filamentDiameter,1.75
;   filamentPricePerKg,1000
;   filamentDensity,1.25
;   useMinPrintHeight,1
;   minPrintHeight,0
;   useMaxPrintHeight,1
;   maxPrintHeight,4
;   useDiaphragm,0
;   diaphragmLayerInterval,20
;   robustSlicing,1
;   mergeAllIntoSolid,0
;   onlyRetractWhenCrossingOutline,0
;   retractBetweenLayers,0
;   useRetractionMinTravel,0
;   retractionMinTravel,3
;   retractWhileWiping,0
;   onlyWipeOutlines,1
;   avoidCrossingOutline,0
;   maxMovementDetourFactor,3
;   toolChangeRetractionDistance,0
;   toolChangeExtraRestartDistance,0
;   toolChangeRetractionSpeed,360
;   allowThinWallGapFill,1
;   thinWallAllowedOverlapPercentage,10
;   horizontalSizeCompensation,0
G90
M82
M106 S0
M140 S55
M190 S55
M104 S230 T0
M109 S230 T0
G28
G92 E0
G1 E-0.8000 F1800
G1 Z0.225 F1002
; layer 1, Z = 0.225
T0
; tool H0.250 W0.462
; skirt
G1 X34.965 Y11.561 F9000
G1 E0.1200 F540
G92 E0
G1 X35.038 Y11.526 E0.0040 F1800
G1 X62.391 Y9.701 E1.3467
G1 X62.391 Y9.701 E1.3467
G1 X62.397 Y9.701 E1.3470
G1 X62.398 Y9.701 E1.3470
G1 X72.590 Y9.080 E1.8471
G1 X72.590 Y9.080 E1.8472
G1 X72.597 Y9.080 E1.8475
G1 X72.597 Y9.080 E1.8475
G1 X82.373 Y8.547 E2.3270
G1 X82.374 Y8.547 E2.3271
G1 X82.382 Y8.546 E2.3275
G1 X82.382 Y8.546 E2.3275
G1 X91.742 Y8.109 E2.7864
G1 X91.742 Y8.109 E2.7864
G1 X91.753 Y8.109 E2.7870
G1 X91.754 Y8.109 E2.7870
G1 X105.268 Y7.621 E3.4494
G1 X105.269 Y7.621 E3.4494
G1 X105.280 Y7.620 E3.4499
G1 X105.281 Y7.620 E3.4500
G1 X114.120 Y7.397 E3.8831
G1 X114.121 Y7.397 E3.8831
G1 X114.130 Y7.397 E3.8835
G1 X114.130 Y7.397 E3.8836
G1 X123.304 Y7.246 E4.3329
G1 X123.304 Y7.246 E4.3329
G1 X123.313 Y7.246 E4.3334
G1 X123.314 Y7.246 E4.3334
G1 X132.281 Y7.176 E4.7727
G1 X132.282 Y7.176 E4.7727
G1 X132.291 Y7.176 E4.7731
G1 X132.291 Y7.176 E4.7731
G1 X141.504 Y7.185 E5.2244
G1 X141.505 Y7.185 E5.2244
G1 X141.513 Y7.185 E5.2248
G1 X141.514 Y7.185 E5.2249
G1 X151.091 Y7.271 E5.6940
G1 X151.091 Y7.271 E5.6940
G1 X151.099 Y7.271 E5.6944
G1 X151.099 Y7.271 E5.6944
G1 X161.125 Y7.434 E6.1855
G1 X161.126 Y7.434 E6.1855
G1 X161.132 Y7.434 E6.1859
G1 X161.132 Y7.434 E6.1859
G1 X176.799 Y7.784 E6.9534
G1 X176.799 Y7.784 E6.9534
G1 X176.803 Y7.784 E6.9536
G1 X176.803 Y7.784 E6.9536
G1 X193.317 Y8.209 E7.7627
G1 X193.392 Y8.241 E7.7667
G1 X194.578 Y9.426 E7.8488
G1 X194.609 Y9.500 E7.8528
G1 X194.687 Y12.411 E7.9954
G1 X194.659 Y12.487 E7.9993
G1 X193.529 Y13.735 E8.0818
G1 X193.456 Y13.771 E8.0858
G1 X177.731 Y14.922 E8.8580
G1 X171.874 Y15.403 E9.1459
G1 X168.208 Y15.789 E9.3264
G1 X166.452 Y16.021 E9.4132
G1 X164.726 Y16.290 E9.4987
G1 X163.034 Y16.604 E9.5830
G1 X161.369 Y16.968 E9.6665
G1 X159.747 Y17.384 E9.7485
G1 X158.218 Y17.875 E9.8272
G1 X156.803 Y18.466 E9.9023
G1 X155.521 Y19.178 E9.9741
G1 X154.378 Y20.034 E10.0440
G1 X153.371 Y21.070 E10.1148
G1 X152.493 Y22.339 E10.1904
G1 X151.754 Y23.908 E10.2753
G1 X151.168 Y25.874 E10.3758
G1 X150.722 Y28.230 E10.4933
G1 X150.402 Y30.911 E10.6255
G1 X150.182 Y33.858 E10.7702
G1 X150.028 Y37.066 E10.9276
G1 X149.778 Y43.807 E11.2580
G1 X149.778 Y43.808 E11.2580
G1 X149.777 Y43.821 E11.2587
G1 X149.777 Y43.822 E11.2587
G1 X149.607 Y47.250 E11.4268
G1 X149.607 Y47.251 E11.4269
G1 X149.605 Y47.275 E11.4281
G1 X149.605 Y47.277 E11.4281
G1 X149.350 Y50.759 E11.5991
G1 X149.350 Y50.760 E11.5992
G1 X149.348 Y50.783 E11.6003
G1 X149.348 Y50.784 E11.6004
G1 X149.021 Y54.223 E11.7696
G1 X149.021 Y54.224 E11.7696
G1 X149.019 Y54.245 E11.7707
G1 X149.019 Y54.246 E11.7707
G1 X148.631 Y57.601 E11.9361
G1 X148.630 Y57.602 E11.9362
G1 X148.628 Y57.623 E11.9372
G1 X148.628 Y57.624 E11.9373
G1 X148.182 Y60.899 E12.0991
G1 X148.182 Y60.900 E12.0992
G1 X148.178 Y60.921 E12.1002
G1 X148.178 Y60.922 E12.1003
G1 X147.698 Y63.986 E12.2522
G1 X147.698 Y63.987 E12.2522
G1 X147.694 Y64.009 E12.2533
G1 X147.694 Y64.010 E12.2534
G1 X147.183 Y66.869 E12.3957
G1 X147.183 Y66.870 E12.3957
G1 X147.178 Y66.895 E12.3969
G1 X147.178 Y66.896 E12.3970
G1 X146.648 Y69.512 E12.5277
G1 X146.647 Y69.513 E12.5278
G1 X146.641 Y69.542 E12.5292
G1 X146.641 Y69.543 E12.5293
G1 X146.099 Y71.878 E12.6467
G1 X146.099 Y71.880 E12.6468
G1 X146.090 Y71.916 E12.6486
G1 X146.089 Y71.918 E12.6487
G1 X145.547 Y73.930 E12.7508
G1 X145.546 Y73.932 E12.7509
G1 X145.535 Y73.971 E12.7529
G1 X145.534 Y73.973 E12.7530
G1 X144.998 Y75.692 E12.8412
G1 X144.998 Y75.695 E12.8413
G1 X144.984 Y75.736 E12.8434
G1 X144.983 Y75.738 E12.8436
G1 X144.461 Y77.197 E12.9195
G1 X144.460 Y77.200 E12.9196
G1 X144.443 Y77.243 E12.9218
G1 X144.442 Y77.245 E12.9220
G1 X143.937 Y78.481 E12.9874
G1 X143.936 Y78.484 E12.9875
G1 X143.910 Y78.543 E12.9907
G1 X143.909 Y78.545 E12.9908
G1 X143.015 Y80.402 E13.0917
G1 X143.014 Y80.404 E13.0918
G1 X142.994 Y80.443 E13.0940
G1 X142.993 Y80.445 E13.0941
G1 X142.082 Y82.151 E13.1888
G1 X141.967 Y82.426 E13.2034
G1 X141.896 Y82.671 E13.2159
G1 X141.850 Y82.961 E13.2303
G1 X141.830 Y83.391 E13.2514
G1 X141.853 Y84.021 E13.2823
G1 X141.930 Y84.871 E13.3240
G1 X142.488 Y89.083 E13.5322
G1 X142.488 Y89.084 E13.5322
G1 X142.491 Y89.108 E13.5334
G1 X142.491 Y89.109 E13.5334
G1 X142.695 Y90.968 E13.6251
G1 X142.695 Y90.970 E13.6251
G1 X142.698 Y91.008 E13.6270
G1 X142.699 Y91.009 E13.6271
G1 X142.847 Y93.025 E13.7261
G1 X142.847 Y93.028 E13.7262
G1 X142.850 Y93.079 E13.7287
G1 X142.850 Y93.082 E13.7288
G1 X142.903 Y95.216 E13.8334
G1 X142.903 Y95.219 E13.8336
G1 X142.902 Y95.284 E13.8368
G1 X142.902 Y95.288 E13.8369
G1 X142.820 Y97.504 E13.9456
G1 X142.820 Y97.508 E13.9458
G1 X142.813 Y97.589 E13.9497
G1 X142.813 Y97.593 E13.9499
G1 X142.554 Y99.853 E14.0614
G1 X142.553 Y99.858 E14.0616
G1 X142.538 Y99.955 E14.0664
G1 X142.537 Y99.960 E14.0667
G1 X142.059 Y102.228 E14.1802
G1 X142.058 Y102.233 E14.1804
G1 X142.027 Y102.347 E14.1862
G1 X142.026 Y102.353 E14.1865
G1 X141.292 Y104.573 E14.3011
G1 X141.290 Y104.578 E14.3013
G1 X141.251 Y104.677 E14.3065
G1 X141.249 Y104.682 E14.3068
G1 X140.293 Y106.823 E14.4216
G1 X140.291 Y106.827 E14.4218
G1 X140.248 Y106.913 E14.4265
G1 X140.246 Y106.917 E14.4268
G1 X139.099 Y108.963 E14.5417
G1 X139.097 Y108.967 E14.5419
G1 X139.051 Y109.041 E14.5462
G1 X139.048 Y109.045 E14.5464
G1 X137.739 Y110.981 E14.6609
G1 X137.737 Y110.984 E14.6611
G1 X137.688 Y111.051 E14.6651
G1 X137.686 Y111.054 E14.6653
G1 X136.244 Y112.864 E14.7786
G1 X136.242 Y112.867 E14.7788
G1 X136.190 Y112.927 E14.7827
G1 X136.188 Y112.930 E14.7829
G1 X134.640 Y114.600 E14.8944
G1 X134.638 Y114.602 E14.8946
G1 X134.582 Y114.658 E14.8984
G1 X134.580 Y114.660 E14.8986
G1 X132.954 Y116.173 E15.0074
G1 X132.951 Y116.176 E15.0075
G1 X132.890 Y116.228 E15.0114
G1 X132.887 Y116.230 E15.0116
G1 X131.209 Y117.570 E15.1168
G1 X131.206 Y117.572 E15.1170
G1 X131.138 Y117.623 E15.1212
G1 X131.135 Y117.625 E15.1214
G1 X129.433 Y118.773 E15.2219
G1 X129.429 Y118.775 E15.2221
G1 X129.355 Y118.821 E15.2264
G1 X129.351 Y118.823 E15.2266
G1 X127.628 Y119.789 E15.3233
G1 X127.625 Y119.791 E15.3235
G1 X127.547 Y119.830 E15.3278
G1 X127.543 Y119.832 E15.3280
G1 X125.804 Y120.625 E15.4216
G1 X125.800 Y120.627 E15.4218
G1 X125.719 Y120.660 E15.4261
G1 X125.715 Y120.661 E15.4263
G1 X123.963 Y121.291 E15.5175
G1 X123.959 Y121.293 E15.5177
G1 X123.879 Y121.318 E15.5219
G1 X123.875 Y121.319 E15.5221
G1 X122.114 Y121.797 E15.6114
G1 X122.110 Y121.798 E15.6116
G1 X122.031 Y121.816 E15.6156
G1 X122.027 Y121.817 E15.6158
G1 X120.262 Y122.153 E15.7038
G1 X120.258 Y122.154 E15.7040
G1 X120.184 Y122.165 E15.7077
G1 X120.180 Y122.166 E15.7078
G1 X118.413 Y122.373 E15.7950
G1 X118.410 Y122.374 E15.7952
G1 X118.340 Y122.379 E15.7986
G1 X118.337 Y122.380 E15.7987
G1 X116.572 Y122.469 E15.8853
G1 X116.569 Y122.469 E15.8855
G1 X116.506 Y122.471 E15.8885
G1 X116.503 Y122.471 E15.8887
G1 X114.736 Y122.455 E15.9752
G1 X114.732 Y122.455 E15.9754
G1 X114.663 Y122.452 E15.9788
G1 X114.659 Y122.452 E15.9790
G1 X112.885 Y122.319 E16.0661
G1 X112.881 Y122.318 E16.0663
G1 X112.806 Y122.310 E16.0700
G1 X112.803 Y122.309 E16.0702
G1 X111.025 Y122.047 E16.1582
G1 X111.021 Y122.047 E16.1584
G1 X110.942 Y122.032 E16.1624
G1 X110.938 Y122.031 E16.1626
G1 X109.158 Y121.628 E16.2519
G1 X109.154 Y121.627 E16.2521
G1 X109.073 Y121.605 E16.2563
G1 X109.069 Y121.603 E16.2565
G1 X107.292 Y121.048 E16.3477
G1 X107.288 Y121.046 E16.3479
G1 X107.205 Y121.017 E16.3521
G1 X107.201 Y121.015 E16.3524
G1 X105.431 Y120.296 E16.4460
G1 X105.427 Y120.294 E16.4462
G1 X105.348 Y120.258 E16.4504
G1 X105.344 Y120.256 E16.4507
G1 X103.582 Y119.363 E16.5474
G1 X103.578 Y119.361 E16.5476
G1 X103.502 Y119.319 E16.5519
G1 X103.498 Y119.317 E16.5521
G1 X101.750 Y118.241 E16.6526
G1 X101.746 Y118.239 E16.6528
G1 X101.676 Y118.192 E16.6570
G1 X101.673 Y118.189 E16.6572
G1 X99.940 Y116.921 E16.7624
G1 X99.937 Y116.918 E16.7626
G1 X99.875 Y116.869 E16.7664
G1 X99.872 Y116.867 E16.7666
G1 X98.184 Y115.423 E16.8754
G1 X98.181 Y115.421 E16.8756
G1 X98.123 Y115.368 E16.8794
G1 X98.120 Y115.365 E16.8796
G1 X96.505 Y113.762 E16.9911
G1 X96.502 Y113.759 E16.9913
G1 X96.448 Y113.701 E16.9952
G1 X96.445 Y113.698 E16.9954
G1 X94.929 Y111.950 E17.1087
G1 X94.927 Y111.947 E17.1089
G1 X94.875 Y111.883 E17.1129
G1 X94.873 Y111.880 E17.1131
G1 X93.484 Y110.000 E17.2276
G1 X93.481 Y109.997 E17.2278
G1 X93.432 Y109.924 E17.2321
G1 X93.430 Y109.920 E17.2323
G1 X92.198 Y107.924 E17.3472
G1 X92.195 Y107.920 E17.3474
G1 X92.149 Y107.836 E17.3521
G1 X92.147 Y107.832 E17.3524
G1 X91.102 Y105.733 E17.4672
G1 X91.099 Y105.728 E17.4675
G1 X91.057 Y105.631 E17.4727
G1 X91.055 Y105.626 E17.4729
G1 X90.228 Y103.438 E17.5875
G1 X90.227 Y103.433 E17.5878
G1 X90.191 Y103.321 E17.5935
G1 X90.190 Y103.315 E17.5938
G1 X89.618 Y101.069 E17.7073
G1 X89.617 Y101.064 E17.7076
G1 X89.597 Y100.968 E17.7124
G1 X89.596 Y100.963 E17.7126
G1 X89.242 Y98.716 E17.8241
G1 X89.242 Y98.712 E17.8243
G1 X89.232 Y98.632 E17.8282
G1 X89.232 Y98.627 E17.8284
G1 X89.056 Y96.416 E17.9371
G1 X89.056 Y96.413 E17.9372
G1 X89.053 Y96.347 E17.9404
G1 X89.053 Y96.344 E17.9406
G1 X89.017 Y94.181 E18.0466
G1 X89.017 Y94.178 E18.0467
G1 X89.017 Y94.127 E18.0492
G1 X89.017 Y94.124 E18.0493
G1 X89.082 Y92.106 E18.1483
G1 X89.082 Y92.104 E18.1483
G1 X89.084 Y92.067 E18.1502
G1 X89.084 Y92.065 E18.1503
G1 X89.210 Y90.201 E18.2417
G1 X89.210 Y90.200 E18.2418
G1 X89.212 Y90.177 E18.2429
G1 X89.212 Y90.176 E18.2430
G1 X89.592 Y85.953 E18.4507
G1 X89.632 Y85.115 E18.4918
G1 X89.629 Y84.485 E18.5226
G1 X89.591 Y84.056 E18.5437
G1 X89.533 Y83.769 E18.5581
G1 X89.452 Y83.528 E18.5705
G1 X89.319 Y83.244 E18.5859
G1 X87.877 Y80.759 E18.7266
G1 X87.876 Y80.756 E18.7267
G1 X87.849 Y80.707 E18.7295
G1 X87.848 Y80.705 E18.7296
G1 X87.329 Y79.690 E18.7854
G1 X87.328 Y79.688 E18.7856
G1 X87.308 Y79.647 E18.7878
G1 X87.307 Y79.645 E18.7879
G1 X86.753 Y78.436 E18.8530
G1 X86.752 Y78.434 E18.8531
G1 X86.734 Y78.391 E18.8554
G1 X86.733 Y78.389 E18.8555
G1 X86.150 Y76.950 E18.9316
G1 X86.149 Y76.948 E18.9317
G1 X86.133 Y76.907 E18.9338
G1 X86.132 Y76.905 E18.9339
G1 X85.525 Y75.205 E19.0224
G1 X85.524 Y75.203 E19.0225
G1 X85.511 Y75.165 E19.0244
G1 X85.511 Y75.163 E19.0245
G1 X84.884 Y73.171 E19.1268
G1 X84.883 Y73.170 E19.1269
G1 X84.872 Y73.134 E19.1287
